/* XPM */
static char *_b8703824ea94ad8b9acbc78f63dfc82khzZNVZ3MmfdgmWe[] = {
/* columns rows colors chars-per-pixel */
"128 128 200 2 ",
"   c #3D290E",
".  c #2F2A1D",
"X  c #3E2713",
"o  c #3E2912",
"O  c #3B2718",
"+  c #332C1D",
"@  c #3D2D1B",
"#  c #3E311C",
"$  c #3F391A",
"%  c #272925",
"&  c #2C2B25",
"*  c #2F2729",
"=  c #2C2C2B",
"-  c #322B23",
";  c #392E23",
":  c #342E2B",
">  c #392F2C",
",  c #2E312B",
"<  c #353226",
"1  c #3D3324",
"2  c #35332C",
"3  c #3B342B",
"4  c #3C392C",
"5  c #2E2F35",
"6  c #332E33",
"7  c #353332",
"8  c #3A3432",
"9  c #373A35",
"0  c #3C3A33",
"q  c #353339",
"w  c #3F3B3F",
"e  c #41290F",
"r  c #412613",
"t  c #432E15",
"y  c #482D16",
"u  c #442E19",
"i  c #482E19",
"p  c #443116",
"a  c #493416",
"s  c #4D3817",
"d  c #45341B",
"f  c #49351B",
"g  c #45381D",
"h  c #4C3A1D",
"j  c #503D16",
"k  c #523D1E",
"l  c #583F1F",
"z  c #422F22",
"x  c #443522",
"c  c #493621",
"v  c #453924",
"b  c #4D3B22",
"n  c #41362A",
"m  c #443A2B",
"M  c #4C3D2B",
"N  c #523D22",
"B  c #583E25",
"V  c #523E2A",
"C  c #583F28",
"Z  c #443732",
"A  c #443C33",
"S  c #4A3E32",
"D  c #413B3A",
"F  c #533E30",
"G  c #4E411E",
"H  c #53411F",
"J  c #4E4225",
"K  c #46412C",
"L  c #4D422C",
"P  c #554225",
"I  c #5A4326",
"U  c #5D4827",
"Y  c #55432A",
"T  c #5C452A",
"R  c #5E492B",
"E  c #454135",
"W  c #4D4333",
"Q  c #444239",
"!  c #4C443B",
"~  c #4D4A3C",
"^  c #534433",
"/  c #5A4632",
"(  c #554935",
")  c #5C4B34",
"_  c #534639",
"`  c #544B3C",
"'  c #5A4C3B",
"]  c #56503F",
"[  c #5C503E",
"{  c #624626",
"}  c #634926",
"|  c #694B26",
" . c #61462A",
".. c #61492A",
"X. c #624A2B",
"o. c #644B29",
"O. c #64482B",
"+. c #644B2A",
"@. c #634A2C",
"#. c #654A2D",
"$. c #624C2D",
"%. c #654D2E",
"&. c #6A4F2A",
"*. c #694D2C",
"=. c #6D4E2D",
"-. c #66502E",
";. c #69502A",
":. c #6A512E",
">. c #6D532F",
",. c #6E522E",
"<. c #70532E",
"1. c #72532F",
"2. c #604730",
"3. c #624B31",
"4. c #664E30",
"5. c #6A4E30",
"6. c #6B4F30",
"7. c #614C38",
"8. c #675131",
"9. c #675132",
"0. c #6E5431",
"q. c #6C5433",
"w. c #62523A",
"e. c #6C5639",
"r. c #67583D",
"t. c #6E593A",
"y. c #735633",
"u. c #795735",
"i. c #755935",
"p. c #795934",
"a. c #74563A",
"s. c #745A3A",
"d. c #7A5B3A",
"f. c #444440",
"g. c #4D4540",
"h. c #4E4C43",
"j. c #4F4D49",
"k. c #554D43",
"l. c #594E43",
"z. c #544E4B",
"x. c #584D4C",
"c. c #4F524D",
"v. c #545145",
"b. c #5B5144",
"n. c #54524B",
"m. c #5B534A",
"M. c #5C584F",
"N. c #544F51",
"B. c #535252",
"V. c #5D5453",
"C. c #5D5A53",
"Z. c #5E5D5A",
"A. c #635444",
"S. c #695744",
"D. c #675947",
"F. c #6C5A43",
"G. c #63554C",
"H. c #655B4D",
"J. c #6B5A4A",
"K. c #725C41",
"L. c #635753",
"P. c #645D54",
"I. c #6B5E54",
"U. c #635D5B",
"Y. c #6A5E5B",
"T. c #5F615B",
"R. c #6A6356",
"E. c #64615B",
"W. c #6B645C",
"Q. c #71665B",
"!. c #756B5F",
"~. c #656462",
"^. c #6B6463",
"/. c #676963",
"(. c #6D6C67",
"). c #6E676A",
"_. c #676968",
"`. c #6E6B6A",
"'. c #706363",
"]. c #736B64",
"[. c #796D65",
"{. c #736D6A",
"}. c #796D68",
"|. c #777165",
" X c #7D7163",
".X c #73726C",
"XX c #7C736B",
"oX c #7C796E",
"OX c #736F70",
"+X c #727171",
"@X c #7C7572",
"#X c #7C7B74",
"$X c #7D7E79",
"%X c #83766A",
"&X c #837C75",
"*X c #837D7B",
"=X c #7F807C",
"-X c #8C8076",
";X c #81827E",
":X c #877C80",
/* pixels */
"d N N N U %.@.@.X.U X.U N f f f P @.o.o.o.@.X.@.$.h t t t R X.X.U P P P Y d f f b R R  . . .R R T f p p k U U U T Y Y P P N k N N N N N  .o.X.X.X.R U U @.s f f s @.o.X.X.@.@.X.T t t t h X.X.%.R P N P h d f d P R R R @.@.@.@.b g f f P T U I I P P P I l l l ",
"p N k N I U @.@.@.X.U X.P f f d P @.o.o.o.X.} X.@.s t t t $.%.o.} I I N P d d f h R U  .{ } X.o.U p d g N X.X. .I P P P N h h h b b N k X.*.o.o.} U I I @.f g g h %.o.o.o.o.X.X.T t p t s X.} } U I I P h p d p P $.X.X.X.o.@.4.b g f f U X.X.X.U I P P P l l k ",
"d R I U q.%.@.@.%.q.%.4.T f f d U q.q.q.q.q.q.:.-.s p d p 8.q.>.y.y.:.5.$.g f f h $.%.=.=.;.:.=.o.p p d N 5.=.>.y.>.*.8.I h b b g g g h X.>.=.>.1.=.=.=.4.f d g h q.>.1.1.1.>.q.%.p p p N q.q.>.>.q.>.:.I p p p U 8.q.q.y.=.*.q.N d f s $.%.=.;.;.X.R @.$.%.X.X.",
"f q.t.s.q.%.@.@.4.e.s.e.U f f d T a.a.i.i.i.i.i.q.s a a f q.y.i.p.p.i.s.q.s p f s q.s.i.i.p.p.i.*.p p d P i.p.p.p.p.i.y.T d d d d d d f o.u.u.p.p.p.p.p.q.f d f h q.u.p.p.p.p.i.:.p d f N q.i.y.u.p.u.y.U a f a R e.i.i.i.d.d.y.N f g s -.i.i.i.>.X.X.@.%.q.q.y.",
"f e.s.s.*.o.o.X.%.q.s.e.U f f d o.a.s.s.i.i.i.i.q.s a f f q.i.d.d.p.i.s.q.a p f h q.i.p.p.i.i.i.o.a p g B y.u.p.p.i.d.i.I d d d d d d p o.d.p.p.p.p.p.i.q.f d f h y.p.p.p.p.p.y.-.p f f N q.s.u.u.p.i.i.I p a a @.q.i.s.d.u.u.y.k f d a -.i.i.i.>.o.X.o.%.q.s.s.",
"b q.q.q.*.o.o.@.%.q.q.q.U a d d T a.y.i.s.s.i.y.q.s f f s q.y.y.p.i.y.q.q.f f h k q.y.y.y.y.y.y.%.a g d P y.y.y.s.y.q.q.T d d d f d f g :.i.i.i.i.y.y.i.8.f d d h q.y.u.p.y.y.q.8.f f f N q.y.i.i.i.y.q.I p p p R e.y.y.s.i.i.q.V g f f 8.q.q.y.>.o.o.o.%.y.y.y.",
"P 8.X.} %.o.o.o.%.%.%.%.T p p p P 5.o.o.o.%.o.*.5.f d d a %.o.| o.%.@.T / d p d h 3.@.o.o.o.o.@.4.f g g P X.o.@.3.U P T N t t t t t t o I I I } o.o.X.X.4.f d d h q.%.o.%.X.X.$.R t p p h @.o.*.*.%.%.q.I p p t T *.o.o.@.@.o.@.b p u t @.%.o.*.*.o.o.o.o.*.*.*.",
"P X.} o.%.o.o.@.@.@.X.@.P p p p N  .{ { { @.*.@.@.a t t t X.X.o.X.R T T Y p t p f R R X.X.o.o.@.U f d d N U  .o.I Y Y Y f         o o   k I P P U U  . .U f d f h @.@.X.X.R U U P e e t h @. .@.@.X.X.%.P t t t P o.{ o. .X.U T h t u t U @.X.o.o.o.o.o.o.o.o.=.",
"P X.o.o.o.o.o.@.@.@.@.@.P p p p N R { { { @.%.@.@.a t t t X.X.o.@.U T T T p p p a R R R X.o.o.@.T f d d N U o.o.I Y Y Y h e r e     o   N P P P U U  . .T f x c h @.@.X.@.@.U U P t t t h @.U @.@.@.X.4.N t i t P @.o.o.X. . .o.h t t t U @.X.o.@.o.o.o.o.o.o.=.",
"P o.o.o.o.o.o.o.X.X.@.X.P p p p N X.{ { X.@.@.@.@.a t t t X.X.o.@.U T T T p p p a R R R X.o.@.@.T a d d N U o.o.I Y Y Y h r r r o o o o N Y P P U U  . .T f x c h @.@.X.@. .U U P t p p k X.U T R X.X.@.N t i t P @.o.o.X. .U o.h t t t U @.X.o.o.o.o.o.o.o.o.=.",
"h :.=.*.q.o.o.o.X. .X.U P d d p N @.o.o.X.@.@.@.@.a t t t X.X.o.X.T Y T Y a p a f T R R R @.@.@.T f d d N U o.o.I Y Y Y f o r r o o o o N Y P P U U U U T f x c h o.@.@.@.o. .T Y a p p s Y Y U U X.X.@.N i i t B @.o.o.o.@.@.@.k d f a U  . .{ o.o.o.o.*.y.>.&.",
"b i.i.i.q.o.o.o.X.{ X.U P d d d P @.X.o.X.@.@.@.@.a t t t @.X.o.X.I P Y Y f a f f I R R R @.@.@.T f d d N U o. .I Y Y Y f o r r o o o o V Y P P U U U U T f d f h o.@.@.@.@. .T Y a a a s P Y Y U R X.@.N i i t B X.o.o.o.@.@.@.k a f f U U  . .{ o.o.o.*.i.i.i.",
"h s.i.i.q.o.%.o.X.U X.U P f d f P @.o.o.@.@.@.@.@.a t t t R X.@.R P P P P f f f f I U U R @.@.@.T f d d N U U U Y Y Y I f o o o o o o   V T Y Y T T T T Y f d f f o.@.@.@.@.T T Y a f f s P P Y U R @.@.N i i t B @.o.o.o.@.@.@.N a f f U U  . .o.o.o.| *.y.d.s.",
"h s.i.i.q.o.%.o.X.U X.U P f d f P @.@.*.@.@.@.@.@.f t t t I T T T P P P P f f f f I Y U R @.$.$.T f d f N U T T Y P P P f               N T P Y Y T T T Y f f f f T @.@.@.T T U P f s f h P Y Y Y T U Y N i i t N @.X.X.X.@.@.3.N a a a U U U  . .o. .o.@.a.i.i.",
"P s.i.i.q.o.o.o.{ { X.U P f f f P @.@.@. .P P P T t t t p P P P P P P P P f f f f I P I T U R R T d d f h P T T T Y Y Y g               N T Y Y I I I I Y f f f g R @.@.T T Y Y N f f f h P P P P P P N b t i t N P I U X.@.@.3.N a a a U U U U X.X. .o.@.y.i.i.",
"I i.p.i.1.| | | { { { { P f f f Y 3.3.@.I N P P P t t t t N N P P P P P P d f f f P P I I T T T T f f f h P Y T T T T R b               P T T T T Y Y Y P h f f f T R R T Y Y P N f f f h P P P P P P N h t t t b P P P U X.@.3.b f a a U U U U { { { o.| u.u.i.",
"P y.i.d.*.| | | { I { U N a f f P 3.2.3.T Y Y T T d d d p b N N V Y Y Y P d d g g P Y Y Y T T T T f d f f V Y T T / / / b o o o o o     Y T T T T Y Y Y P h f f f T R T U I P P N f d f b Y P P P V P V h d p u V T T Y T R 3.T b f f f T R R R @.@.@.o.| y.d.d.",
"P q.s.K.8.$.U R $.R @.R P d d d P / / ) Y Y Y Y Y p u u p b b b M Y M Y Y d d x x J Y Y Y Y / / T d d f f M V Y Y ) / / b o o o o o o o Y ) Y ) Y Y Y Y P b f d f R ) R R I Y Y N d d d b Y M Y Y M V M f p p p c Y Y Y ) ) ( ) M d d d T R R R P 3.4.@.4.q.s.a.",
"J ) ) w.) ) Y Y / ( ' ' Y g d d M Y ^ / ^ Y L Y Y d u p g x x b c ^ Y ) ) d g x v v M M L ) ' ' ^ f d d x c M M Y ) ( ) b o o o o o o o Y ( ) ) K L M M c x d d x ( ' ' ( M L J v d d g c ^ ^ ( Y v m m x # d d M ^ ^ ( ( L L ^ c x x g / ( ) ( ( ( ( ( ( ( / / ",
"v + + . < 3 4 1 A b.l.l.W x g d x n n v ^ ` v.k.( v c x x n 3 1 n l.b.v.` g g x v n n n A l.l.[ ( d d d v 3 m v Y b.b.[ M o o o o o o O W k.k.v.m 3 3 1 1 1 x x v ( k.v.` 4 Z 4 v x d g K ` b.` W n n v 1 # d d W k.k.l.M m 4 3 v v v v ` ] v.v.( n 1 3 3 - ; @ ",
"m & % % = 2 7 8 E z.x.z.! v x x 1 2 2 3 W v.B.n.k.v c d g 3 6 < 4 k.B.c.h.g g x x > > > D z.m.b.( x d x 3 2 2 3 W b.v.k.M O o o o   o O ! n.n.v.0 2 2 2 < 1 x g v k.z.v.j.2 7 2 1 x d g K v.n.v.! 4 1 1 1 g d d W v.v.k.S 8 7 7 n v v n ` v.c.n.k.A 7 9 7 & - - ",
"m , = = = 2 2 0 Q z.x.z.! v x x n 3 2 4 ! v.B.B.k.n c d x 3 2 3 4 k.n.v.~ x d x v 1 3 2 D v.b.b.^ x g v 3 7 7 8 A l.v.k.m O o o o r r O ! n.n.n.Q 7 2 < < 1 g g v ` z.v.j.8 7 2 3 x d d K k.v.v.Q 4 2 3 1 g d g W l.b.k.S 8 9 7 m v v v ` z.B.N.l.Z 8 8 7 = - - ",
"K 0 9 2 4 3 4 m W k.l.` W x d x v m m m W k.v.k._ c c f d m m m m ` k.k.( d d d x v m m S ` ' ' ^ d d x x n Z m M ' l.( m O o o o r r O ^ l.k.k.S m m m n x d d x ` k.k.` m m m m c d d K ( k.` W m 1 v 1 p d p M ' ' ( S m 4 3 v v x x ( ` z.z.` m n 4 8 8 8 4 ",
"W n.n.v.k.W M b V ^ Y T P p d g g h b M P Y Y Y Y a d d d M M M M Y ^ Y Y d g d f N V V V Y Y Y Y i i i f b V N V Y Y T h       o r r r M Y Y Y M V M M M d i i f / / Y V b V V b c f d M Y Y Y Y b b b b d u u M Y Y P V b b b g f d d L J J J P M M v W b.m.m.",
"W n.B.M.` Y V k N Y Y I N p d d g h b b P P I I P p p p d b N b N P Y I Y d g d f k l N V P P Y P t t i f N N N N Y Y Y f       o r r r N P Y Y V N N M M d i i d Y T Y Y V k N b d f f b Y Y Y V N b b h t u u b Y Y P N N h h h f d p P P P P Y P N b Y b.m.m.",
"L m.M.H.' P N k N Y P I N p d c g h b b N P I I P p p d p N k k k P I P I d f d f k k k P P P I P t t i f N N N V Y Y Y f   o o o X r r N P I N V k k N b d u i p P T Y P N k N h d f f N T I P P N N b h p t t b P P P N N k k h g d p P P P P P N N N Y b.m.G.",
"J J.J.F.r.P G P P U P P N d d d h P N N P U U I P d p d p P I l I I I I T d d d d V N N P I I I N t d i h P P P N P P P f o o o o o o o h N P N P N N N P p d d d T U U Y N P P b d d d b T U P P P N P b p p p N P I I P N N P f d d p N U U U P N N N Y A.A.S.",
"V F.F.F.e.P J Y U @.o.@.Y p u t h P P P T @.@.@.R h f f f U R R R X.o.o.U p u i d C Y P I X.X.R Y f f f N U R R P N k N f o o o o o o   h N N N P U U U U h c c b @.@.@.@.P P P P p u d h U @.@.#.o.@.R N d d f P X.X.X.T P P P f t p p P @.@.o.X.P P P T F.K.K.",
"b s.s.t.e.P P Y I  .@.@.N u p p b Y I P U @.X.X.T h f f f T R X.@.@.o.X.U p u i d C P P I X.X.R Y d f f N T U R I k k N f o o o o o o   h N N N U U U U U f f f f T o.@.U P P P V t t t f R %.@.o.@.*.@.N p d p P @.X.@.T P P T f t t t T @.X.o.{ I P P T s.s.s.",
"N s.s.s.e.P P P U @.o.@.C u u t h P P P T @.X.X.@.h f f f R X.X.@.@.o.X.U p u u f Y P P I X.X.@.T d d f N R U R P k k N f o o o o o o   h N N N U U U U U s f c f 3.@.@.U P P Y V t t t f @.$.#.@.@.@.@.N f d f P $.o.@.T P Y P f t t t U @.X.o.X.P P P T s.i.i.",
"P i.p.i.q.P P P U @.o.3.N t u t h P P P U @.X.X.@.h f f f U U U X.@.X.X.U p u u f Y P P I X.X.@.Y d d d N @.R R I k k N a o o o o o o   h N N N U @.@.@.U a d d f 3.@.@.R P P Y V u t i h $.@.@.o.U U U N d d d P X.X.X.T P Y P f t t t U @.X.o.o.I P P I p.p.p.",
"H p.p.i.y.P P P U @.@.@.N t u t h P P P Y U U X.@.f f f f N I I I X.o.@.U p u u f P P P I X.X.@.P t t t N 3.X.X.I k k N a o o o o o o   h N N N U 3.$.@.U a t t d 3.@.@.@.P P P V u u i b 3.$.3.T Y P Y V d d f P U U U T P Y P f t t t T @.X.o.o.I P P I p.p.p.",
"I p.p.p.q.I P P U o.o.@.P t i d b Y P P U  .U  .T f f f f P P P P U  .@.o.t t t d Y P P I @.$.3.B t t i N @.X.@.U k k N d o o o o o o   h N N N U @.@.@.R p t d a 3.@.@.R P P P V u u i b 3.$.R T P P P b d d f P U U U T P P P f t t t T @.@.@.@.P P P U i.p.u.",
"I p.p.i.y.I P P U o.o.X.P t i d b P P P T  .U  .U f d d f Y T T Y o.@.3.o.a i t d P P P I $.3.3.B y t i N @.X.@.U l k N f o o o o o o   h N V N U @.X.X.R t t i d R R R R P I Y Y u u i f R R R R P I P N f d f P T U U T P P P f t t t T @.@.@.@.P P Y U i.p.p.",
"I p.p.i.y.I P P U @.o.@.P t i p V T T T U  .U  .U f d d f V N N N Y U T T t t u d Y T T I T T T P y t i N @.@.@.U N P P f o o o o o o   h N V N U @.X.X.R t t t t U T T T I T U Y i i i f U U T P N N N h d d f P T U U T P P P a t t t T @.@.@.@.P P Y U i.p.p.",
"I i.p.i.y.I P P U %.X.@.P t i p V T U U T  .X. .T f d d f N N N N P P P Y t i u f T R R I P P P N t t i N @.@.@.U P P P f o o o o o o   N P P P R @.X.X.R p t i p P P P I T R T Y i i i d P I I P k N N h f d f N T U U U T T T f p t t T @.@.@.@.P P Y U i.p.p.",
"I i.p.i.y.I I P U X.X.@.N i i p N U U U T  .X. .T f d d f N N N N P P P Y p d t f T R R I P P P N t t i N @.@.@.U P P P f o o o o o o   N P Y P R @.@.@.@.p i i d P P P I T R T Y i i i f P P I P k N N h f d f N T  . .U U U U f p t t T @.@.@.@.Y P Y U i.p.p.",
"I i.p.i.y.U P P U @.X.@.N t i p N U U U T  .X. .T f f d f N N N N P P P P p p t f T R R U P P P b t t i N @.@.@.U P P P f o o o o o o   N P P P R @.@.@.@.p i i d P P P I T R T Y i i i f P P I P k N N h f d f N T  . .T U U U f p t t T @.@.@.@.Y P Y U i.p.p.",
"I i.i.i.y.U P I U X.X.@.N t i t N U U U T P U T T f f f f N N N b P P P P d d d f T U U I P P N b t t t N @.X. .U P P P f o o o o o o   N P P P U X.X.X.R t i i d V N N P T U U Y d d d f P P P P k N N h d d f V Y P Y T R U R h p d t U @.X.X.X.T Y Y  .i.p.u.",
"I s.i.i.q.U I U U R  .@.N t i t N U U U T Y Y Y Y f d f f V N N b P P P P f d d g T U U U N N b h t t t b  .U U U P P P f o o o o o o   N P P P U U U U R t u i d V N k N U U U Y f f f g P I P P N N N h d d d N P P P Y @.U @.h a d t I @.U U U U T U o.s.p.i.",
"I s.i.i.q.{ U U U R U U N t i t N U U U Y C Y Y P f d d f N N N N P P P P d d d g T U U U N b b h t t t c  .U U U P P P f o o o o o o   N P P P U U U U R t u i d V N k N U U  .Y f f f g P Y P P N N N h d d d N P P P Y R U @.h a i t Y T U U U U T T o.s.p.i.",
"I q.y.y.q.X.U U U I I U N t i t N U U U Y C Y Y Y f d d f V V N N P P P N d d p g / R X.U N b b h t t t N o. . .U P P P f o o o o o o   N T P P U U U U R t u i d V N k N U @.o.I f f f g P Y P P N P N h d d d N P P Y T T U U h i i t Y T U U U U T T o.i.u.1.",
"P *.*.*.%.X.U U U I I P N i i t N U  .U U T Y T T f d d f N P P P N P N b p p p f 3.@.@.R N N N b t t t N @.X. .R I T T c o o o o o o o V U I U U U U U R t u i i N k k P @.@.@.U d d d f P P N P P P P h d d d V T U T T T U U h i i i Y Y P P I T I T  .=.| | ",
"P %.o.o.X.U U U U P P P N i i i N o. .X.@.3.T / T f d d f N P P P P N b h p t p d / 3.@.R N N N b t t i N @.X.X.R R R R b o o o o o o o V T U U U U U U R t u i i N k k P @.@.@.I t t t d N P N P P I P N d d d P R @.T T T U U h i i t Y P P P P I I U  .o.| | ",
"N @.o.o.X.I  .@.U I P P h p t t N U U X.@.T T @.R g d d f P P P P P N b h p t p a @.@.@.X.N N N b p t i N o.@.X.U U U U b o o o o o o o V U U U T R R R R t t d i N N N N @.X.X.U u u u d N N N P P I P N d d d P T U T T R R U h i t t P Y P P P U U U  .{ { { ",
"k @.o.@.@.I  .X.U P P P g p p p N T  .X.@.o.T T R f d d f Y Y Y P V N b b p p p a @.@.o.X.N N N b p p d N T U U U R  .U b o o o o o o o V U T T T T R R T p t p p N N N N U X.o.U t i t a N N k P P P P N d d d N T  .o.@.X.X.U f p t p N P P P I U X.@. .| { { ",
"h q.=.5.*.X.o.@.U N P P g d d d N @.@.@.@.o.T T R f d d d Y P Y P V N N b p p d f 3.@.o.X.P P P P d p d b Y Y P P  . .U b o o o o o o o V U T T T T T T T f f f a P P N P X.X.o.U t t t a N N k P P P P N d p d N T U U @.X.X.@.b d a a N P N N B  .X.@.#.>.=.*.",
"h s.i.i.q.o.o.@.U P P P g d d f C 3.@.@.@.o.T T R f p d d P P P Y P b N b d p d f @.@.o.X.P I Y P d d c b Y P P P U  .U b o o o o o o o V R T T T Y Y Y P h f f f P Y P I X.X.o.U t t t f N N N P P P P N p p t V T U U @.X.X.@.b f s a k N N N B  . .o.o.y.u.y.",
"h s.i.i.y.o.o.o.U l k P h d d f Y @.@.@.@.o.T R T f p p p P P P Y V h h h p t t a @.@.o.X.P P P P d d d b P P P I U  .U N o o o o o o o Y R R @.Y P P P P f d f f P P V P X.o.o.U t t t f N h N N N P P h t p p V T U U X.@.X.@.b f f a k P N N P R X.o.| u.p.u.",
"f i.i.p.y.o.| o.U N k P h g d f Y @.@.@.@.o.T T T d p p t P P P Y V N N h p t t a @.@.o.X.P P P P d d d b P P P I R  .o.N o o o o o o o Y R R @.Y P Y Y N f f f f Y Y P I X.o.o.U t t t f N h N N P P P h p p p V T U U X.@.X.@.b f f a k P N N I X.X.@.*.p.p.p.",
"H i.i.p.y.o.| o.U N k P h g d d P @.X.X.U P P T I d d d f T R R T V b N N d d d s @.@.o.X.R R R P d d f b P I P I X. .o.N o o o o o o o Y R R @.P N N N N f f f f Y T T U @.o.o.U f f a f N b P P @.@.R P d d d N P P P @.@.X.@.b d f a N N N N P X.X.*.=.p.p.p.",
"I s.i.p.>.| } o.U I P P N d d d P @.X.X.U N P P Y f g f h @.@.@.U N V V b d d f s @.@.o.X. .U T P f d d b N N l I X. .o.N o o o o o o o Y R @.R P k k k N s a a f T U o. .X.o.o.U f f f f N b P I @.@.$.P d d f N P P P U @.@.$.h d d f P P P P P R X.@.=.p.p.i.",
"I s.i.i.>.| } o.U B P P V f d g P @.X.X.U N P P Y f d f f R @.@.U N V V M d d f s @.@.o.X. . .T P f f d g N l l I X.X.@.N o o o o o o o P R @.R P N N N k s f f f U o.o. .@.o.o.U f f f f b b P I X.@.@.P d d d N P P P U o.o.@.h d d d P P P P P R @.@.=.i.u.d.",
"I s.i.i.q.| } o.U P P P V f d g P @.X.X.U P P P I d d f d @.@.o.U N N V b d d f s @.@.o.X. . .T P f f d g N l l I X.X.@.N o o o o o o o V R @.R P N N N k s f f f U o.o. .X.o.o.U f f f f b b P I X.@.$.P p p p b P P P U o.| @.h d d d P P P P T R @.@.=.p.u.d.",
"P s.i.p.>.} } o.@.U U R P f d g P @.X.X.U P P I P d d p p @.X.o.@.Y P P P d f f s @.@.o.X. . .T P f f d g N N k B  .X.o.N   o o o o o o N R R R N N N N k s a f f U o.o.o.X.o.o.U d d d g P P P I X.@.4.P p p p b Y Y P o.#.*.@.h d d f T T T R U R X.o.=.p.p.p.",
"P s.i.i.>.} } o.@.U T R Y f d d P @.X.X.U P P I P p p p p X.X.o.@.Y P P P d f f s @.@.o.X. . .T P f f d g N N k I  . . .k   o o o o o o V T R R N N N N k s f f f U o.o.o.@.o.o.U d d d g P P P I X.@.4.P p p p b Y Y C o.#.*.@.h d d f T T T R R R @.o.=.p.1.p.",
"P s.i.i.q.} } o.@. .T R P d d d P @.X.X.R P P I P p t t t X.X.X.@.Y P P P d d f s @.X.o.X. . .T P f d d b N N k I  . . .k e o o o o o o V T R R N N N N N h f f f T T o. .X.o.o.U d d d g P P P I X.@.4.P p p p b Y P P  .o.%.@.h d d d T T T R R R X.o.| u.u.p.",
"P s.i.p.>.o.} X.@.@.T R P d d d P @.X.X.U P P P P d i t t X.} } R Y Y P P f f f h @.X.X.X. .o.T P p g d b P N N P  . .U k e o o o o o o V T R R P N N N N h f f f T R X.} o.X.X.U f d d b Y P P I @.@.4.N t p p b Y P P  .@.@.3.b d f f T U U U R X.X.X.| y.i.i.",
"H o.o.=.=.o.o.@.@.@.U R P d x f N X.U U P I P P N t i t t X.X.} X.T T T I f f f f X.X.} | o. .X.P p d p g V N N P I I I h   r o o o o o V U I T P N N N N f p d d R R } X.X.X.X.U f f d b R I I U @.@.@.N t t t b P P P U @.T / b d f f U U X.X. . . . .o.*.q.=.",
"k I I { { @.@.X.X.X. .X.P f x d N P P P P N l N N t i i t @.@.X.o.o.X.@.U f d d f X.| | | | o.X.I p t i f N N N C Y Y Y f o o o o o o   V T P P N k N N h d p p d 3.@.X.X.X.@.@.T x c f N @.X.@.o.@.X.@.N t t t g V V b N P P Y g d d f U @.o.o.o.#.#.o.o.o. .U ",
"P I I { X.*.@.X.@.@.@.4.P d d d b Y Y P N N N N h t i i i 3.3.3.o.@.@.) / g d d h R o.o.} o.o.$.T t t d f k N N Y Y Y Y c o X o o o o   b P P P P N P b g d t t d 3.3.@.o.o.o. .Y d f f N @.@.4.@. .@.@.N t p t f M M N P P P I f d g d U @.o.o.o.o.{ o. . .U @.",
"I I U U @.4.3.3.3.R / 3.Y d d d M Y Y Y Y Y M M V d i i i ) 7.7.2.R ) ) ) g g d g T R $.3.) ) ) T u u p d b P M J ^ L Y x o X X o o o o V Y Y Y J M M b b d t t d 3.3.o.@.@.@.T Y d f f V 3.7.3.3.3.3./ V p t t b V V Y J J J P g g d p R 3.3.@.o.3.@.@.R R R R ",
"x L M M ^ _ ( Y Y ) ' ' Y d d p x M m v M ^ S W ^ c u u p V V F ^ ' ' ' ( x g g x Y Y Y ^ ] ' ' / @ u u d v m m E ~ ~ ( v o o r r o o o Y ' ( ( v v v v x d p d d 3.' / ' ^ ( ^ V f f d M ' ' ' ( ^ L Y v p t u c Y L ^ S m m m g d p p ) ' ' ' ' ^ ^ ^ Y ^ L K ",
"+ + - - - 2 < 3 W b.l.b.W # u u 1 3 1 1 S k.j.k.` v u p d 1 1 1 v ` m.z.k.v g $ $ 1 n 4 D v.z.k.` x @ @ 1 3 8 8 Q v.v.] m O o r r o o O _ l.b.k.m 1 1 1 x d i d m l.l.m.l.3 2 2 1 f f x M k.k.k.~ 3 3 3 1 u i u M ( k.k.S 4 4 3 1 p t p ' l.k.k.` n 3 2 - - - + ",
"+ & & = = 7 2 4 E z.x.n.! x u d 1 > 2 3 W z.B.z.k.v u u # 3 2 < m ` B.B.z.v g $ $ 1 3 8 w B.B.z.k.v u # 1 < 7 9 Q v.v.k.m O o r r o o O g.m.v.v.0 2 2 < 1 u u u S z.n.B.N.7 7 7 3 f f x S z.z.v.g.4 2 2 3 x u u S k.m.l.M 4 8 2 1 d u u _ k.z.x.k.n 7 q 5 = & & ",
"+ = = = : 7 2 0 Q z.B.n.E x c z 1 3 8 3 ! z.B.z.k.v d d # 1 4 3 m ` m.x.k.v g g x 1 1 8 D B.B.z.~ n v @ 1 < < 4 E v.v.k.m O o r r o o O ! m.v.v.0 4 4 3 x z z x A n.B.B.N.8 8 8 n f f x S k.k.m.~ 4 3 3 1 x d x S k.m.l.S 4 8 2 x d d d _ l.z.z.k.Z 8 q 6 = : - ",
"1 f.9 0 D m n m W ` ` ` L p d d v m m m W ` k.` ( x d d g v m m v ^ ' ' ( x g g x v m n g.E.C.P.E.m.b.l.` m m m W ` ( ( v O o o o o o O ^ ' ' ` M m v v m l.k.k.C.~.Z.Z.E.Z A A m f f x M ( ( ` W v v v x d d p M ( ' ( M v m v x d d d ^ ( ` ` ^ m n Z 0 0 D D ",
"4 n.v.v.' L M h V Y P P k p p d g P P V P P Y Y P f d d f g b M J Y Y Y Y d d d b v M M b.XX#X@X&X}.].].b.L M M Y Y Y Y c   o o o o o X V T Y Y P N N N ( I.].).+X*X#X#XQ.W M M b f d d v / Y Y P g b b f p p p b P P P P b b b g f p d P Y Y Y Y M b M W v.n.M.",
"4 n.C.M.' V N k P Y P P h p d d h N P P P P P P P f d d f s h N P P P P I d d d b M V Y A.XX*X&X&X}.].].` J N V V V Y T c o o o o o o o V T P P N N N V ( H.{.`.+X;X$X$XW.^ V V N d d d b T Y T P h h N g d d p b P P P N N h N h f p d P Y Y Y Y M h b L v.C.C.",
"M m.G.A.) C V l P T T I b p p d h N P P P P P P P d d d f h k N P I I I I p d d M A.' ( H.!.I.Q.}.W.R.R.H.' ' ' / T U T b o o o o o o o N U P T ( ' ' ' b.I.P.E.^.}.W.R.!.b.' ' A.d p p h U I U P k k N g p p p b Y Y P P N N N h d p p P T T I Y P N b Y b.b.b.",
"P @.@.$.R P I P Y  .@.3.V p d d V U U R I P I P P d p d d N N k P R @.@.U p p t ^ %X}.{.}.L Y Y b g v m k.^.E.W.F.3. . .b o o o o o o   N U X.) H.W.^.^.Q.v v c @ b Y Y ' oX.X.X|.p p p s R X.R I k k N h p p p b Y Y Y T @.U U h p p p P U U {  .U Y Y T R 3.R ",
"P o.o.o.} P I Y U o.@.3.V p p p P 3.@.@.U P I P N d p d d N N k P X.@.$.R a t i M %X*X*X].' M V b @ o # k.{.+X].D.3.@.@.N o o o o o o   P X.X.) H..X+X.XR.S d d t N k N D..X;X$XW.p t p k X.X.X.U k k N h p p t b Y Y Y T $.R U h t t t I X.} o.X.U Y Y T @.@.R ",
"P o.o.o.X.P P P U o.o.@.Y u u t N @.@.@.U P I P P d p i i N N k P X.@.$.R a t i M XX*X*X].( b Y b u u x k.).).].D.3.@.@.N o o o o o o   P X.} ) P.(.`.{.R.m @ u t N k N b.oX$X$X].u t t k X.X.X.U k k N s p p t b Y Y Y T 3.R R h t t t I X.o.o.X.U Y Y T @.@.R ",
"P o.o.o.-.P P P U  . .@.Y p p t N @.@.X.I P I P N d t i i N N k P R X.@.X.a t i ^ -X*X*X@XL Y Y b d d d k.{.OX].J.3.@.@.N o o o o o o   P X.} R R.(.`.{.W.1 @ u i N P N ' &X=X;XXXo t t k X.X.X.U k k k f t p p b Y Y Y T @.R @.h t p t I X.o.o.o.U Y Y P @.U R ",
"h q.y.q.:.P P P U  .{ @.Y p d d N U  .X.I P I P N d i i i N N k P X.X.@.X.a p f ^ &X&X*X@X( / / V i @ d g.^.^.^.J.@.@.@.N o O o o o o   P X.o.R H.W./.^.R.v # @ d T 3.3.A.#X$X$X|.p d a l X.o.X.U k N N f t p p b Y Y Y T R R R h d d p U X.} {  .T P I I q.q.8.",
"h s.i.i.:.P P P U  . .@.P d d d N T U U I P P P N p i i t N N k P R X.@.X.a p c ^  X@X@X}.) ) 3.R a t x _ U.U.W.J.3.o.@.b o o o o o o   P X.*.R H.E.T.U.P.m 1 @ c 4.@.3.l.XX#X#X].d f f k %.o.o.U k N N f t p p b P P P T @.R T h f p p U U { { U I P P T y.y.q.",
"h s.p.s.q.P P P I  .X.R P d d d N T U U T Y P P P t i t t N N k P R @.@.R f d d ^  X&X*X].) ) 3.R f d u _ Y.Y.I.A.@.X.@.N   o o o o r e P @.%.R D.P.E.T.C.m @ @ b 4.R 3.A.XX:X*XW.x f f k %.o.o.U k P P f t t t N Y P P Y T R T b d d f P  . . .U I P P U i.i.y.",
"h s.p.s.q.P P P I  .X.R P d d d P R R R T Y Y T Y t i t t N N N P R @.@.R f p g M  X}.}.Q.' ' ' ^ c c c ^ G.L.J.r.@.X.@.N   o o o r r e P @.X.3.D.H.C.C.E.m m m c ) 7.) G.[.].}.!.g d f k @.o.o.U N J P f u i t N P P Y I U T T b d d f Y  . . .@.T Y P U u.p.i.",
"P s.i.s.q.P P P I  .X.R P d d d b Y I Y Y T T U T a i t t P P P P R @.@.R f p d b A.' l.G.G.G.L.L.l.G.A.A.l.( ' / R X.@.N   o o o r r e P @.@.R Y ( ` ` ` m.b.b.G.I.G.G.G.l.' ' [ d d f k @.o.o.U N P P f i i t N U U T T U Y T b d d f Y  . . .@.Y Y P U u.p.s.",
"I s.i.s.q.I P P I @.X.%.P d d d b P P P Y T U R U a i t t P P P P R @.3.o.f f d g Y V V l.E.{.^.^.U.P.L.' Y V P T R X.@.N   o o o r r e P @.$.R T P J L ` l.P.P.R.W.'.^.G._ J J b d d f k o.o.o.U P P P b i i t N U U T I P P P b d f d U @.@.o.@.Y Y P U u.p.i.",
"I d.p.i.q.I P P I @.X.%.P d d d b P P P Y T T R T a i i t P P P P R 3.3.o.f f d g P V N ' Z._.`._.~.Z.L.' Y N P U R R @.k   o o o o r e P @.$.R T N N b ( k.P.E.~._.).^.b.) P H h d d f N @.o.o.U P P Y b i i t N U U T T Y Y P b d f d T @.@.@.@.P P P U u.p.i.",
"I d.p.i.y.I P P I @.X.%.P d d d b P P P Y T T R U a i i t P P P P R 3.3.T f f f g N N B ' E.E././.E.U.L.' U H P U R R R h   o o o o o e N @.3.R U P P P / l.P.P.E./.^.W.J.P H H b d d d k $.X.%.U P P Y b i i t N U U T I P Y P b d g d U @.@.@.@.P P P U u.p.i.",
"P i.p.i.q.I P P I o.X.%.I d d d P @.X.R R R U U  .h f f f T U U T T R @.U f f f s P P P Y ( ^ ^ W S S M Y U I I I T T T h   o o o o o   N U I P R I I T Y M ^ W W _ _ ( / P P P N d d f h R X.R U T T T V a f a N T U U X.@.X.T b d d p R @.X.o.X.P P P U u.p.p.",
"P i.i.i.q.I P P I o.} o.I d x d Y @.@.@.@.R R U @.h f f f U U U T T T T T d d f s P Y P P N N N b f i d N U } X.U Y P P f   o o o   o   V T P P R R R R T f d f h N V V P P P P V f f f h R R R U U U U N f f f N T  . .X.o.X.@.b d d d R @.X.o.X.P P P U u.p.p.",
"P i.i.i.q.I P P I o.} %.I d x d Y @.@.@.@.R R U R h f f f U U U R T T T T d f f h P Y P P Y N N N f u t k X.X.@.T Y Y P f o o o o o o   N T P P R @.@.@.R f t d f V V P P P P Y P f f f h R R U U U U U N a f f N T  . .X.o.X.@.N d d p R @.X.o.@.P P P U u.p.p.",
"P i.i.i.q.I P P I X.} %.I d x d Y @.@.@.@.R R U U f f f f  . . .R T T T T f f f h P T Y Y Y B N N i u t k X.o.X.T Y Y Y f o o o o o o   N T P P R $.$.$./ f t d f V P P Y Y Y Y P f f f h T T U R X.U R N d d a N o.o. .X.o.X.@.h d f p T @.X.X.@.P P P U u.p.p.",
"P i.i.i.q.I N P I X.} $.I f c d Y @.@.@.R U R R U a p p p @.X.@.R T Y Y T f f f k I T T Y Y N Y N i i i k } X.X.T Y Y Y f o o o o o o   V T P P R $.$.$.R p t p a N P P Y Y T Y I f f f g Y P P U @.@.@.N p d i N o. . .X.o.X.@.h f f p T @.X.X.X.P P P U u.p.p.",
"P i.i.i.q.I N P I X.X.$.I f f d Y @.@.@.R U R R U a t t t o.X.@.@.T Y Y T f f f k T U T T Y Y Y N i i t k } X.X.T Y Y Y f o o o   o o   V T P P R $.$.$.R p t p a N Y P Y T T T Y f f f g Y P P T @.U @.N p d p N o. . .X.o.X.@.h f g p T @.@.@.@.P P P U u.p.p.",
"P s.i.i.q.I P P I X.X.$.P f f d Y @.@.X.X.U R U U a t t t o.X.X.@.T P Y T f f f h T U U I P P P N t t t N @.%.@.U Y P P f o o o     o   N Y P P U 3.3.3.3.p t d d Y Y Y T U U U I f f f h Y P P U @.o.@.N p p t N U  . .X.X.X.@.N f f f T @.@.@.@.P Y P U i.i.i.",
"P q.q.q.:.I I P I U U X.P d d d Y 3.@.X.X.U X.U U a p d p @.X.X.X.P P P Y f d d s U U { U I P P V p d a N @.3.@.U P P P f o o o o   o   N Y P P T @.3.3.U p d d a Y P P Y U U U I p p p h P P P U @.@.3.Y d d p N  . . .X.@.X.@.N s f f I $.$.$.o.T Y Y U q.q.q.",
"f @.o.o.o.U U U T P I I h t u u C 3.R X.X.U X.@.X.s a d a @.X.X.X.P P N N d t t s U U { { X.X.R P d d d N U Y Y Y P P P f o o o o       N Y Y P P P P P P a d d f T @.@.R R U U I p p p h P P P U @.@.4.Y d d a P @.@.@.@.@.X.U k p p p P P I P Y T U T U %.X.o.",
"g $.@.o.} { U U U I P P h t t t V R R X.X.X.X.@.X.s f f f @.X.X.X.P P N V i t t f T U { { o.@.@.Y d g d h P N P P P P Y h o o o o       b Y Y P P P P P P f d f b @.@.@.U U U U I t t t h Y P P U @.@.4.Y d f f P @.@.@. . .U U s p t p N P P P B T T U R %.o.o.",
"f $.@.X.} U U U U I P P h i i i V R R R X.@.@.@.X.s f f f @.o.X.X.P P P N u t t f o. .{ o.o.@.@.Y g g d h P Y Y P P P T c o o o o o o o b P P P Y P P P P f f d b @.@. .R @.R R P t t t h Y P P I @.@.4.Y d f a P @.@.@. .U U U s a t t N P P P Y T T U U X.o.o.",
"f $.X.{ { U U U U I P P b d i i V T T U X.@.@.@.X.s f f f @.X.X.X.P P P N u t t f o. . .{ } R R P d d d g P Y Y P P P P f o o o o o o o b P P P P P P P B a d d f U  .X.R @.R R P t t t f P V P I @.@.4.Y d f a P @.@.@.R U U U s p t p N P P P Y T T U U X.o.o.",
"h $.X.{ } U U U U P P Y b i i i N Y P I X.@.@.@.X.s f f f @.X.X.X.P P N V u t t a @.@.X.X.U U R P p d d h P P P P P N N f o o o o o o o b P N P P P P P N p i u f Y U U R @.X.X.T t t t f V N N Y @.@.3.P f d f P @.@.@.U P I U f p t p N P P P Y T T U  .o.o.o.",
"H $.o.X.X.X.U U T P P P b i i i b P P P U o.o.o.@.h f f f @.X.X.X.N N b N u i t a o.3.@.@.U U U P t t i h Y P P P N N V f o o o o o o   h N k N P P P P P t i u f T T U U @.@.@.T t i t f N N N P @.@.@.P f f f P @.@.@.U I P Y f t t p N P P P Y T o. . .o.o.o.",
"P $.o.X.X.X.X.R U P P Y N i u i b P P P U o.o.o.@.h f f f @.@.X.X.N N b N t i t a T 3.@.@.U U U Y t t i c Y P P P N N V f o o o o o o   f N k N P P P P P t i u f T R U U R @.@.T u i i f N N k P @.@.@.P f f f P #.@.@.T P P P f t p p b P P P Y U  . . .o.o.o.",
"P $.o.X.X.X.X.R U P P P N i i i c N P P U o.o.o.@.h f f f @.@.X.X.N N b N t u t a T @.@.@.U U U P t t i h Y P P P N N V f o o o o o o   f N k N P P P P P t i u d T R U U R R R T u i i f N N k P @.@.@.P f f d P #.@.@.T N N P d t p p b P P P Y U U { { | o.o.",
"P q.q.:.%.X.X.@.U P P P N i i i c N N N U @.{ o.X.s f f f U U U R k N N V i i t d P P P P l l N h t t t b R T U I N N N f o o o o o o   f N k N T R R R T p u i i N N N N P P P N u i i a N N N P  . .U P f f d P @.@.@.I N N N d t p p b P P P P @.@.{ =.i.y.q.",
"P t.s.s.q.X.@.@.U P P Y b i i i h N N l U @.{ o.X.s f f f U U U R k N N V i d p d P P P P l l N h t p t b R R T I N N N f o o o o o o   f N k N T R R R Y t u i i N N N N P P P N i i i a N N N P  . .U P f f d P @.@.@.T N N N d t p p b P P P P @.X.o.| 1.d.s.",
"P q.s.s.q.o.@.@.U P P P b i i i h N N N U %.} o.X.f d d f U U U U N k N V i d d d P P P P l l N h t p u b R R T I k N N d o o o o o o   f N k N U U U U P t u i i N k N P P P P N u i i a N N N P U U R P f f d Y 3.@.@.Y N N N d t t p M P P P P @.X.o.=.1.i.y.",
"P 5.5.5.5.@.@.@.U P P P N i i t h N N V T R R R U g d d f Y T T Y N N k N i d d f V V P N N N N h u p u b U U I I N M V d o o o   o o o f N k l U  . . .I t u u i N k k H k P P N d d i a k N k P T U U P d d d Y o.o.T Y N V V d t t t V Y Y Y P 3.@.@.*.=.&.| ",
"N U  . .@.@.3.3.T Y P Y N i i t h N k k P P P P P d d d d P C C C V k k N p d d f N N N l l l N b d d u b R U U I N N N a o o o   o o o f l k l U  . . .I t u u i N k k P P N P N d d f s N N k k P I I N d d d b P Y Y P k N N d t i t N P P P P @.@.3.@.@.o.| ",
"b R T R 3.3.3.3.T Y Y Y N i i i h H G H P I P P P f d d g P Y Y P P k k P p d f f N N H k k l l h i d u b T U U P k k N a o o o o o o o g N k N U T U U Y d u p u N N N N N N V b b b f f N N k k H P P h d d d b P P I P k k k a t i y N P P P P 3.3.3.3.3.U R ",
"V T R 3.T 3.4.3.R P P P N i i i g b J b Y Y P P Y d g g g P P P J P M J P p d d g b M M N N N N b t d p h T T T P N N N d o o X X o o o b b b N Y U T T T d u p p M M b P P b b b g d d c V N N V V Y P b d d d J Y Y Y b h P N d t t t Y P P P Y 4.3.T T T 3.R ",
"v M Y ^ Y ^ / / ^ W ^ Y b i i d x m m m W ( ( ( ( v x g x v v v v L M W L p p g d x v v m M M M M @ d p d M Y Y Y Y J Y c o o r r o o o M L M Y M M M M M d u d d L L K L v v v x d d d c ^ L W L M M m x x d d L ( ` ( J v m v d @ t u Y ( ( ( ^ ^ ^ ( ^ ^ Y L ",
"m < 2 & & < 3 4 E v.v.k.S u u x 1 2 8 3 E z.x.z.k.v g g x 1 4 3 n ` k.k._ # # # 1 1 1 3 0 j.h.` W # # # 1 1 3 4 W ~ ~ ` m O o r r r o O W _ ~ h.A 2 3 3 1 # u t d ( ` h.g.4 4 3 1 u u p m ` ` ` ! 3 m 1 v x d x ! k.z.k.K 3 4 4 1 # # # ^ l.v.v.j.0 8 8 2 - - < ",
"m 2 & % = 7 2 2 Q v.m.v.E @ u u 1 < 2 2 ! z.B.B.k.1 g d 1 < 2 2 n k.x.z.k.d @ @ 1 1 3 2 9 j.v.v.W # # # 3 8 6 2 ! m.n.k.m O o r r r o O W k.z.z.D 2 2 < 1 # u i d ` z.v.h.8 2 2 1 u i @ m k.v.v.! 3 2 ; n v g x _ v.z.k.m 4 7 8 1 # p # _ m.n.B.k.8 = , = = & : ",
"m < & & & 2 4 < E v.m.b.W @ @ @ 1 < 2 3 W v.B.n.k.m g g g 3 7 4 m k.x.x.k.x u u z 1 3 4 0 v.m.v.W # # @ ; > 8 3 W k.z.k.m O o o r r o o ^ m.M.v.E 3 3 3 1 1 i t d ' m.v.~ 4 3 3 1 z u # m v.v.k.E 1 1 1 v x d x _ b.m.v.m 8 8 2 ; @ p d _ m.n.B.k.m < 2 2 = * > ",
"m 0 8 0 D 3 4 4 E ` ` ` L d p d x m m m ^ ` ` ` ( c d d p m m m m ' k.k._ u u i c x n 4 A ` ` ` L # # g x 3 m m L ` k.` m o o o o o o o L ` ` ` M m m m v x d d c ( ` ` W m m m v u u u m ( ` ( L x v v d p p p W ` ` ( M m A n x p d d ( ` k.k._ m m 4 4 0 w D ",
"m n.n.v.v.W M M L ^ ^ Y v d g g b v M M Y Y L L Y d u t t c c b N Y ^ ^ ^ u t i d c c M M W ^ ^ L d d g b M M M Y Y W Y x o o o o o o o M J J Y J v v v b b d c b Y J J J v v v c u u u x Y J Y J b b M d p p p v Y Y ^ J v M M b d d d Y Y W ^ ^ M v K W v.V.V.",
"m m.C.m.` M v M P Y Y Y b d d g g b M M P Y P P Y d i t t b b k k P Y Y Y i t t d N b V V Y Y Y J d d g h N N N P P Y Y d o o o o o o o V P P I P N N N h g g g b P P P P b b b b u u u c P P P P N N N f p p t b Y Y Y J b V V f d d d V Y Y Y Y V h G J v.V.L.",
"m m.C.m.' M b N N Y T Y b f f f s h k k P Y P P I p p t t h k k l I I I P i i t a k l l l N N P P d d f k N l N P P P P f o o o o o o o N P P P N N N k h f g g b P P P P N N N b i u u f P H P N N N N f t t t b Y Y P N k N N f d f d N P P P P N j k P ] L.L.",
"m m.H.D.) N k N N P Y P N f f f s l l l P I P I I p p p p h k k l P I P P d i t p k l l l l I P P d d d h l l l N I I I f   o o o o o r N I N I N N l l k f d g h P P P P N N N b t u u f P H P P N N N f p t t b P Y P l k N N f d f f P I I P P N k k I w.D.H.",
"J D.F.F.w.P I U U  .U  .B a f f N I I U R R R R U a a a f k k k N P Y P Y d d d f P P I I U U U P p d f N P I I I { { U h     o o X t t N U U U U I I I P a d d h U U X. .I P P N d d d g I P P P N N N h d d d N T X.U I U I P h d f f T X. .X.R I I I @.s.F.F.",
"Y F.F.s.t.U U X.@.@.@.@.I s f f P @.@.@.$.$.$.R X.s f f f k h k N P Y P Y d f d g T @.X.X.o.o.o.P p f g N X.X.X.@.o.o.@.N     o o X X o N X.@.@.@.@.X.@.U f d d g R @.@.@. .U U T f g g g I P P P N k N h f d f Y 3.@.@.o.o.@.@.N p f f T @.@.o.$.U U U %.s.s.t.",
"I s.s.s.q.I U U X.X.X.X.I f f f P #.X.@.$.$.@.X.R s f f f k k k N P Y P P f f d f T U U } X.X.X.P p f d N  .o.X.@.o. .X.k   o o r X X o P X.@.@.@.@.@.@.U f d d g R @.@.@.U U U Y d g d g I P P P N N N h f d d Y @.@.X.X.X.@.@.N d f f T @.X.o.X.U U U @.s.i.i.",
"I s.i.i.y.{ { X.X.@.X.@.P s f f P #.X.X.@.@.@.$.R a f f f N k k V T Y P Y f f d g T U U } X.X.X.I a f d N @.o.o.@.X.X.X.N   o o r X X o N R @.@.@.@.@.@.R s f d g @.@.@.@. . . .T d d d g I I P P N N k s f d d Y 3.@.X.X.o.@.@.h d f f T @.X.X.@.R U U @.s.i.i.",
"I s.i.i.y.{  .X.X.@.X.@.P s f f P #.X.X.@.@.X.$.R a p p p N k k V T R T T s f d g T U U } X.X.X.I a f d N @.o.o.@. .{ U k   o o r r X o N R X.X.X.@.@.@.R s f d g @.@.@.@. . . .T d d d g U R R I N N k s d d d Y 3.@.X.X.o.@.@.h d f f T @.X.X.@.@.X.U @.s.s.s.",
"I s.i.i.y. . .X.X.@.X.@.P f f d P @.X.@.@.@.@.@.X.a p p p N N N N T 3.@.R s d d f U U U { X.@.@.U f f f N @.o.o.@.U U U h   o o r r X o N R U U U @.@.@.X.h f d g @.@.@.@. .U U T d d d h R $.@.T N N N s p u t P @.@.X.X.o.@.@.b d f f T @.X.X.@.X.X.U @.s.s.d.",
"I t.i.i.q.o. .X.R @.X.@.P f d d P @.@.@.@.@.@.@.@.a t i t N N N N U @.@.R f f d h T U {  .@.@.@.R f f f N @.o.o.X.U U U h   o o o o o o N R T R @.@.X.o.%.h f f c 3.@.@.@. . .U T d d f k $.@.X.U k P N h p p t N X.X.X.X.@.@.3.b d f f Y @.X.X.X.X.U U X.s.s.s.",
"P q.q.q.=.| { X.R @.X.@.P f d g P @.@.@.@.@.@.@.@.a i i i N N N N U @.@.R f d d h T U {  .@.@.@.T d d f N X.o.o.X.U R T b o o o o o o o N R T R @.@.@.@.@.f d d f R @.@.@. . .U T d d f k X.X.X.U k P N h p p t N X.X.X.X.@.@.3.b d f f Y @. . . .U  .U X.q.q.e.",
"P $.X.o.=.{ { X.R X.X.@.P f d d P @.@.@.@.o.@.@.@.a i i i N N P N T @.@.R g d d h T U {  .@.@.@.Y p d a k  .o.o.@.I P P f o o o o o o o N R P Y U @.@.@.@.a d d a U  .@.@. . . .T d d f k X.o.X.U h P N h p p t B X.X.X.o.@.@.3.b d f f T U { { U U  . .X.4.@.q.",
"P U U } | { { U U U U U N f d d P @.X.o.@.o.@.*. .y i i i V P P N o.@.@.R f d f h U U { { U U U P t t t N X.o.o.X.P P P f o o o o o o o V P Y P U @.@.@.U t t t a U  . .U U U  .T d d f k X.*.%.R P Y P h t t t B @.o.X.X.X.@.@.N d f f T U { { U U U X. .X.X.@.",
"J U U I { { { U U U U U N p d d P @.R X.@.@.@.@. .a i i i N P P Y 3.@.@.R f f f h U U {  .U U U P t t t N X.{  .R P P P f o o o o o o o V P Y P U @.@.@.U t t u d T U U U U I I T d f f k U X.X.U P I P h t t t P @.o.o.}  . .o.b d f f T U U { U U I  .X.X.X.@.",
"P U U U { { U U I I I U N p d d P 3.U @.@.@.U I P a i i i N P Y Y @.I U P p d d f U U U U U U U P p p t N X.I U U P P N a o o o o o o o V P P P I U U U U t t u d T Y P P P P P T f f f s I U U U P P N f t p t N U U U U U I T b d d f T U U I I P I U R X.R @.",
"# p p p p N P P P P P N f p d d d b Y N N N N N k p t u u b P b N N N k N p f p f P k k k P P P f p p p a P P N N P P V d o o o o o o o a N N N P N N N N t o t p b Y P P P P P h f f a h P P k k P P k f p p p f N N k P P P k p p p p h P P P P P P P s t p p ",
"@ o o o o b V V N P V h d p u p d b Y M b b b V b p t u p f V V V N N h N f f f f N N b b b b h f p t p p b V M M V V V d O o o o o o o t V V N N N N N h t @ u p b Y V V P P P h f f f h P N b b b P b d p p p d N V N P P P N p p t p d V P P P P P P d       "
};
