/* XPM */
static char *f54122c3a36e422fba78bd856d08dafclwVWGLhwc7ZEPOkc[] = {
/* columns rows colors chars-per-pixel */
"128 128 236 2 ",
"   c #0A2727",
".  c #072E2D",
"X  c #0D2E2D",
"o  c #102F2E",
"O  c #07312D",
"+  c #0B312D",
"@  c #072F32",
"#  c #0D2D30",
"$  c #132F31",
"%  c #0C3332",
"&  c #093934",
"*  c #0D3A34",
"=  c #133533",
"-  c #193637",
";  c #133936",
":  c #143D3A",
">  c #1A3E3B",
",  c #362A21",
"<  c #3C2C23",
"1  c #2D3224",
"2  c #2D3C2E",
"3  c #313122",
"4  c #38362A",
"5  c #2E3D32",
"6  c #263F3E",
"7  c #333D32",
"8  c #37363B",
"9  c #432E24",
"0  c #423129",
"q  c #0E433B",
"w  c #0F4A3F",
"e  c #15453E",
"r  c #1B443E",
"t  c #13493F",
"y  c #1C4B3E",
"u  c #1C513F",
"i  c #274432",
"p  c #2C4334",
"a  c #2C4B36",
"s  c #23443D",
"d  c #2A453B",
"f  c #224B3E",
"g  c #2D4A3B",
"h  c #314536",
"j  c #2D3D42",
"k  c #363642",
"l  c #3B3442",
"z  c #323A43",
"x  c #393C44",
"c  c #333D4A",
"v  c #413D48",
"b  c #0E4644",
"n  c #0D4A44",
"m  c #0F4548",
"M  c #0D4C4A",
"N  c #154542",
"B  c #1A4542",
"V  c #144A44",
"C  c #1C4B44",
"Z  c #12464A",
"A  c #1C4748",
"S  c #154D4A",
"D  c #1B4D4A",
"F  c #0E504A",
"G  c #165146",
"H  c #1C5145",
"J  c #15534C",
"K  c #1D534C",
"L  c #15594E",
"P  c #1D594E",
"I  c #184E52",
"U  c #0D5051",
"Y  c #155552",
"T  c #1D5652",
"R  c #165C54",
"E  c #1D5A53",
"W  c #155D5B",
"Q  c #1D5D5A",
"!  c #224542",
"~  c #2B4443",
"^  c #224C43",
"/  c #294A43",
"(  c #2C454B",
")  c #224D4A",
"_  c #2C4C4B",
"`  c #34444A",
"'  c #384348",
"]  c #344A4B",
"[  c #3B4A4E",
"{  c #225145",
"}  c #22534C",
"|  c #29554D",
" . c #22594E",
".. c #31514F",
"X. c #2E4F52",
"o. c #344C55",
"O. c #3B4C53",
"+. c #225652",
"@. c #2A5553",
"#. c #225A53",
"$. c #2A5A55",
"%. c #2D565A",
"&. c #235D5A",
"*. c #2B5E5A",
"=. c #335254",
"-. c #3A5254",
";. c #355359",
":. c #325C5B",
">. c #395A59",
",. c #126354",
"<. c #166256",
"1. c #1A6255",
"2. c #166854",
"3. c #16645B",
"4. c #1C635B",
"5. c #17695D",
"6. c #1C6A5D",
"7. c #226156",
"8. c #2B6157",
"9. c #24625C",
"0. c #2B635D",
"q. c #226A5D",
"w. c #2C695E",
"e. c #31645E",
"r. c #36645D",
"t. c #2C715E",
"y. c #1E5F60",
"u. c #215E65",
"i. c #345D62",
"p. c #3C5D61",
"a. c #166664",
"s. c #1C6562",
"d. c #166B64",
"f. c #1D6B63",
"g. c #1D6C6A",
"h. c #1C7265",
"j. c #1D746B",
"k. c #19786A",
"l. c #1D7A6C",
"z. c #1E6E74",
"x. c #1E7473",
"c. c #157B73",
"v. c #1D7B73",
"b. c #1C767A",
"n. c #17797B",
"m. c #1D7C7B",
"M. c #246562",
"N. c #2C6663",
"B. c #246B64",
"V. c #2C6964",
"C. c #236669",
"Z. c #2D6669",
"A. c #246D6B",
"S. c #2D6C6A",
"D. c #316663",
"F. c #3A6364",
"G. c #326A65",
"H. c #3A6B65",
"J. c #326669",
"K. c #3A6469",
"L. c #316D6B",
"P. c #237266",
"I. c #2B7267",
"U. c #257966",
"Y. c #24736C",
"T. c #2D716C",
"R. c #237B6D",
"E. c #2A796D",
"W. c #2B7A6D",
"Q. c #31716D",
"!. c #327B6F",
"~. c #246E71",
"^. c #2E6F70",
"/. c #326E71",
"(. c #277571",
"). c #247472",
"_. c #2C7372",
"`. c #297571",
"'. c #247B73",
"]. c #297971",
"[. c #2A7B73",
"{. c #257579",
"}. c #2B7579",
"|. c #247C7B",
" X c #2A7C7B",
".X c #317171",
"XX c #347C75",
"oX c #46464B",
"OX c #4A4653",
"+X c #444B54",
"@X c #4A4954",
"#X c #504550",
"$X c #415957",
"%X c #406561",
"&X c #1E826D",
"*X c #1C886E",
"=X c #1D8474",
"-X c #1E8B75",
";X c #16867C",
":X c #1D847C",
">X c #178D7D",
",X c #1C8C7C",
"<X c #1B9176",
"1X c #16917D",
"2X c #1B917C",
"3X c #22826E",
"4X c #29806E",
"5X c #318269",
"6X c #238373",
"7X c #2A8375",
"8X c #228B76",
"9X c #2A8A76",
"0X c #23847C",
"qX c #2A837C",
"wX c #238B7C",
"eX c #298A7C",
"rX c #318275",
"tX c #32847B",
"yX c #21917A",
"uX c #1E7E82",
"iX c #237D82",
"pX c #2B7C81",
"aX c #207F88",
"sX c #317D81",
"dX c #168784",
"fX c #1D8484",
"gX c #1C8B82",
"hX c #1C8489",
"jX c #1D8A89",
"kX c #179181",
"lX c #1C9181",
"zX c #228383",
"xX c #2C8282",
"cX c #228B82",
"vX c #288887",
"bX c #238389",
/* pixels */
"1 / ) ) C B N N N N N N N N N N A A A B C C C C B N e N N N N B B B r r C ^ ^ C B B A A A B B y C ) C B B N N N N N N N N e e C ) ^ ^ N t N N B N N N N N N N N B B y f f ^ C B A A A A A A N N N A C C C y y B A A A A B A C ^ C C A A A A N N N N A N N B y f ",
"1 ^ C V V n n n n b b b b b m Z Z Z Z V S V V V n n n n n n n n n t w t V V V V n n V n n n n n V G V V n V V V N b N V N N N C D D D V n n n n V V V V b b n b V V V u H C S S Z Z V V V b b b b V S V V V V V V V V V V Z V C V S Z Z Z Z b b b b V b n t C f ",
"p t.q.B.E.(.(.(.(.(.`.`.`.`.`.`.}.}.}.}.}.}.[.[.[.[.[.[.(.(.[.[.E.E.E.E.[.[.(.E.E.E.E.[.(.(.E.E.E.E.E.E.E.E.E.E.E.E.E.V.0.0.*.*.0.0.9.A.P.Y.Y.Y.I.I.I.I.Y.Y.Y.Y.(.`.E.E.E.E.`.`.`.`.`.`.`.(.(.(.(.`.`.`.E.E.E.E.E.E.E.E.Y.(.[.[.[.}.}.{.{.(.(.E.U.U.I.T.A.L.^ f ",
"p 5X3X8X,X,X,X,X,X:X0X0X0X0XzXzXzXbXzXzXvXvXwXwXwXwXwX,XgXgXgXwX8X8X8X8XcXbXfXzXwX8XwXcXzXfXfX:X8XwX8X8X8X8X8XwXwXeX6XT.L.L.J.J.J.V.B.Y.wX8XwXwXwXwXwXwXwX,XgXfXfXfX0XwXwXwXcXcXfXfX:X0XwX,X,X,XfXfXfX,X8X8X8X8X,X,X:X=X:XfXwXwXwXcXfXfXhXfXfX,X8X,X8X9X9XI.^ f ",
"i 4X,X,X>X>X>X>X,X,X,X:X:XgXgXgXgXzXfXfXcXgXgXgX>X>X>XgXfXfXfXgX>X>X>X>XfXhXhXfXgX,XgXgXdXdXdX;X>X,X,X>X>X>X>X,X>X,X=XY.S.V.V.V.V.A.f.h.0X,X>X>X>X>X>X>X>XgXgXjXfXdXgXgX>XgXgXgXgXgX;XgXgXkXgXgXgXgXgXgX>X>X1X>X>X>X;X,X;X;XgXgXgXgXdXdXhXfXgX>X,X,X,XcXwXP.y f ",
"d qXgXgXgXwXwXwX0X0X0X0XzXzXcXcXzXzX0X0XvXcXcXcXcXcXgXgXzXzXzXgX>X1X>XgXfXfXfXzX0X,XgXwX0X0X0X0XwX,X,X,X,X,XwXwX,X=X=XE.V.V.V.V.V.Z.A.`.qXwX,X,X,XwX,X,XgXgXgX:Xm.|.0XcXcXcXcX:X:X:X:XcXlXkXgX;X:X=X0XwX,X,X>X,X,X,X;XcX0X0XvXvXcXcXhXfXfXzX0X0XwX0XcXgXgXh.y f ",
"d qXfXfX:Xv.Y.`.(.(._.^._.`.~.T.R W 4.R B.Y.E.Y.Y.Y.A.~.~.~.(.m.gX,X1X,Xk.a.a.3.3.3.3.<.<.E Q W v.=Xm.'.`.`.`.(.Y.I.I.M.9.9.0.*.&.&.&.A.I.Y.Y.Y.Y.Y.x.k.v.v.h.W W R W 3.3.3.3.f.f.f.d.:XgXlX,X'.E.T.T.T.I.Y.Y.Y.Y.A.3.W 4.Q A.A.Y.Y.g.~.(.(.T.E.E.|.fXgXjXY.C ^ ",
"d qXfXfX0X(.Z.Z.Z.Z.Z.J.J.Z.Z.J.+.D V K N.N.N.Z.Z.Z.J.Z.Z.Z.S.(.wX,X1X,Xd.Q Q Q E R P P V N V R (.j.Y.T.L.S.S.S.S.S.S.9.#.E T +.E T 9.S.Z.Z.Z.Z.Z.A.Y.j.l.R.B.S S D K R R R Q Q Q Q 5.=X,X,X6XI.V.N.V.N.N.N.V.V.C.S.&.D D D 0.D.D.S.V.V.V.V.V.N.V.x.:XfXjXx.B { ",
"d qXfXfX0XY.Z.Z.Z.C.C.C.Z.Z.Z.J.K C V K 0.0.N.D.D.D.L.Z.L.S.S.(.=X,X,X0Xf.R E Q Q E +.+.D A A Q E.j.Y.A.Z.Z.Z.Z.V.V.V.N.7.R R R Q Q 9.S.S.Z.Z.Z.Z.A.Y.Y.l.R.B.V N V K E E E E Q E Q f.6XwXwX6XI.V.V.N.0.N.N.N.N.V.D.#.C N D 0.N.N.S.V.B.V.N.V.V.B.|.fXdXhXx.B ^ ",
"d qXfXfXm.'.(.Y.Y.Y.f.A.M.9.9.0.D N N S *.9.0.N.N.D.V.N.S.A.A.[.9X6XR.7X1.E E E Q +.+.+.C A A K V.B.B.A.S.Y.Y.Y.A.A.B.f.3.3.3.3.3.4.s.C.A.A.A.A.A.A.A.A.A.A.&.N N N K E #.#.#.#.#.E Q rXR.R.7XI.T.A.A.9.N.N.0.0.0.0.P V t V #.9.7.q.I.P.P.P.P.Y.Y.m.fXhXhX{.C B ",
"d qXhXfX:X0X0X,X,X-Xl.R.q.7.7.9.S N V V #.*.E E #.9.7.9.(.(.(.g.5.5.<.R E P R E +.+.+.+.C A A N *.Q Q s.Y.(.x.v.|.0X0X0X6X6X0X0X0X0XqXpX|.|.|.|.(.(.A.Q Q Q T e B A K #.#.#.#.#.#.#.&.Q 9.3.f.|.{.(.A.4.Q Q Q E #.#.K V V N T #.Q 4.U.=X=X=X=X6X0XzXfXhXhX{.A r ",
"d qXhXfXgXgX>X1X1X2X-X6Xf.E  . .V V V V P #.E #.#.#.E s.'.zX0Xh.4.Q P P R E E E E E #.+.C B A D +.+.E 4.Y.b.b.uXfXfXfXgX,X,X,X,X,X,XgXfXfXfX:Xm.c.x.g.W Q E K r B A K E #.+.+.+.+.#.E #.#.R s.b.bXiXY.Q Q Q E  . . .K V V D +. .E 3.l.wX,X,X,X,X,XfXfXfXzX(.A r ",
"d qXzXfXgXgX,X>X2X2X,X6Xf.E P  .C t V D  .#.E E #.E E f.'.:X0Xf.Q R P P P P E E E #.#.+.C B A V +.+.E 9.Y.{.b.uXbXfXfX>X2X2X2X,X,X,XgXgXfXfX:Xm.x.(.g.R E #.} r r B K E #.#.#.#.#.#.E E  .E s.b.bXzXx.4.Q Q E #.#.#.K V V D +.+.E 4.j.cXgX,X,X,X,X,XfXfXzXY.N r ",
"d  XzXzX0X0XwXwXwXwXwX6Xh.<.E E G V n G T E Q Q Q Q Q s.(.0X'.f.R P P P P P E E E #.#.+.B B B C +.+.#.9.V.`.(.|.|.0X0X8X8X8X8X8X8X8XwXzXzXzX0X'.(.T.B.Q E  .H r e B K E #.#.#.#.#.#.E E P P 4.`.iX|.x.3.W Q Q E E #.K S V S T E Q 4.Y.wXwXwXwXwXwX0X0XzX0XY.N B ",
"d XX X X[.Y.E.U.U.U.A.Y.g.f.f.f.1.1.1.Q 1.4.3.s.g.g.g.B.A.s.M.9.R E P P #.#.&.#.#.#.#.#.N B B V } } } #.9.V.Z.A.A.A.Y.Y.U.U.U.U.U.U.U.I.A.A.P.A.V.V.0.P K } C e e B P 7.&.&.&.&.*.*.7.E P P #.S.M.A.Y.f.f.s.s.M.M.M.Q Q Q Q s.s.s.f.B.Y.Y.[.[.[.[.'.qX|.[.A.N e ",
"p I.(.(.M.Q T V C C K Q f.'.|.|.'.(.(.(.'.'.'.|.zXiX|.Y.Y +.} K E E T #.9.N.N.N.N.0.0.0.N B B e C ) ) C N N N N V V n V G G G G G V V V V V V V N N t V V y H e e e P 0.w.w.w.w.N.N.9.E E #.P G K P s.|.|.|.|.'.(.[.(.Y.(.{.|.iXiXx.s.T K K K K K 4.A.T.T.N.e : ",
"h Q.T.Q.J.+.) ) ^ ^ ) T f. XzXbXm.m.m.c.m.m.|.|.bXbXxXg.T ^ ^ } E #.P P 9.V.V.N.N.D.D.e.N B r e C C ) C B B B B B B B C ) ^ ^ ^ ^ f ^ C B B r r B e e C C C C e e e  .N.0.0.0.0.0.N.9.Q E #. .C f H 9.{.iXbXuXv.v.'.v.v.c.m.uXhXbXb.s.D ^ C C C C 9.S.L.Q.N.r e ",
"7 %XH.J.D.} D ) ^ B K T Z. XiXiX'.v.v.m.c.'.'.|.|.iX|.A.R ^ ^ } #.#.#.Q 9.N.V.0.0.0.0.e.N B B N C C C C C r r r e e r y y C C C C ^ ^ e r r y y B B r ) ) C C t e e  .w.N.N.N.N.N.N.N.Q E T | ^ f C 9.}.pXiXuXm.|.'.m.c.c.c.uXuXzX(.Q C ^ ^ ) ) { 8.G.D.D.8.B B ",
"4 $X;.:.:.*.$.$.+.K P K 9.M.M.s.Y.v.v.v.d.s.M.B.A.A.s.V.C ^ ^ } #.#.#.#.9.N.N.0.9.&.&.*.N N N N +.#.$.#.#.$.$.#.#.| | C y y y B C C ^ } | $.#.#.&.&.+. . . . .V e N K 7.*.9.9.N.N.V.N.Q T +.} ^ ^ f | Z.C.A.A.B.B.B.Y.v.m.v.z.g.g.V.P H } } $.$.$.$.=.-.-.=.r B ",
"4 @X+XO.;.F.D.*.*.#. .#.H K K K Y.v.v.Y.Y T } } T T +.| ^ ^ ^ } E E #.#.9.N.N.V.9.#.#.+.N N N V 0.N.J.D.N.D.D.D.D.0.0.} e e e N B B B *.e.e.N.N.N.N.0.0.0.0.*.N N N D P T T T N.N.V.V.&.E +.} ^ f f } +.+.T +.) ) K A.R.k.(.&.I D D  . . .#.w.w.e.:.O.@XOXO.! B ",
"0 OX+X+X;.i.H.0.*.#.P  .K { { } A.x.x.`.E } ) {  .P #.| ^ ^ ) } T T T #.9.N.N.V.9.#.#.#.N A N S D.V.Z.Z.V.Z.N.N.Z.N.N.K N N N N N N A :.D.D.L.S.S.S.N.V.V.N.0.N N B K P E E E N.N.N.V.7.E +.| y y y H #.#.#.} ^ ) K V.'.v.(.9.) ) ) #.#.#.#.0.N.D.:.-.@X@X[ ! r ",
"4 @X+X+XO.F.J.N.0.#.E P K H { } (.|.'.E.L C C {  .T #.| C ^ ^ K #.#.#.9.N.V.N.V.7.#.#.#.N B A S L.S.V.S.S.S.S.S.S.V.D.+.N N N N N N N 0.J.L.S.V.V.S.V.N.N.N.0.N N B D P E E E N.N.N.V.Q E #.+.y y C C #.#. .{ y y K A.'.v.'.9.C C C #.E E E N.N.D.F.O.+X+X` r e ",
"< x c c O.K.N.V.N.0.9.9.&.P K P }.iX|.[.R K H K +.T #.| y B B D *.*.*.9.V.9.V.V.&.#.#.#.N B A D S.S.S.S.S.S.S.L.L.L.L.+.N N N N N N N N.D.L.S.S.V.S.V.V.V.D.0.N B B D P E E E N.V.V.S.M.9.*.#.r r C C +.#.E } { } T A.|.v.'.9.G }  .0.0.9.9.N.V.J.p.` ' ` ~ ! B ",
"< l k c =.F.N.V.B.B.V.V.0.#.+.E z.bXzX(.4.R E #.E E #. .N B B } N.N.N.V.V.V.V.V.&.#.#.+.N B B D L.S.S.S.T.S.S.S.S.L.L.+.N N N N N N D D.L.L.L.S.S.S.S.S.S.S.0.V A C K P E E E Z.V.S.S.Z.V.V.0.r r e C +.E E #.| | E A.0XzXv.f.E  .7.M.N.C.N.Z.V.J.p.c k k z ! ^ ",
"< l l c =.D.V.V.B.B.V.V.0.#.#.Q z.bXvX(.Q L R E E E E T N B B +.V.V.V.V.V.V.V.V.&.E #.+.N A B K S.S.S.T.T.T.T.T._.^.L.+.N N N N A D D J.L.L.Q.T.T.S.S.T.T.S.0.N A C K E E E E Z.S.S.S.Z.V.S.N.B r e D +.E E #.#.#.R f.|.0Xm.d.R 1.7.9.N.C.Z.V.V.J.p.c k k z ! ^ ",
"< k k j %.J.J.V.B.V.V.V.0.&.Q Q {.|.{.`.s.1.Q E E E E T N B B +.V.V.V.S.S.S.V.V.&.E #.+.N B B K L.S.T.T.T.T.T.T._._.T.&.D D S N D D D J.L.Q.Q.T.T.T.T.T.T.T.0.V A C K E E E E S.S.S.S.A.Z.S.N.B B N D +.E E #.#.E Q M.E.l.j.d.5.1.4.M.N.N.V.V.V.J.i.( c c ~ ! ^ ",
"4 >.%.*.H.D.N.N.V.V.B.A.P.P.h.E.W W y.Y Q &.0.0.N.9.0.9.N B B +.L.L.S.S.S.S.S.S.&.E #.+.A B B K G.S.S.T.T.T.T.T._.^.L.&.T +.+.+.+.+.+.L.S.S.T.T.T.T.T.T.T.L.N.N A A D T E E E S.L.L.L.S.A.S.J.B r N D N.N.M.9.9.9.9.4.Q 4.R h.j.l.E.I.V.V.V.V.V.D.J.D.%.:.:.B B ",
"2 e.L.L.L.V.N.N.N.N.B.A.U.qX9Xv.R S Z Y 9.V.N.N.N.N.N.0.N B B +.L.L.L.T.T.T.S.S.Q E #.+.A B N K G.S.S.T.A.T.T.T._./.L.9.E E #.+.+.&.&.L.S.T.T.T.T.T.T.T.T.L.0.N B A D T E E &.L.L.L.S.S.S.S.J.B B N D Z.Z.Z.Z.V.V.V.#.V t V P.0X:Xv.Y.V.N.N.V.V.S.L./.Q.S.*.N B ",
"2 e.Q.Q.L.V.N.N.V.N.B.A.E.qXeXR.R V N L 9.D.V.N.N.N.N.0.N B B #.Q.L.Q.Q.Q.Q.S.S.&.E #.+.N B B K G.L.T.A.S.T.T.T._.^.T.9.E E E E E E Q S.T.T.T.I.T.T.T.T.S.L.0.N B A D T E E &.L././.S.S.S.T.D.B B B D Z.Z.Z.C.C.V.V.#.B e V f.wXwXv.Y.V.V.V.V.S.S.S./..XS.&.A B ",
"2 H.L.T.I.A.V.A.V.P.Y.h.[.E.'.Y.J N N S V.S.V.V.V.V.V.N.V B B #.Q.L.Q.Q.Q.Q.T.S.9.E #.+.B B N D G.L.T.T.A.S.S._._._.T.B.1.1.1.1.1.1.3.I.A.A.I.I.V.A.S.S.L.L.*.N N N D E E E &.L./././.T.T.T.V.B r B D J.Z.V.Z.Z.Z.V.#.N B N E.l.v.6Xk.P.P.P.P.P.Y.`.^.S.L.*.A B ",
"5 H.S.S.E.[.[.[.6X6X6X6Xf.4.4.4.S A N V V.L.S.S.V.V.V.N.V C C #.T.T.Q.Q.Q.Q.Q.S.C.N.N.0.B B N C G.Q.Q.S.S.Z.S.S.S.S.S.`.[.7X[.7X7X7XR.E.A.V.A.A.B.V.S.S.L.L.*.V N N K *.N.N.Z.L././._._.T.T.V.B C C } D.S.S.S.S.S.L.#.N N N 4.3.5.,.0X6X6X6X6X6X6X'.S.S.L.0.A B ",
"2 D.C.A.R.6XwXyX2X2XwX6X5.R Q T S A N V L.L.L.S.V.V.V.N.V C C #.T.T.Q.Q.Q.Q.Q.S.S.V.V.J.N B N C G.Q.T.S.L.S.Z.Z.Z.Z.A.j.0XwXwXwXwXwX'.E.V.V.V.V.V.V.V.S.T.S.*.V N N +.N.V.V.L.L./..X.X_.T.T.V.B C C  .L.L.T.T.^.L.L.#.N N B T Q R 5.R.wX,X,X,X,XwX'.T.S.L.0.B B ",
"2 e.C.B.Y.6XyX2X2X2X-X6Xd.Q E E V A N V L.L.L.L.L.L.L.N.V C C #.T.T.Q.L.L.L.L.L.S.Z.Z.N.B B N C G.Q.Q.L.S.Z.Z.Z.Z.Z.A.h.=XwX,XwXwXwXk.Y.B.V.J.Z.V.V.V.S.L.S.0.N A N +.Z.Z.Z.V.L././..X_.S.T.V.B C D +.L.Q.T._..XL.L.+.N N e P E E 4.R.8X8XwXwXwXwX'.Z.S.L.0.B B ",
"2 D.S.A.U.R.6X6X=X6X&XR.q.E T T A B N V L.L.L.L.L.L.L.D.K K D *.T.T.Q.L.L.L.S.S.S.Z.Z.N.B B e B 0.0.N.V.A.A.A.A.S.S.I.E.6X3X6X9X6X6X6XR.Y.I.S.S.A.A.Z.N.N.0.#.N A A +.N.Z.Z.V.L.L.L.S.S.S.T.S.D D K #.L.T.T._..XQ.L.+.N N t K P +.Q E.7X6X6X7X7X9X[.Z.C.V.*.A B ",
"2 H.L.S.B.4.E E Q Q E E K ) ) D B B N V L.L.L.L.L.L.L.V.K P  .9.T.T.S.L.L.S.V.V.V.Z.Z.N.B B e e | +.#.s.'.m.m.m.m.m.'.6. . .K G K  .R R.=X=X6X'.'.`.T.#.} } K V N A #.Z.N.V.V.V.S.S.S.S.S.T.L. .| +.&..XT.T._..XQ.L.+.N N r ) ^ ) C E P R R Q Q Q s.A.L.L.N.D C ",
"2 H.T.T.V.9.K P T T T } ) ) ^ ^ B B N V L.L.L.L.L.L.L.V.P  .+.9.T.T.S.L.L.V.V.V.Z.Z.N.N.B B e e ) ) D M.'.0X;X;X;X,X=Xq.{ C ^ ^ C C E P.eX,X;X:XiX X`.#.C C C C e A #.D.V.V.V.V.V.S.S.S.S.S.L.+.#.#.7.Q.T.T._._..XL.+.N N r ^ ^ ^ C #. .E #.E E E q.T.S.S.N.C ^ ",
"2 G.I.I.V.#.K P E #.#.+.} C B B B B N V L.L.L.L.L.L.Q.V.E E E 9.L.L.S.L.S.V.V.V.V.V.V.N.B B e V C D D M.[.0X:XwXcXcX=X4.) C C C C C &.I.7X8XwXzXiX|.T.&.H H V N N N #.N.N.V.N.V.V.V.Z.S.S.S.S.T #.#.&.T.T.T._._..XL.&.V N r ^ ^ C C  . . .#.#.#.Q 4.T.(.(.B.y ^ ",
"p Q.(.`.V.K P P E #.#.+.K D ) ) B N N V L.L.L.S.S.Q.Q.V.E E E 9.L.L.S.S.S.V.V.N.N.9.9.9.N B N V #.Q Q M.T.Y.Y.E.`.Y.I.7.} } C C D K G V.I.U.E.(.`.E.A.Q K #.P N A N  .9.9.9.9.N.V.V.V.A.S.S.V.#.#.#.&.T.S.T._._..XL.&.V N r ^ C H K P #.T #.+.+.T Q [.{.|.A.y y ",
"p XXqX XA.G P K T E E E P +.+.+.A N N V L.L.S.S.S.Q.Q.V.E P E *.V.S.S.V.V.V.V.V.N.E E E N B N S A.Y.(.S.T K K S K C D #.#. . . .P P #.G K G G K E T Q `.g.A.0.N A N K #.E #.*.N.V.V.V.A.A.V.V.E #.#.&.Q.S.T._._.Q.L.&.V e r D }  .P E E +.+.D D D R  XiXiXY.t r ",
"d tXzXxXI.K K K P R R R E #.+.+.A N N V G.L.S.S.S.Q.Q.V.E E E &.V.Z.C.C.V.V.Z.N.9.E E E N A N J `.xXpXs.+.^ ^ ^ ^ ^ ) | #. . .P P P  .} ) ^ ^ ^ ^ C Q Y.zX|.Q N B N D E E &.9.N.V.V.A.B.V.V.N.#.#.&.&.Q.T.T._./.Q.L.#.V N e } +.#.E E #.+.+.) ) ) Q  XiXfX(.V r ",
"g xXbXbXY.L K K P R Q R E E #.#.V N B V G.L.S.S.S.Q.Q.V.Q Q Q 7.N.Z.Z.C.S.V.C.V.9.Q E E C B V S }.pXpXM.} ^ f f ^ ^ ^ }  .P P P E E +.} ^ f f u C D Q Y.|.'.0.N e N D E R Q 9.N.V.V.A.B.C.N.0.7.7.9.9.Q.T.T._..X.XL.+.V N N P P #.E E E #.+.) / _ Q xXfXfX(.V r ",
"g xXjXzXE.L  .K E Q &.&.&.#.#.&.C N B V G.L.S.S.S.Q.Q.S.9.M.M.9.*.N.Z.M.A.E.Y.Y.h.5.5.6.V N V S C.u.M.L.K H { { { } } #.4.4.4.4.4.4.4.T } { { H K K #.B.W M.:.B B N R 6.5.d.h.P.Y.I.I.B.M.N.0.9.9.9.M.Q.T.T._..X.XL.&.V N N +.#.7.7.7.&.&.$.} ) +.Q qXfXgX{.N B ",
"g eXgXcXR.R P K *.N.N.N.N.N.0.0.C N B V G.L.S.T.T.Q.Q.S.Z.C.C.M.&.*.&.&.Y.eX8X,X,X=X=X'.V N N V C ) D K P E P  .#.#.#.M.Y.(.(.Y.Y.Y.P.4.T +.+.+.+.#.+.D D ) ! B B V 6.=X-X-X8X-X-X6XE.B.9.9.9.9.9.N.S.Q.Q.T._..XQ.L.#.N N N 0.0.V.V.V.N.N.N.T T R 1.9XgXgX'.N B ",
"g eXgXcXR.R R T 9.N.V.N.N.N.N.N.C B B V G.L.S.T.T.Q.T.L.Z.C.C.C.9.Q Q 4.Y.wX,X,X,XcXwXk.S N V V C ) C K P E E E E E Q f.j.Y.'.Y.j.Y.h.4.R E E E E #.+.C C D D A N V 6.-X,X2X2X2X>X,X'.M.Q &.9.9.0.V.S.Q.Q.T._..XQ.L.#.N B N 0.0.V.V.N.N.N.N.E E R 4.9X,X,X'.N A ",
"g eXkX,X'.Q #.Q 9.N.N.N.N.N.N.N.C N B V D.S.T.T.Q.Q.T.L.Z.C.M.9.4.4.4.3.'.wXwXwXwX0XeXj.F S V V C D } } P E E E Q Q Q f.h.Y.E.Y.Y.Y.Y.3.Q Q E E E E P C C C V V n V 5.6X6X8XwX,X>X,X'.s.W Q Q M.N.V.S.Q.Q.T.T._.L.L.&.N B V 0.V.V.N.N.N.Z.N.&.&.Q 5.0X,X,X(.N A ",
"g 9X>X,X'.B.V.N.N.Z.Z.N.N.N.N.N.D N N N V.S.V.S.S.S.V.V.N.M.9.s.B.Y.j.j.0X=X0X6XR.Y.Y.Y.A.6.6.7.E K  . .P #.#.7.7.4.4.5.f.f.M.M.M.M.f.f.6.q.4.Q R R P K K K 7.4.5.6.f.h.j.j.k.=X=X=XqXA.Y.A.A.M.M.M.V.S.S.S.S.S.S.L.#.N N N 0.V.V.V.V.Z.V.C.N.M.9.f.wX,X,X'.N A ",
"a 9X1XwX'.B.V.V.V.Z.Z.Z.N.N.N.N.D N B N V.V.V.V.V.V.C.N.&.#.4.B. X|.0X0Xc.c.c.h.s.&.Q 4.Y.6X3X6.1.P  . .P  .#.7.A.Y.P.4.R R R Q E Q 1.P.E.U.A.9.R R E E #.#.7.R.8X6X5.1.4.4.f.j.v.c.x.xX|. X`.M.Q &.M.V.V.C.Z.Z.S.D.+.e e N 0.N.V.V.V.V.V.V.V.V.V.f.0X,X,X'.N A ",
"a 9X1X,X'.B.V.V.V.Z.V.V.V.V.V.N.D N B N N.V.V.V.V.S.S.V.7.R Q f.|.zX0X:Xm.m.v.Y.B.Q E R h.eX8X5.4.E P P P E Q 4.A.Y.P.4.#.E #.#.#.E 4.B.E.Y.A.9.R R R T T E q.l.-X6X3.&.Q Q s.(.'.v.x.|.|.qXY.s.R 4.C.S.V.Z.Z.Z.V.D.+.t N N 0.N.V.V.V.Z.V.V.V.N.B.f.wX,X,X'.N B ",
"a 8X1X,X'.B.V.V.V.V.V.V.V.V.V.V.D N B N N.V.V.V.V.S.V.B.4.1.4.g.|.|.|.|.'.(.(.T.4.Q Q 1.P.4X3XP.4.Q E E E 4.Q 9.A.B.f.1.E E E E E T Q A.I.Y.A.Q Q Q E E E Q 6.R.&XR.6.#.E R R Y.(.(.'.0X|.qX`.4.3.4.M.C.Z.Z.Z.Z.V.D.+.t N N N.V.V.V.V.V.V.V.V.V.V.f.wX,XlXE.N B ",
"a 9X1X,X'.B.V.V.S.S.S.S.S.S.S.L.S N B N V.S.S.S.L.S.S.E.j.k.l.Y.f.g.A.M.4.Q #.&.K } K K L 4.6.q.[.l.k.k.j.x.(.A.9.4.6.L K K K K K D S &.M.4.4.A.{.{.(.Y.Y.P.U.1.<.1.E P K K K #.&.Q 4.B.s.B.B.Y.j.Y.E.T.S.S.S.S.L.D.+.t N N N.V.S.S.L.S.S.S.V.V.V.B.eXgX2XR.C ^ ",
"g 9X>XwX'.B.Z.S.S.S.S.S.T.T.T.L.D N N N L.L.S.T.L.S.A.E.6X8X6XR.Q Q #.+.} C ^ _ ^ ^ ) C e V n R l.cX>XgXgXzX|.s.Q E L G t N V V V V V E &.Q M.(.fXfXfX,X-X6X1.V q t V C C ^ ^ ^ ^ C ) +.T E f.'.wX0X(.Y.T.T.T.L.L.L.+.t e N N.S.Q.Q.Q.L.S.S.V.V.B.B.qXgX,XE.C ^ ",
"g 9XwXwX[.B.V.V.V.S.S.T.T.T.T.Q.D N A Z L.L.T.T.T.S.T.E.9XwXwXl.Q Q E } H C ^ ^ ^ ^ ^ C t t n 1.j.8X>XgXzXzX|.C.&.#.P G e e N N N V C +.#.#.&.g.fXfXfXwXwX8X4.V B r r C C ^ f f f f ) } T #.7.v.wXwX'.`._._._.Q.L.L.#.t N N N.L.Q.Q.Q.L.Q.S.S.V.V.A.qXcXwXE.^ ^ ",
"g tXwXqX[.B.V.V.V.S.T.T.T.T.T.Q.D N A Z L.T.T.T.T.T.T.E.0XwX-Xl.7.#.P K C C ) ^ ^ ^ C B B e N K E.[.6X6X[.'.}.M.T +.+.D B r r B B N V } +.+.&.Q.qXqX X7X7XE.w.t C r B B C C ^ ^ f ^ ^ { P  .1.-X,X,X'.`._..X.XQ.L.L.+.t N N Z.L.Q.Q..XL.Q.S.S.Z.A.Y.qX0XqXE.^ ) ",
"p [.'.[.`.V.V.S.S.T.T.T.T.T.T.L.D N A A L.T.T.T.T.T.T.(.0XwX>Xh.H G H H C C ) ^ ^ B B B r r e V K P J G J K T T D D ) C r r B B B e e ) ) } K E R R R J G G G q e r B B B B B ! ! ~ ^ C K K R ,X1X,X'.`..X/..XQ.L.L.+.e N N N.L.Q.Q..XL.Q.S.S.Z.V.Y.[.(.'.A.N B ",
"5 L._._..XV.V.V.L.L.T.T.T.T.T.L.D N A D L.Q.T.T.T.T.T.E.0XgXgXE.C f ^ ^ ^ ^ ^ ^ ! B r r r r e t t e e y ^ ^ ^ ^ ^ C C C r r B B r r e ^ ^ ) C G H C B V e e e e e N B B B B B B ^ ^ ^ C ) ) P wX1X,X0X`..X/./.L.L.L.#.N N N V.Q.T.S._.T.T.S.S.Z.Z.Z.`.`.T.V.N B ",
"7 H.L./.L.V.V.V.L.L.T.T.T.T.Q.L.D N A D L.L.S.T.T.S.T.E.0XcXcXE.^ ^ ^ ^ ^ ^ ^ ^ B r r r r r N e e r r s ^ ^ ^ ^ ^ ^ ^ y r r B B B r r ^ ^ ) C C ) ) C B e r r e r B B B B B B C C ^ C ^ ^ ^ P wX1X,X0X`..X/././.L.L.#.N N N V.Q.S.T._.T.T.S.S.Z.A.S.Q.Q.L.Z.N B ",
"7 H.L.L.L.V.V.V.L.L.T.T.T.T.Q.L.D N N Z L.S.S.T.T.S.T.E.0XcXgXE.^ ^ f ^ ^ ^ ^ C r r r r e N N N N r r ! ^ ^ ^ ^ ) ) ) B r r r B B r e ^ ^ ^ ) C C C C B N N N N N B B B B B B C C C C ^ ^ ^ K wXgXcXqX`..X/././.L.L.#.N N N V.Q.T.S.^.S.S.S.S.S.Z.S.Q.L.L.D.N B ",
"4 >.$.*.Z.C.L.V.L.L.T.T.T.T.Q.L.S N N N V.S.S.A.T.S.T.E.0XgXgXY.^ f f ^ } } } | r r B B K n V K V K D ) ) ) } ) ^ ^ B r B B B B r r r r ! ! e $.} } K D D K J L n V C e B B r C D K { ^ ^ ^ K wXgXcX XT.L.L.L.L.L.L.#.N N N V.Q.T./.^.^.S.S.S.Z.V.L.0.D.:.$.B B ",
"3 / ^ { *.C.V.V.S.L.T.T.T.T.Q.L.D N A N V.S.V.Z.V.V.A.Y.0XgXfXY.^ f f C } | | | : ; = : E.U.U.XXT.Q.L.G.H.D.e.) r > > r B r B B r r r r > r e 0.N.N.V.D.G.S.E.7XR.E.9.* = - % +.#.#.} ^ ^ ^ L wXgXzX|.S.L.D.V.V.Z.D.#.N N N V.T.T._.^.^.S.S.S.S.V.0.+.} ) ) e e ",
"3 g f ^ &.S.V.S.L.L.T.T.T.T.Q.L.D N A N V.S.V.V.V.V.A.Y.0XfX:XY.^ f y C K  . .} * ; ; q l.8X6XtXE.I.T.T.L.G.H.) ; - - > B r r r r r r ; = : : 0.Q.T.T.Q.T.T.'.8X-X8X<.* - - ; +.#.#.} ^ ^ ^ K zXfXfX|.A.V.D.V.V.Z.J.+.N e N N.S.T._._.^.S.S.S.S.S.N. .C ^ ^ e e ",
"3 g ^ ^ *.Z.V.D.L.T.T.T.T.T.Q.L.D N A N V.S.V.V.V.V.V.E.qXzX:XY.^ f y C K P #. .* - - q R.-X8XrXI.I.E.T.S.Q.H.@.: - - > r r r r r r r ; = : : D.Q.Q.Q.T.S.T.'.eXwX8X4.* - - ; | #. .} { ^ ^ R 0XfXfX|.A.V.N.V.V.V.Z.+.t B N N.S.S._._.^.S.S.S.Z.J.D.} ! ^ ^ e e ",
"3 ' ] _ %.J.V.D.L.Q.Q.L.L.L.G.G.D N A N V.S.V.V.B.M.M.A. X|.=XY.K H H }  .#.#. .* = = * rX7X7XXXS.S.T.V.9.9.*.D % = $ > B B B B C B r = = = : *.0.M.N.S.L.S.E.6X6XR.Q X = = =  .#.#. .} ^ { Q |.fXm.{.M.M.9.B.V.C.N. .t r B 0.S.S.S.~.^.S.S.J.J.J.F.X.( ] / y y ",
"< oXoX[ ;.J.V.V.S.T.L.L.L.V.N.V.D N A V N.V.Z.B.4.Q Q s.(.x.k.f.K P P  . .#.#.K * + + % B.P.I.Q.N.N.V.9.E P +.C % % $ B ^ ^ ^ ^ ) ^ C + X + % $.#.#.#.N.Z.Z.B.E.E.I. .    X %  .#.#.#. .} } Q v.b.x.Y.4.4.1.9.N.N.N. .e r B 0.V.S.S.S.S.S.S.J.J.D.F.=.O.[ ] ^ ^ ",
"< oXoXoX>.D.N.V.A.T.Q.Q.Q.V.N.N.S N N V N.C.V.B.4.Q Q s.Y.v.l.B.E #. . .#.#.E  .* . . O q.P.E.I.V.V.9.Q R +.+.C % X % ! ) ) ) ) ) ) r = + X ; } +.+.+.*.J.V.V.S.T.T.+.X X o = +.#.#.#.#. .P Q h.v.j.I.4.E Q M.V.V.N.K e r B 0.V.V.S.S.T.Q.Q.D.J.J.i.o.@X@X[ s d ",
"< oXoX@X>.F.J.V.A.Y.T.I.A.A.B.V.S N A N N.N.N.V.s.Q Q s.I.Y.U.B.#.#.+.#.#.#.#.+.: O O & N.B.B.V.N.V.V.9.T +.@.C % O % B ^ ^ ^ ^ C ^ ^ ; X + ; } +.+.+.*.D.N.S.S.S.S.K O X X X +.#.#.#.#.#.#.7.P.R.Y.B.7.#.#.9.M.N.0.K e e N N.A.M.A.Y.T.T.A.S.V.J.K.O.@X@X[ / f ",
"< oX' ' ;.F.L.V.I.E.[.[.[.Y.E.Y.S N N N *.#.&.V.M.s.s.4.9.9.9.*.#.#.#.#.#.#.#.+.e * * : @.D N } } K } D C C C > : : : B B B B B B C ^ > > > ; C B B C } } ) +.D D #.C : ; ; ; +.#.#.#.#.#.#.#.7.6.6.9.9.7.4.9.4.7.9.P V t V M.A.(.{.'.(.[.[.A.B.Z.i.o.O.` ` ^ f ",
", 8 k z o.F.L.S.Y.'.0XwX0X0X6X(.R V N V E E Q M.A.A.A.4.J C ) } #.#.#.#.#.#.#.+.t e e B : . % % O . . . O O = B ^ B ^ B B B B B r r r ^ ! ! B ; O O O O O . . @ % * B B B B B +.#.#.#.#.#.+. . .} K E B.P.P.4.Q Q Q K V V V B.|.m.0X0X0X0X6XA.V.Z.K.( c z j ! f ",
", 8 k z o.F.D.S.E.'.wXwXwX0X6X'.R b b S T E Q M.C.`.T.1.G ^ ^ } #.#.#.#.#.#.#.T N t e B r X X # # # X X X X = ! ^ ! ^ B B B B B r r r ^ ^ ^ r ; X X X X X X # # # % B B B B B +.+.#.#.#.#.#.} ) ^ C #.B.U.f.4.Q R Q P V t n Y.0X:X,X,X,X-X6XI.V.Z.K.( k k j ^ ^ ",
", 8 8 j o.D.S.V.E.6XwXwXwX6X'.j.Q S S J T E Q Q A.S.A.7.H ^ ^ { #.#.#.#.#.#.#.P V t e e ; % # # # # X X X X = > ! ! ^ B B B B B B B B C ^ ^ B ; X X X X X X X X % % : N B B N +.+.E E E E #. .) ) C #.B.B.B.q.Q Q E G V S J Y.'.=X;X,X8X6X'.I.V.C.i.( c c j ^ ^ ",
"4 >.:.e.V.E.R.E.I.B.Y.Y.A.f.f.f.3.B.s.B.B.B.B.B.Q Q #.K C ^ ^ } 0.0.0.0.N.0.0.0.T K D ) : : > : : : : r B C D } $.+.+.D B B B B B B A $.%.$.@.) ^ ^ C : : : : : : e B D } } K 0.0.0.9.9.9.0.*.) ^ ) } #.#.E 9.M.f.B.f.f.B.s.s.s.f.h.h.h.f.f.[.Y.Y._.N.i.:.@.^ y ",
"5 H.S.I.E.=X=X7XP.1.E &.E Q Q 4.s.E.h.Y.Y.(.(.f.R G C C ^ ^ ^ | N.N.Z.Z.Z.Z.V.N.*.+.+.@.N B B B N N N C } #.#.*.N.0.N.} B B B B B N A *.e.D.*.+.+.+.| N N N N N N N D  .+.#.#.N.N.V.N.N.V.N.0.) ^ ^ ^ _ ) D 7.U.j.j.j.x.(.f.1.E #.#.Q Q Q <.l.=X6X[.T.S.L.8.C y ",
"2 G.I.I.Y.=X-X6XP.Q T +.T E Q 4.3.E.h.Y.E.(.(.3.#.C C C ^ ^ ^ | N.N.N.Z.Z.Z.V.V.&.E +.+.N B B B B N B D +.#.&.*.N.N.N.+.N N N A N N V *.D.N.*.+.+.+.} N e e N N N N D  .#.#.E V.V.V.V.V.V.V.0.) ^ ^ ^ ^ ! } 9.E.E.Y.l.v.v.g.4.E  . .Q Q E Q k.eXeXE.Y.Y.I.0.C C ",
"i I.Y.Y.E.7X6XR.f.Q E #.E E Q Q M.I.I.T.T.T.A.B.K H } H C ^ ^ | V.V.V.V.V.V.V.V.#.E T +.N N N N B V N D +.E #.9.N.N.N.} B B B B B N V N.V.S.C.&.#.#.P V V V N N N N D P #.E E V.V.V.V.V.V.S.0.) ^ ^ C ) D P 9.I.A.A.Y.Y.(.A.7.#. . .#.#.#.Q E.7X7X[.Y.Y.Y.q.C ^ ",
"i [.0X6X7Xf.B.f.<.Q E E E E E R T T Y T T T &.#.8.$.8.#.C ^ ^ #.L.L.S.S.L.L.L.S.E E T +.V N N B K K T #.N.9.V.S.S.V.S.+.B B B B B r V V.A.T.S.Z.V.V.0.P P P V B B N C P P E E V.S.A.S.S.S.S.0.) C ) K $.&.&.#.E T T T T T T T E  .+.+.+.#.&.M.q.M.h.6XqX9XU.V B ",
"d tXwXwXR.3.R 3.R E E E E E T K K S S S D D D +.0.H.D.&.C ^ f $.Q.Q.Q.Q.Q.Q.L.L.Q E T +.V N N V  .#.E 9.S.I.T.T.T.T.Q.#.B B r r B r e N.S.T._._.T.Q.G.#.#.#.C B B B C P P E E L.Q.T.Q.Q.T.T.N.) C C  .e.0.0.&.P D C V V V S #.&.T +.+.#.#.E Q R R d.9X0XwXE.q r ",
"i 7X,X8XR.Q &.Q Q R E T +.T T K D V V V D D D #.8.D.D.$.C ^ f $.Q.Q.Q.Q.Q.Q.L.Q.E E #.+.N N N N  .#.E 7.S.I.I.S.T.T.Q.+.B r r r r e e N.S.T..XT.T.S.S.P P  .} B B B D P P E E L.Q.T.Q.Q.T.T.0.C C C K 0.0.0.$.} C C e e t D P #.E E E E E E E T R 5.6XwX8XY.V r ",
"a 9X,XwXR.Q T #.Q Q #.#.#.#.+.+.C N N N D } } #.0.D.H.*.H ^ f #.L.^.^.S.S.S.T.Q.Q E #.+.N N N V  .#.E 9.S.S.I.S.T.T.L.+.B r r r r r e D.S.T.Q.Q.T.T.S.E E  .} B B B K P P E E L.T.T.Q.Q.T.T.N.^ C C } e.D.D.8.| ) ) C B e V +.#.#.#.#.&.&.Q E T E 3.8X,X>Xl.V r ",
"a 9X>XwXR.E +.#.9.0.N.N.0.0.0.0.D N N V +.#.*.D.H.H.H.8.{ ^ f #./././.Q.T.T.T.Q.Q E #.+.N N N B  .#.E 9.S.S.I.S.T.T.Q.#.^ ^ ^ ^ ^ C C G.Q.T.Q.Q.S.T.S.E E  .} r B B K P P E E S.T.T.L.Q.T.T.N.C ^ C } e.D.D.0.*.*.*.D N N N #.0.9.9.9.M.M.9.E T E 3.8X1X>Xk.V r ",
"a 9X>X-XR.Q +.#.9.V.V.D.V.V.Z.J.D N N V &.0.N.D.D.e.D.$.C ^ f #.L./.S.S.T.T.T.Q.Q E #.+.N N N V  .+.E 9.S.T.T.T.T.T.Q.$.) ) ) ) ) ^ C L.Q.T.Q.Q.S.Q.S.E E  .} r B B K P P E E S.S.T.L.Q.T.T.N.^ ^ C } 0.N.N.N.D.J.J.} N N N *.N.N.N.N.V.V.V.E T E 5.wX1X1Xl.V r ",
"a 9X>XwXR.4.#.&.M.V.V.V.V.V.V.D.D N N V 0.N.N.w.D.e.e.*.C ^ f #.Q._.T.S.S.S.S.Q.Q E #.+.V V N V  .#.E 9.S.T.S.T.T.T.Q.$.) ) ) ) ^ ^ C G.S.S.S.S.S.L.S.R E  .} r B B D P P E E S.S.S.L.L._.T.S.) ^ ^ } e.N.N.N.N.N.N.+.N N N 0.V.V.V.V.V.V.V.Q #.E 5.wX1X1Xl.t r ",
"g 9X2X8XR.9.9.9.N.V.V.V.V.V.V.V.S N N V 0.0.9.0.0.*.*.$.C ^ f #..X_._.Q.Q.Q.S.Q.Q E #.+.V N N V  .#.E 9.S.S.S.S.S.S.S.#.) ) ^ ^ ^ ^ C G.S.S.S.S.S.S.V.R E  .} r B B C P P E E S.S.S.L.L._.T.V.C ^ ^ } 8.0.0.9.9.0.8.} N N N 0.V.S.S.S.S.A.V.N.M.9.f.wX1X1X3Xt r ",
"g eX,X8X(.M.V.V.L.Q.T.T.T.S.S.L.D N N N #.#.E #.#.+.#.$.C ^ f $..X_._.Q.Q.Q.T.Q.Q E #.+.V N N V  .#.E 9.S.S.V.V.V.V.V.#.) ^ ^ ^ ^ ^ C D.S.A.S.S.S.S.V.R E P } B B B C P P E E S.S.S././._.S.V.C ^ ^ } $. .E E E #.#.K N N N 0.S.L.L.L.T.S.S.V.Z.V.f.wX>X1XR.t r ",
"g 9X>X8X[.A.V.S.L.Q.T.T.T.T.T.Q.D N N N #.T E E +.+.+.} ^ ^ f $..X_._..XQ.Q.Q.Q.Q E #.+.N N N V  .#.E 9.S.V.V.V.V.V.N.#.) ) ) ^ ^ ^ C N.C.Z.V.S.S.Z.C.&.E #.} B B B C P  .+.T S.S.S././._.S.V.C ^ ^ )  .#.E E E E #.D N A N 0.G.L.L.L.T.S.S.S.S.V.B.wX>X1XR.t r ",
"g 9X>X8X[.A.V.V.S.T.T.T.I.T.I.T.D N N N #.E E E +.+.+.} ^ ^ f $.Q._._.T.T.Q.T.T.Q E #.+.V N N V  .#.E 9.S.S.V.V.V.V.N.#.) ) ) ) { { C N.C.Z.V.V.Z.Z.V.&.E #.} B B B K P  .+.T S.S.S.L./.^.S.D.C ^ ^ ) #.#.E E E E #.D N N N 0.G.L.L.L.T.S.S.S.S.Z.Y.wX,X>XR.e r ",
"g 9X,X0X[.A.V.V.S.T.T.T.T.T.T.Q.D N N N *.#.#.#.#.#.#.+.^ ^ f #.S.S.S.S.S.S.S.S.Q E +.+.B N N V 1.1.3.f.U.U.I.V.V.V.N.#.} } } } } { C w.V.V.V.A.Y.Y.A.s.3.4.E N B N K P  .+.T V.S.S.S.S.S.S.D.^ ^ ^ ) #.#.Q Q Q #.#.D N N N 0.G.L.L.L.T.S.S.S.S.Z.Y.xXgXgX'.t r ",
"g qXfXzX XA.V.V.S.T.T.T.T.T.Q.L.D N N N 0.N.N.N.N.N.e.:.^ ^ f #.S.S.S.S.S.S.S.S.#.#.+.@.) A N L 7X8X-X-X8X8X7XE.V.V.N.*.+. .} }  .+.+.V.B.V.A.(.8X8X,X;X;X6Xf.n V t K P  .#.E Z.V.Z.Z.Z.A.V.D.^ ^ ^ } 0.N.V.B.N.N.N.K N B N N.Q.L.L.L.T.S.S.S.V.Z.(.zXfXfX'.y r ",
"g xXfXbX XS.V.V.S.T.S.S.L.L.L.L.D N N N 0.N.V.V.V.N.D.e.) ^ f #.S.Z.V.V.V.V.V.V.#.#.+.+.D A N R k.2X<X-X-X-X8XE.V.V.V.&.+.+.+.+.+.+.#.B.V.V.I.'.,X>X>X>X>X8Xd.V N V P #. .+.E Z.V.Z.V.V.V.V.0.^ ^ ^ } e.N.V.V.V.N.N.P V C N N.S.L.L.L.T.S.S.S.V.Z.(.zXfXhX|.B ^ ",
"g xXfXbX XS.V.V.S.S.Q.Q.L.L.L.L.D e N N N.V.V.V.V.V.D.e.C f f #.V.V.V.N.N.N.N.N.#.E E T D V n R R.8X-X8X8X8X6XE.A.Z.Z.&.#.#.+.+.+.T E A.A.A.Y.R.8X8X8X8X8X6X6.G N S K #. .+.T N.V.Z.V.V.V.N.0.^ ^ ^ } D.N.V.M.M.C.N.P N B N 0.S.L.L.Q.T.S.S.S.V.Z.{.zXfXfX{.B C ",
"g pXfXbX XS.V.V.V.S.S.S.Z.C.C.N.C V N N D.D.V.V.V.V.G.e.C ^ f | V.S.V.N.N.N.N.N.&.T K T 7.1.1.4.U.l.R.R.R.R.R.(.Y.(.(.C.N.0.*.*.*.*.&.~.~.~.Y.[.R.R.R.R.l.R.U.<.E 1.P K P +.T N.S.S.V.V.V.N.0.) ^ ^ | D.V.V.Z.Z.V.V.+.N N N &.M.9.N.S.S.S.S.V.Z.Z.~.iXhXhX{.e r ",
"d qXfXbX XS.V.V.V.S.Z.V.M.Q Q &.C N N V D.L.S.S.S.S.L.N.C ^ f | V.V.V.N.N.N.N.N.#.C C R E.R.R.P.R 4.1.1.1.1.3.f.|.|.b.`.L.J.J.Z.Z.Z.S.pXiX|.`.R L E E <.1.1.6.R.R.3X6.K C  .T N.S.Z.V.V.N.N.8.) ^ y | G.L.L.L.S.L.L.+.N N N E Q E 9.N.V.V.V.V.Z.Z.~.iXhXhX{.e r ",
"d pXhXbX{.S.V.V.V.Z.Z.V.N.Q E #.C B N V D.L.T.T.T.T.Q.N.C ^ f +.V.V.V.D.D.N.N.N.#.) } 7.h.8X6X4.Q E E E E &.R s.|.bXbX(.Z.Z.Z.Z.Z.Z.S.xXiXiX(.Q P  . . . .P 1.3X-X*X2.G C K T N.Z.Z.V.V.N.N.8.) ^ ^ | G.L.L.L.S.L.L.+.N N N T Q #.9.V.V.V.V.S.V.Z.~.iXhXhX{.r r ",
"d sXbXbX}.A.N.V.S.Z.V.V.V.Q R K C B B V L.L.T.T.T.T.Q.N.C ^ f | N.C.N.N.N.N.0.0.#.} P E l.8X6Xq.7.E E Q Q E Q B. XzXzX(.S.S.S.S.S.V.S.|.|.|.`.7.+.#. . . .#.6.&X-Xl.q.K K G T M.M.C.C.N.V.0.8.^ ^ ^ | G.L.L.L.S.L.L.+.A B N T E Q M.A.Z.S.S.S.S.Z.A.|.uXbX(.r r ",
"p XX|.|.`.M.M.N.A.A.(.(.(.g.g.A.K B N S L.Q.T.I.T.L.Q.N.C ^ f } 9.9.0.*.0.0.9.7.q.q.6.P.P.5.3.9.T S K P P K K Q M.s.s.9.*.9.9.9.*.*.9.M.s.s.9.+.D ) } } }  .Q <.6.6.q.q.q.q.M.9.&.&.9.9.9.7.#.y ^ ^ | G.L.S.L.S.L.L.+.A A V 4.f.d.g.x.{.(.A.M.M.C.B.}. X|.A.B r ",
"p Q.(.(.S.M.9.9.A.(.iXfXfXfXuX|.Y N V S L.Q.T.T.T.L.Q.D.C ^ ^ } E E #.#.#.&.#.#.U.&X*XR.J V V C D D C C B B A A A N A C C C C C C C C V V V C r B B B C ^ C V V K V 6.8X&X6X'.4.&.#.#.#.Q E  .y ^ ^ | G.L.L.L.T.Q.L.#.V V S g.m.fXfXfXfXm.'.s.Q &.M..X.XA.0.B B ",
"5 Q.`.`.`.s.Q 1.Y. XfXhXhXhXhXn.Y V b J N.S.V.A.A.S.L.N.C ^ ^ { T E E #.#.#.#.Q U.-X8XR.L V N B ^ ) ) C B B A B B B r C ^ ^ ^ ^ ^ ^ ) C N N B r B B B C ^ ) C B N V 6.8X,X,X8X1.+.+.#.E E P  .^ ^ ^ | L.Q.L.Q.T.Q.L.&.V V J g.zXfXhXhXfXfX|.f.E E Z.Q.S.Q.N.e r ",
"5 S.x.x.(.s.1.1.A.|.iXiXiXuXiXb.W Y J T V.L.T.T.Q.L.L.N.C ^ ^ { T E E E  .|  .R [.8X,X6XV e e B ^ ) C B N N B A N e r y y C C y y y B B N N N N B B B C C C C r e C f.8X>X>X0X4.$.@.#.E E E #.) ^ ^ +.G.L.L.S.S.S.V.9.J J U (.|.zXiXuXuX|.'.f.W W f.`.}.}.V.t B ",
"d  XaXuX|.(.E.[.`.`.A.A.A.g.Y.A.Y.A.B.M.9.9.q.q.B.V.L.N.C ^ ^ { T #.E P } } D L [.0X,X6XN e t V D K } } D +.+.+.+.+.#. .} } } } } } #.#.+.+.+. .P P P  .} } C r r V f.,X,X,X0XT ) ) K P E P  .) ^ ^ #.G.V.V.V.V.M.9.s.B.f.A.A.A.A.Y.j.j.x.j.'.'.x.v.|.iXiX~.C ) ",
"s pXbXhXfX,X,X0XB.S.V.M.M.Q Q Q '.0XwX[.4.Q Q 7.9.N.D.0.C ^ ^ { T #.T P } ) ) K }.zXfX|.V e e V  .+.#.+.+.#.+.*.N.N.0.&. . . .#.#.#.#.*.N.N.0.#.E E E #.#. .C y r A B.0XzX0X0XT ) ) H P P E  .) ) C | N.V.B.9.#.Q W h.wXwX0XM.Q Q 4.M.B.A.A.'.wX0XwXfXfXzXY.C ^ ",
"d sXbXzXgX,X>X=XP.V.N.N.9.&.&.Q v.wXwX'.4.Q Q 7.0.N.D.0.C ^ ^ } T E  .} { ^ ^ K `.iXfX|.Z B N V  .#.P P E E T *.N.N.0.#.#.#.#.#.#.#.#.9.N.N.0.E E E E E E P D B B B M. X0X0XqXT ^ ) { }  .#.#.) ) C +.0.V.V.9.E E R h.,XgX0XB.#.#.7.9.V.S.A.l.8XwXgXgXfX:XI.C ^ ",
"p .X{.|.0XwX8X6XU.V.N.0.9.#.#.Q l.wXwX6X4.Q E 7.9.N.D.&.K ^ ) } P P } { { ^ ^ K `.iXm.|.Z N N V #.#.+.P T E T *.N.N.0.#.#.#.#.#.#.#.#.7.N.N.0.E E E E E E E D B B B M.|.|.0X|.T ^ ) { } |  .+.C { C #.0.9.w.9.E E R h.,X,X:XM.#. .7.0.N.V.V.7X6X6XwX,X:X|.A.C ^ ",
"7 L.A.A.Y.a.3.1.E P } } } D D K j.wXwX6X4.Q E #.&.#.&.#.T K K } { ^ { { ^ ^ ^ K `.uXm.'.Z N N V #.#. .#.0.0.0.N.N.N.0.&.#. .#.#.#.#.#.w.N.N.V.0.0.0.0.E E E D C B B Q '.|.m.'.T ^ ^ ) ) ) ) } K }  .#.#.&.#.#.#.Q <.h.wX2X:X4.H { { } } +.T 9.4.4.f.E.Y.I.B.B r ",
"7 H.Z.V.B.Q R P K C C C ^ ^ ^ C j.,XwXR.6.Q E #.#.#.#.E E P K } ^ ^ ^ ^ ^ ^ ^ K Y.b.n.x.V A N V #.#. .#.0.N.N.N.N.N.0.&.#.#.#.#.#.#.#.N.N.N.N.N.N.N.0.E E T K A B N Q (.v.m.'.E ! ^ ^ ^ / ^ } K P #.#.#.#.#.#.#.Q <.h.wX2X=X1.C f ^ ) ^ ) ) #.E E 9.V.V.V.0.N r ",
"7 F.D.D.0.E P  .K H C C C C C V h.8XwXR.6.Q Q Q E E Q Q E E P K ^ f ^ C C ^ ^ K I.b.b.Y.V A N V #.#.#.&.0.N.N.N.N.N.N.&.#. .#.#.#.#.#.N.N.V.V.V.V.N.0.E P  .D A N N Q Y.'.v.(.#.B ) ^ ^ / ^ ) K P E E E #.#.#.E Q <.h.wXwX6X1.C ^ ^ ) ^ ^ )  .#.#.0.D.D.N.0.N r ",
"4 $Xr.r.:.@.| } H H H H H H H G !.E.j.[.3.<.<.3.1.R R R Q E P K C f f ^ C K K G T.A.B.M.N N N C #.E #.&.V.B.B.B.M.B.S.9. . . . .#.#.#.V.B.B.Y.Y.M.B.I.E P P D B e t &.V.M.B.Q.T K T G { ^ ^ { K P E 1.1.Q Q 1.<.3.2.P.R.j.E.P C ) ) ) H H H  . .@.@.>.>.:.$.r r ",
"4 +X-.-.] ^ ^ ^ H P P P P P P P K &.Q L 7Xl.l.R.v.'.R.E.Q #.#.} y y f C N.4.1.q.G D D D Z N N B } K K 7.!.6X6X'.'.[. X9.C C C C C C K T.|.|.:X0X(.E.E.K K C C B e e N S +.T D L.7.1.w.G H y H K E R f.R.E.U.R.l.l.R.6.R R P K $.| |  .P P K K } ) _ -.+X-.=.r r ",
"0 OX@XoX] ! ^ ^ { P P P P P  .P P V b Y h.8X,X,X2X>XwXY.Q #.#.} C f ^ C 9.U.R.q.K N N N N N N e ) C C 7.6X8XwXwXzXzX|.&.f f f f f B I {.iXfXgXwXwX9XE.D C ^ C r e N N V N N S 9.B.E.B.K ^ f {  .#.E f.6XeX8X-X-X8X6X5.V N G #. .|  . .P P  .C C ^ / [ oX@XO.r B ",
"0 #X#XOX[ / } ^ } P P P P P #.#.D C N J h.,X2X2X1X>X8Xf.9.#.+.} C C y K 1.R.R.6.K N N N N N N N ) C K 6.6X,X,XcXzXiX|.M.^ ^ ^ ^ ^ ^ +.{.hXhXfX,X8XwXE.P C ) C N N N N A B A S 1.E.(.9. .C C } T +.&.f.l.-X-X-X-X-X3X1.V B C  .P  .P P P P P K K ) ( +X@X@XO.r r ",
"0 #X#XoX[ / ) ) K P P P P E E #.C B N n E.6X8XwX,X,XwXY.Q Q T T C C C G 4.Y.Y.V.K N N N N N N N C C K 6.6XwXwXwXzXzX XM.} D D D D K Q {.iXbXzX0X8X8X4XP K C C V : N B B B B V M.I.(.B.E D C K E &.&.f.6XeXeXeXeXeX7XL V B B } E P P P E T  .C C C _ +XOX+X[ r r ",
"0 v v ' ` _ ) ) P P P P P E #.#.V N V n A.d.j.R.R.j.Y.[.s.s.s.4.&.#.#.P 9.4.4.0.C B A A B N V V 7.E 7.q.U.h.l.[.(.Y.A.M.Q Q Q Q 9.9.4.E.Y.(.(.Y.l.l.P.<.<.<.P V C N B B B B N 0.Q Q M.Q 7.#.Q 4.s.M.f.E.Y.P.P.P.P.P.E V B B  .E P P P E E +.K K ) _ ] ` ` _ r r ",
"9 8 k 8 ~ =.@.} P E E E #.#.#.#.C N N N n b n n n M M W (.|.|.(.Y.I.P.V.T K V t V ^ ^ C B N V K !.R.U.I.1.<.<.J K K T ~. X|.|. X|.{. XR J K K E 4.1.5.7X3XR.S.N A N B B C C C A D D Y A.B.Y.'.|.|.|.A.F n n V V V V N t B B  .E E E #.E E #.#.#.+.=.` z z ~ r r ",
"9 8 l z _ @.@. .E E E #.#.#.#.#.V N N N N B N N N N S 4.x.zXzX|.v.v.E.B.#.V N t B ^ ^ C C B V J 7X8X8XU.#.P #.K C B } g.uXzXfXfXbXiXx.Q y f ) +.#.E 4.=X,X8XB.N A N B C ^ ^ ) B B N T B.Y.x.c.zXfXfXs.T N t e N B B N B B B  .E E E +.E E E #.#.+.X.` k k 6 r r ",
"9 8 k z _ @.+.#.Q Q E #.#.#.#.#.V N N e r B B B B N V R (.iXiX|.c.v.Y.A.E V B C C ) ) ) B N V J 7X8X8XP. .P #.K C B K A.uXbXuXuXuXiX{.E f f { #. . .1.=XgX0XA.V A N C C ) ) C C A N T B.Y.j.x.zXm.m.f.S e e e r B B B B B B +.#.E E +.E E E #.#.+.X.` z z 6 r r ",
"4 ] _ _ *.*.&.9.7.7.9.9.*.*.*.*.C N N N B B C B ! ^ B G M.s.s.s.f.6.9.0.P K K K K K } } B e N Y  XzX0XY.P K  .} } K P B.j.g.x.x.x.j.A.K { { } } } } E m.gX:XA.Z A N D } } } } } } } P 7.9.4.B.s.3.s.9.N B B B B B A B B B B #.*.&.&.*.&.&.*.9.9.*.*.%.X..._ y C ",
"7 H.J.N.L.V.V.V.V.V.V.V.V.Z.N.J.D N N N B C C ^ ^ ^ C t e B B y y y f ) }  .E E E K P K B e t Q  XzXzXh.G K C } +. . .E E E R R Q Q R E P  . .^ f y L |.zX:XA.m N V K #.#.+.#.#.#.#.{ u y C C V N B B B ^ C ) C C C A B B B *.N.N.N.N.N.N.N.V.V.V.L.D.D.H.8.C { ",
"7 H.Q.Q.Q.V.V.V.V.V.V.V.V.V.J.J.D N e N C C C ^ ^ ^ ^ y e r r y y y y ) } #.E E #.R R P G e t Q pXhXfXj.G C C } +.#.#.E E E E E E E E E E #.+.C f y L |.zXzX(.M V S T #.#.#.#.#.#. .} u f ^ ^ y r B B C C C C D D D A B B B *.N.V.N.N.N.N.N.V.V.V.L.S.S.S.8.C ^ ",
"7 S.`.`.T.A.B.S.V.V.V.V.V.V.V.J.D N e e D C C C ) ) ^ B e B B B B C C H } #.E E Q R R R K S V R  X|.|.A.G C C K +.+.#.#.E #.#.+.+.+.P #.#.#.#.C ^ C R `.|.'.Y.U U Y Y Q R R Q E E #.P H C ) C V N r B B C C D D D D A B B B *.N.V.V.N.N.N.N.V.V.V.Z.T.Y.Y.N.^ ^ ",
"h }.iXiX{.(.A.S.V.V.V.V.V.Z.Z.J.D N N N $.#.#.$.$.$.*.$.} D D } +.#.#.&.#.#.E R 1.B.B.B.B.B.M.9.9.4.9.Q K +.K +.#.#.*.+.K } } D D ) ) *.9.9.&.T T T T M.9.4.B.A.g.g.g.Y.B.B.B.Q E E #.#.#.$.+.K K K  .$.$.$.$.*.$.$.) A B A *.V.V.V.V.V.V.V.S.S.A.T. XiX|.A.B ^ ",
"g sXbXxXpX}._.L.V.V.V.V.V.V.Z.J.D N N C 0.0.D.H.H.D.D.0.#.+.+.*.J.J.D.N.*.#.E E f.'.v.v.0X0X XA.T K K D #.&.#.*.N.N.0.K V N N N N A D 0.0.M.9.#.#.#. .C  .K Q {.zXfXm.'.l.Y.U.Q E #.*.N.D.D.0.#.#.#.&.e.D.e.D.D.D.e.} A A A 0.N.V.V.V.V.V.V.S.S.S.`.xXbXbX(.B C ",
"d  XbXzX|.`.S.L.G.V.V.N.V.V.Z.J.D N N V 0.N.N.D.D.D.J.N.#.+.+.*.N.N.N.0.&.Q R Q f.c.c.b.zXzX|.M.#.^ ^ } T +.T *.J.J.D.+.V N N N N B A 0.N.V.0.#.#.#. .B C } 9.x.fXjX:Xv.k.j.I.1.E &.*.N.N.N.*.#.#.#.&.0.D.D.D.D.D.e.} A A N 0.V.V.V.V.V.V.V.S.S.S.(.0XfXbX(.N r ",
"d  XfXbXiX`.^.L.L.S.V.V.V.V.D.J.D N N V 0.N.N.N.N.Z.Z.0.#.E #.*.N.V.Z.N.9.4.4.s.Y.'.v.m.|.|.|.Z.K ^ ^ K #.#.+.*.D.D.D.+.N N N N N B A 0.N.V.0.E #.#. .C ) D &.`.|.zX0X'.Y.E.I.4.9.&.9.N.N.N.9.#.E E #.0.N.N.N.N.N.N.+.N N N N.V.V.V.V.V.S.S.S.S.T.(.0XfXfX(.N B ",
"s 0XfXbXiX`.^./.L.S.S.S.S.L.L.L.D N N V 0.N.N.N.N.N.N.0.E E E &.N.V.V.C.A.A.f.A.s.s.s.s.W W W K P P +.#.9.0.0.Z.D.N.D.} N N N N N N A 0.N.V.V.0.0.0.*.T P P K Q W 3.4.4.4.4.4.B.B.B.V.V.V.N.9.Q E R #.0.V.V.V.N.N.N.K A N N N.S.A.S.S.S.S.S.S.S.T.(.zXfXfXx.N B ",
"s |.fXbX X`.^.L.S.S.T.T.T.L.L.L.D N N N 0.N.N.N.N.N.N.9.E E E &.V.V.V.S.T.(.(.A.Q Q Q Q S m n G K R E #.0.N.N.D.D.N.D.K N N N N N N N 0.N.V.G.D.J.N.N.Q E P K K V V K P E E Q I.T.T.T.S.V.9.7.E R K #.0.V.V.V.N.N.N.K N N N N.S.T.T.T.T.T.T.T.T.T.(.zXfXfXx.V C ",
"p '.zXzX X_.S.S.T.T..XQ.Q..XL.L.D N N V 0.0.N.N.N.N.N.#.T E E &.N.N.N.V.I.R.E.A.Q T +.+.S V V K T E Q &.N.N.N.V.D.J.N.K N N N N N t N $.0.0.N.D.J.N.&.#. . .K V q C K  .#.#.Q A.T.T.T.V.V.N.9.#.P P #.0.D.N.N.N.N.N.} N A N Z.S.T.I.A.T.T.T.S.S.~.(.zXbXbXz.Z A ",
"5 _.{.(.`.S.S.L.Q.T..XQ.Q.S.S.L.D N N D 0.0.0.0.0.0.0.0.#.#.#.*.N.D.N.V.I.I.I.B.&.+.$.$.C N V D K T T &.0.D.D.N.N.N.D.} N N N N N t N *.0.0.0.D.D.0.*.#.|  .H e e t C }  . .E V.A.A.T.V.N.N.0.#.#.#.&.0.e.e.0.0.0.8.} A A N 0.N.B.S.Q.Q.Q.Q.Q.Q.Q.`. X{.{.M.B B ",
"2 *.y.Q Q T D D T T T K K T &.*.D N N N #.#.#.#.K C C C V V V V D D D K K R #.#.} ) ) ) B B B C D } D D C C C C N N C N N N N N N N e D C V C C C C C ) ) { C e e r C ) { K K E Q Q E G S K C e e e N C D K K K P #.} A B N *.#.Q T K S S S S S S J Q 4.4.*.B ! ",
"3 @.+.} D V B B N V b V S +.T D V N N N C #.#.C e e e e e e e e N N N V K P #.+.D ^ ^ ^ ! r r B C ) C B N N N N N e e N N N N e e e e B B r B B B B B B y ^ C r r r r ^ ^ C H K T R K V t e e e e e e e e e V K #.+.C B B B D T E K N N N N N N N V K E R P f ! ",
"3 ..@.| C B B B B N t V C +.} D C N N V C P  .C V e e e r r r r B N e V C  . .| C C ^ ^ r r r r C C C B e r e e e e e e B N e e e r B B B r r B B B r r s ^ ^ r r r ! ^ ^ ^ ^ K P P K V t e r r r r r r r e V K  .} C r r B D P P K B B B B B B e V K +.E K f f ",
"1 ~ ~ ~ ^ s 6 6 ! r r B C | | ) ! r B C ) ) ) ^ ! r r r s s s r B B r B ^ | | | ^ ! ! s s r r s f ^ ^ s r r r r r r r r r r r r r s ! ! ! s s ! ! s ! s s ~ ! s 6 6 d / / d ^ { } } ) B r r r r r r r r s r B ) } ) ! r > r ) ) } _ ! s s s s s r B ) @.+.} f s "
};
