/* XPM */
static char *_6dd34327a1f409793560040a922122cs8a7RzT4APw6noFn[] = {
/* columns rows colors chars-per-pixel */
"128 128 141 2 ",
"   c #361626",
".  c #3C1625",
"X  c #361927",
"o  c #3A1927",
"O  c #361B29",
"+  c #3D1E2B",
"@  c #36212A",
"#  c #3C212C",
"$  c #3E2631",
"%  c #3E2A33",
"&  c #3F3037",
"*  c #421D2D",
"=  c #4A1C2F",
"-  c #441F30",
";  c #4C1E32",
":  c #41212E",
">  c #53252B",
",  c #532A2E",
"<  c #4D332D",
"1  c #52342E",
"2  c #462533",
"3  c #4B2534",
"4  c #442935",
"5  c #4B2836",
"6  c #4E2738",
"7  c #452E38",
"8  c #4E2A39",
"9  c #512536",
"0  c #542A35",
"q  c #5D2A34",
"w  c #54273A",
"e  c #5A263B",
"r  c #54293B",
"t  c #5A2B3D",
"y  c #433336",
"u  c #4C3335",
"i  c #4F3932",
"p  c #45323A",
"a  c #4C323C",
"s  c #4D3A3F",
"d  c #533630",
"f  c #593537",
"g  c #573832",
"h  c #5B3936",
"j  c #52333D",
"k  c #5C333D",
"l  c #54393A",
"z  c #5B3C3C",
"x  c #60263D",
"c  c #612B3F",
"v  c #603737",
"b  c #6A3237",
"n  c #66323C",
"m  c #6A323D",
"M  c #73333F",
"N  c #5F413F",
"B  c #5D2640",
"V  c #572E40",
"C  c #5D2D41",
"Z  c #4D3741",
"A  c #4E3943",
"S  c #533541",
"D  c #5D3142",
"F  c #533A42",
"G  c #5A3B46",
"H  c #553F49",
"J  c #5B3C49",
"K  c #642E44",
"L  c #692E45",
"P  c #6B2F48",
"I  c #732D47",
"U  c #643145",
"Y  c #693147",
"T  c #603F41",
"R  c #663348",
"E  c #6C3349",
"W  c #623C4B",
"Q  c #6D394D",
"!  c #723443",
"~  c #793346",
"^  c #753B44",
"/  c #73334C",
"(  c #79344E",
")  c #73384E",
"_  c #7C3C4B",
"`  c #6F3A50",
"'  c #743650",
"]  c #7B3551",
"[  c #753A51",
"{  c #7B3A53",
"}  c #7A3C54",
"|  c #793D56",
" . c #7A3F56",
".. c #7C3C54",
"X. c #7F3C55",
"o. c #7F3E56",
"O. c #7C3B58",
"+. c #7E3E59",
"@. c #5C4243",
"#. c #56444B",
"$. c #5B434C",
"%. c #5C484C",
"&. c #5F4450",
"*. c #624645",
"=. c #63434E",
"-. c #73414E",
";. c #7E414A",
":. c #634250",
">. c #6E4154",
",. c #734154",
"<. c #7B4157",
"1. c #7E4155",
"2. c #7D4159",
"3. c #813E4D",
"4. c #803653",
"5. c #813656",
"6. c #813954",
"7. c #813B55",
"8. c #823B57",
"9. c #863B57",
"0. c #833C55",
"q. c #813D56",
"w. c #853C57",
"e. c #893A57",
"r. c #893D57",
"t. c #853B59",
"y. c #803E59",
"u. c #833E5A",
"i. c #853F59",
"p. c #853E5A",
"a. c #883D58",
"s. c #883D5B",
"d. c #8A3C5B",
"f. c #81414D",
"g. c #844152",
"h. c #804057",
"j. c #884257",
"k. c #81425A",
"l. c #844059",
"z. c #84415A",
"x. c #88405A",
/* pixels */
"n U U E / ] q.w.w.7.h.o./ / / / Q Q / ] h.o.o.k.q.k.k.y.y.y.k.] / / / Q / ' / '  .] ] [ / Q Q ' +.k.y.y.y.y.i.O./ Q R V r r r r r 9 r e U Q Q ] o.q.q.q.q.q.q.] / Q / o.q.o.] [ ' / Q / / / / / y.+.y.y.q.y.y.y.q.q.q. ./ / ' / ' / Q  .o.o.q.y.i.k.] L U D k r ",
"n K K L / o.a.a.a.9.i.q.( ( / / / / / ] w.w.9.i.w.i.i.a.a.a.a.4.( / / / / ] / ] 7.i.i.i./ / / ] i.i.i.i.a.a.a.t.( / Y C r r r r r r r t Y ) / o.9.e.e.e.e.e.e.] / / / 7.r.9.9.7.] / / / / / / ( i.t.t.t.e.a.a.a.e.9.9.5./ / ' / ' / /  .q.w.9.a.a.a.] L L K t r ",
"n K K K / o.l.i.l.q.k.o.) / / / / / / o.w.q.q.i.w.i.i.i.a.a.i.] / / / / / / / ] 7.i.l.k./ / / ' y.i.i.i.i.t.i.7.( / E C r r r r r r t t U Q Q ] q.w.9.9.9.e.9.] / / / 7.a.a.a.i./ / / / / / / / y.y.i.w.w.a.a.a.9.w.w.o./ / ' / ' / /  .y.y.w.a.a.i.] L L K C r ",
"n K K / / [  .<.<. . .[ [ Q Q Q Q Q E [ o.o.o.o.o.o.o.o.q.q.o.] ' / Q / / / / ' ' ] ] [ / Q Q [  .+.+.O.O.o. .] / E Q D 6 6 6 r r r r C R Q Q [ ] o.o.q.q.q.o.] ) Q )  .o.q.o.] ' ' ' ' / / ' ' ]  . .o.o.q.q.q.q.o.o. .[ Q Q Q Q Q ` [  . . .o.o.o.] E L L U 5 ",
"Y Q Q Y L K t t t e e e e e w w r w 9 e t t e e e e e e x x x e t t t t t t t t e e e e w 9 9 w e t C C B e e e e t t r 6 5 5 5 5 5 6 r r e e e e e e e e e e w 3 3 6 e e x e e e e e e e e e e e e e e e e e e e e e w 9 3 9 w t t w w e e e e e e x L / / Q r ",
"E Q Q Y K e w w r r r t r w 9 9 5 5 6 6 r r 9 r 9 r w w w w w r r r r 6 r r r t t t t r 6 5 5 6 9 t t w w t r t t w 9 6 5 2 2 2 2 2 2 6 r r w w w w w w 9 9 9 6 2 : 2 5 r w w w 9 r r w w w w w w t r r r r r r r r r 6 5 2 5 6 r r 9 r r r r r r r K E / / Q r ",
"! / / / K e w 9 r r t r w w w 9 5 5 5 5 t w w w 9 t 9 w e e w w r r 9 9 9 9 w t 9 w t r 6 5 5 6 t w w w t r r r r r r 6 5 5 5 2 2 2 2 5 r e w w r t t t w w t 6 5 2 5 r t t r t w w w w w t t t w w t t r t r r r r r r 5 5 5 6 r r r r r r r r e r t / / / / r ",
"~ ] ] ' K e e t t r t t t t t t 5 5 6 9 t e t t t t w t e e t t t t r w t t t t 9 w w r 6 3 3 3 t t t t t r r r t t t r 5 5 5 5 5 5 2 r t e e t t t t w w e t 9 6 5 6 r t t t e e e e e w t t t t e t t w t t r r e e w 3 5 2 6 t t t t r r e e t t e / / ( ] 9 ",
"_ 5.{ +.E K K C t 9 r t C K K C 3 3 3 9 C C K C t 9 w C U R R C t t t t C K K C 9 t t r 6 5 3 3 C K K C t r r t D D U C 5 5 5 5 5 5 2 r K t U t r t t C U K C 9 6 5 6 r t t t t K K K C t t t t K K K C w t t t U U K r 3 5 2 r D C C C r r e t t K K o.l.i.o.w ",
"q.t.7.+.L K K C t 9 9 C U U K C 3 5 3 w D K U C t r w C K K U C t t t w K U U D t t t r 6 3 3 6 C U U C t r r C U U U D 5 5 5 5 5 5 5 t U U R K t t t C K K C 9 3 5 6 r t t t t K K K K t t r t U U U C w t t t U U K e 3 2 5 t U R R C r r t t K K K o.l.a.q.9 ",
"q.t.i.y.L K K C t t r C R R Y K 5 5 3 w D K U C t t w C K K K C t t t w K K U U t t t r 6 5 5 6 C K U C t r r C U U U D 5 5 5 5 5 5 6 t U Y U K t t t C K K C 9 3 3 6 r t t t t K K K C t w t C U K U C t t t t U U U t 3 3 5 t R Y R C r r t t K U K o.i.i.i.w ",
"q.t.i.+.L K K K C t w C U U U K 5 5 6 w D K U C t t w C K K K C t t t w K K U U t t t r 6 5 5 6 C K U K t r r C U U Y C 5 5 5 5 5 5 6 t Y Y Y K t t t C K K C 9 3 3 6 r t t t t K K K C t w t C U K U C t t t t U U U t 3 3 6 t R Y Y C e e t K K U K o.i.i.i.w ",
"q.a.i.y.L K K K K C C K U K K C 5 5 6 w D K U K C C C K U U U K C C C C K K U U C t t t 6 5 5 6 C U U K C t t K U U U C 9 9 6 6 9 9 9 t U Y Y K C C C K U U K w 6 5 5 t t t t t K K K K C C C C U U U K C C C C U U U t 3 3 3 t U Y Y K x x K K K K K o.i.a.k.w ",
"q.a.a.y.K K K K U Y U K U K K C 2 2 3 r K K K U Y U U U Y Y Y U U U R R U K U U K K U C 5 2 2 6 U U U Y Y Y U U U K K K w w w w w w e t K K K K U U U U U U U w 6 5 5 t U U U U U U U U U U U U U U U U U U Y U K K U t 3 2 3 t K L L L Y Y Y K K K K o.a.a.k.w ",
"w.a.i.+.K K U U U U U U U K K t 2 2 5 r D U K K Y U U U Y Y Y Y Y Y Y Y K K K K U U U C 5 2 5 9 U U U Y Y Y Y Y U K K K w r w w r r r t U K K K U U U U Y U U r 6 5 5 t U U U U K K K U U U U U U Y Y Y Y Y Y U K U D t 3 2 3 t K K L K Y Y Y K K U K o.a.a.y.w ",
"g.k.2.<.K C U U U U U U U U D k 5 5 5 r D D K U Y U U U Y Y Y Y U U U U U K U U U U U C 5 2 5 9 U U U Y Y Y Y Y U K K C r r r r r r r t D U U U U U U U U U U r 6 5 5 t U U U U U U U U U U U U U U U U U U U U U D D r 5 3 3 t U K U U U U U U U U U ,.k.l.2.r ",
"-.,.,.>.t t V C t t t t t r t 0 2 2 2 5 r t t t t t t t C C t t t t t t t t t t t t t t 2 2 5 6 t t t t t t t t t t t r 3 3 3 3 5 5 6 r t t t t t t t t t t t 6 5 3 5 r t t t t t t t t t t t t t t t t t t t t t t t 6 5 5 5 r t C C C t t t t t t t Q ,.,.>.6 ",
"G $.$.W 6 5 5 5 5 5 6 3 3 3 3 2 2 2 2 2 5 5 6 6 6 6 6 6 3 6 3 3 3 3 3 3 3 3 3 3 3 5 6 5 2 2 2 5 2 3 3 3 3 3 3 3 3 6 3 3 + + + + + + + 2 5 6 3 3 3 3 3 3 6 5 5 3 2 2 3 2 3 3 3 3 3 3 3 5 3 3 3 3 6 3 3 3 3 3 3 3 6 6 5 3 3 2 5 5 3 3 3 3 5 6 6 6 5 5 5 G $.$.$.2 ",
"@.%.%.$.6 6 5 5 3 3 3 3 3 5 5 5 5 3 3 5 5 5 5 5 5 5 5 5 5 3 3 3 5 5 5 5 5 5 5 5 5 5 5 5 2 2 2 4 4 5 5 5 3 3 3 3 5 5 5 2 + + + + + + + : 3 6 3 3 3 2 2 2 2 2 2 2 2 2 5 5 5 5 5 5 5 5 5 5 3 3 3 3 5 5 3 3 3 3 3 3 3 3 3 3 2 2 5 5 6 6 6 5 5 5 5 5 5 5 5 G #.#.#.4 ",
"z @.J J 8 5 6 6 6 3 3 6 9 9 9 6 3 3 3 5 5 5 5 5 5 5 5 5 5 5 5 5 5 5 6 6 6 6 5 5 5 5 5 5 5 5 5 5 5 6 5 5 5 3 3 3 5 5 5 3 + + + + + + + 2 5 6 3 3 3 3 2 2 2 2 3 5 5 6 5 5 5 5 6 6 6 6 6 6 3 3 3 6 6 6 6 6 6 6 6 6 6 6 5 3 2 2 3 3 3 6 6 6 6 6 6 6 6 5 6 G $.H #.4 ",
"g l F S S t C K K K K c K K K K C C C C C C K K K K K K K K K K K K K K K K K K K K K K K K K K K K K K K K t t C C C t 5 5 5 3 2 2 3 r t C K K K C t t t t K K K K K K K K K K K K K K K K K K K K K K K K K K K K C C C C t K K K K K K K K C C C t D a a A 4 ",
"< u 8 D U Q Q / / / / / / / / / E E E E E / / / / / / / / / / / / / / / / / / / I I I I / / / / / / / / / / / / / / / L t t t t t r t C U Q / / / / / / / / / / / / / / / / / / / / / / / / / / / / / / / / / / / / Q Y Y Y E / / / / / / / E E Q Q Y D a 7 p 4 ",
"1 u j D Y Q / / / / / / / / / / E P P E E / / / / / / / / / / / / / / / / / / / / / / / / / / / / / / / / / / / / / / L w w w w w w r U Q / / / / / / / / / / / / / / / / / / / / / / / / / / / / / / / / / / / / / / E Y L L / / / / / / / / / / / Y D 8 7 p 4 ",
"1 u a C U Q / / / / / / / / / / P P E Q / / / / / / / Q / / / / / / / / / / / / / / / / / / / / / / / / / / / / / E E U w t t t t t e U Q / / / / / / / / / / / / / / / / / / / / / / / / / / / / / / / / / / / / / / Q Y L E / / / / / / / / / / / Y C r 8 a 5 ",
"h z S D U Q Q E / / / / / E E E P P P P Y Y Y Y Y Y E E E E E E E E E E E E E E E E E E E E E E E E E E E Y Y Y Y Q Q U 9 6 6 6 6 6 r C R Q E E E / / / E E E Y E E Q Q E Y Y Y E E E Y Y E Y Y Y Y Y Y Y Y Y E L L Y Y U K L E E E E E E E E Y Y Y Y U t t C 3 ",
"Y Q Q Q K U Y Y E E Y Y Y Y Y Y K K K K K K K U Y Y Y Y Y Y Y Y Y Y Y Y Y Y Y Y Y K K K Y Y Y Y Y Y Y Y Y Y Y Y Y Y Y U 5 5 5 5 3 3 3 t Y Y Y E Y E E E Y Y Y Y Y Y Y U K L L L Y Y Y Y Y Y Y Y Y Y Y Y Y Y Y Y K K K U U K K Y Y Y Y Y Y Y Y U U U Y Y Q E Y 3 ",
"! / / / L L Y Y Y Y Y Q Y Y Y U K K K K K K K U Y Y Y Y Y Y Y Y Y Y Y Y Y Y Y Y Y K K K Y Y Y Y Y Y Y Y Y Y Y Y Y Y U D 3 5 5 5 3 3 3 t Y Y Y Y Y Y Y Y Y Y Y Y Y Y Y U K U K K Y Y Y Y Y Y Y Y Y Y Y Y Y Y Y Y K K K U U U K U Y Q Q Y Y Y Y U U U K E / / / 3 ",
"! / / / L L Y Y Y Y Y Y Y Y Y U K K K K K K K U Y Y Y Y Y Y Y Y Y Y Y Y Y Y Y Y U U U U U Y Y Y Y Y Y Y Y Y Y Y Y Y U D 3 5 5 5 3 3 3 t Y Y Q Y Y Y Y Y Y Y Y Y Y Y Y U U U U U Y Y Y Y Y Y Y Y Y Y Y Y Y Y Y Y K K K U U U K U Y Q Q Y Y Y Y U U U K E / / / 6 ",
"~ ] ] ] L K Y Y Y Y Y Q Q Y Y U K K K K K K K U Y Y Y Y Y Y Y Y Y Y Y Y Y Y Y Y t t t t U Y Y Y Y Y Y Y Y Y Y Y Y Y U D 3 5 5 3 5 5 3 t Y Y Q Y Y Y Y Y Y Y Y Y Y Y Y x t t t t Y Y Y Y Y Y Y Y Y Y Y Y Y Y Y Y K K K K K K K Y Y Y Y Y Y Y Y Y K K K ) o.q.] 9 ",
"_ 5.7.o.L K Y Y Y Y Y Y Y Y Y U K K K K K K K U Y Y Y Y Y Y Y Y Y Y Y Y Y Y Y U e r r r U Y Y Y Y Y Y Y Y Y Y Y Y Y U D 5 5 3 3 5 5 3 t Y Q Q Y Y Y Y Y Y Y Y Y Y Y R t r r r t U Y Y Y Y Y Y Y Y Y Y Y Y Y Y Y K K K K L L K Y Y Y Y Y Y Y Y Y L L L ] k.i.o.9 ",
"q.i.i.o.L L L Y Y Y Y Y Y Y Y U K K K K K K K U Q Y Y Y Y Y Y Y Y Y Y Y Y U U U e r r r U Y Y Y Y Y Y Y Y Y Y Y U U U D 3 3 3 3 3 3 3 t Y Q Q Q Y Y Y Y Y U Y Y Y Y R t r r r t U U Y Y Y Y Y Y Y Y Y Y Y Y Y Y K K K U U U K Y Y E Y Y Y Y Y K K L L ] y.i.q.r ",
"g.a.a.q.L L L L L L Y Y Y Y Y U U U U K K K U Y Q Y Y Y Y Y U Y Y Y Y Y Y U U U e r r t U R Y Y Y Y Y U U U U U U U U D 6 6 6 6 6 6 3 r U U U U U U U U U U U R R R R t r r r e U U U Y Y Y Y Y Y Y Y Y Y Y U U U U U U U U U Y Y Y Y U Y Y Y K L L L  .y.i.q.r ",
"g.i.i.7.L L K K L L L U U U K K C t t t t t t K K U Y Y Y Y U U Y Y Y Y Y Y Y U e t r t U R R Y Y Y U K t t t t t t t t r 9 r r w w 6 9 t t t t C C K K U R U R R U U e w t t t K U Y Y Y Y Y Y Y Y Y Y Y U U U c t t e e e t K K K P Y Y Y U K K K K  .i.w.i.r ",
"g.i.i.y.L K K K K K K U U U U C 9 9 9 9 9 r r t C K K L Y Y Y Y Y Y Y Y Y Y L L e w t t K U K K K U U C w w w w w w w w r r r r r r r r r w w 9 e e e K U U U U U U U e w e t t K K L Y Y Y Y Y Y Y Y Y Y Y U K e e 9 9 6 3 9 t K L L U K K U K K K K  .w.w.i.r ",
"g.i.i.y.L K U U U U U U U K C C 9 9 9 r r r t D U U U L Y Y Y Y Y Y Y Y Y L L K t t t t C K K K K K U U e 9 r r r r w w w w w w 9 r r r r w w w w w e C K U U U U U K t e w t t K K Y Y Y Y Y Y Y Y U U Y U U K t t r 9 6 6 6 t U U K U K K K K K K K o.w.w.l.r ",
"g.a.a.y.L K C C C K C C C C C t r r 6 5 6 6 r D D D K K K U U U U U U U K K K K t t r t D K K K K K U C t r r r r r r r r r r r r r r r r r r r r r r t C C C C U K C t 9 9 r r C K K U U U U U U U U U K K t t t t r 5 5 5 6 r K K K K K K K K U U K  .q.w.l.w ",
"g.a.a.y.K t t t t t t t r r r r 6 5 5 5 5 5 5 r t t t t t t t t r r r w w 9 w 9 r 6 5 6 6 9 9 w w 9 r 6 6 5 5 5 5 5 5 6 6 6 6 6 6 6 5 6 6 5 5 5 5 5 5 6 r r r r r r r 6 6 5 6 6 9 9 9 9 w w 9 w r r r t t r r r r 5 6 5 5 5 5 6 t t t t t t t t t t t [ i.i.y.w ",
"g.a.i.o.e t 9 9 9 9 9 9 9 9 6 6 5 3 2 2 2 2 3 6 r r w r r r r r 6 6 6 5 5 3 3 3 2 2 4 2 5 5 5 6 6 5 5 2 5 5 5 5 5 5 5 5 5 5 5 5 5 5 5 5 5 5 5 5 5 5 5 2 2 2 5 5 5 5 5 5 5 4 5 5 3 3 6 6 6 6 6 6 r r r r r r 6 6 5 5 5 5 5 5 5 6 r t w 9 r t t t t t e / y.x.q.9 ",
"q.7.7. .e r r r r r r r r r r 5 5 5 2 2 2 2 5 5 r r r r t t r 6 5 5 5 3 5 2 2 2 2 2 2 5 5 5 5 5 5 5 5 5 5 5 5 5 5 5 5 5 5 5 5 5 5 5 5 5 5 5 5 5 5 5 5 4 2 4 4 2 4 4 4 4 4 4 4 5 5 3 5 5 5 5 5 5 6 r r r r 6 6 5 5 2 5 5 5 5 5 6 r t r r r r r r 9 r 9 ) k.y.o.9 ",
"_ o.o. .t r 8 8 r r r r r 5 5 5 5 5 5 5 5 5 5 6 r r r r r r r 5 5 5 2 2 2 2 2 2 2 2 2 2 5 5 5 5 5 5 2 2 3 2 2 3 2 2 2 2 2 2 2 2 2 2 2 2 2 2 2 2 2 2 2 2 2 2 2 2 2 2 2 2 2 2 2 2 2 5 5 5 5 2 2 2 5 8 8 r 8 6 6 5 5 5 2 2 2 3 3 5 r r r r r r r r 6 r w Q ) / ] 9 ",
"Y P P Y 3 2 2 2 2 2 2 : * * * * * + + + + + * : 2 * * * * * * * + + + + # # # # # # + + # # # : * * * * * : : : : : : : : : : : : : : : : : : : : : : : : : : : : : : : : : : : : : : : * * * * : : * * * + * * + * * * * * * * 2 : * * * * * : 2 3 * t K L E 3 ",
"n K K U * + + + + + + + + + + + + + + + + + + + + + + + + + + + + + + + + + + + + + + + + + + + + + + + + + + + + + + + + + + + + + + + + + + + + + + + + + + + + + + + + + + + + + + + + + + + + + + + + + + + + + + + + + + + + + + + * * * + + + * C K L K 3 ",
"n R U D * + + + + + + + + + + + + + + + + + + + + + + + + + + + + + + + + + + + + + + + + + + + + + + + + + + + + + + + + + + + + + + + + + + + + + + + + + + + + + + + + + + + + + + + + + + + @ # # # # + + + + * * + + + + + # # # # + + : # + + : D U L U 2 ",
"U R U D - + + + + + + + + + + + + + + + + + + + + + + + + + + + + + + + + + + + + + + + + @ + + + + + + + + + + + + + + + + + + + + + + + + + + + + + + + + + + + + + + + + + + + + + + + + + + @ # # # # + + + : : : : + + + # # # # # # # # # # # : D U Y Y 2 ",
"Y E Q R 3 5 2 2 2 2 2 2 2 2 2 2 + + + : 5 2 2 2 2 2 2 2 4 4 4 2 2 2 2 2 2 2 2 2 2 2 2 2 + + + # 2 2 2 2 2 2 3 3 3 3 3 2 + + + + + + + : 2 2 2 2 2 2 2 2 2 2 3 : + + + 2 2 5 3 3 2 2 2 2 2 2 2 2 2 2 2 2 2 2 2 2 2 2 2 : + + # # # 2 2 2 2 2 : : : : 2 D Q E E 3 ",
"Y / / Q 9 5 5 6 3 3 2 2 5 5 5 2 + + + : 6 3 5 5 3 3 3 2 5 5 5 2 2 2 2 2 5 5 5 5 5 5 5 2 + + + : 5 5 5 5 5 3 3 3 5 5 5 2 + + + + + + + : 2 5 5 5 5 5 5 5 5 5 5 : # + + 2 3 6 6 5 5 5 5 5 3 3 5 5 5 3 2 2 2 5 5 3 3 2 2 : + + # # : 2 2 2 2 2 2 2 2 2 3 U Q / / 3 ",
"Y / / E 9 6 5 6 6 3 5 3 5 5 5 2 + + + : 6 3 5 5 3 3 3 3 5 5 5 5 5 5 5 5 3 3 3 5 5 5 5 2 + + + * 3 5 5 5 5 3 3 3 5 5 5 2 + + + + + + + : 2 4 5 5 5 6 6 6 6 6 5 : # + + 2 3 5 6 5 5 5 5 5 2 2 2 4 2 2 5 5 5 5 5 5 3 3 2 2 + + # # 2 2 2 2 2 2 2 2 3 3 3 U / ( / 3 ",
"! ' / / 9 6 6 3 3 5 5 5 5 5 5 2 + + + * 6 6 6 6 6 6 6 6 5 5 5 5 5 5 5 6 6 6 6 6 5 5 5 2 + + + * 6 6 5 5 3 3 3 3 3 5 5 2 + + + + + + + : 2 2 5 5 6 6 6 6 6 6 6 : # + + 2 5 5 5 5 5 5 5 5 2 2 2 5 5 5 5 6 6 6 6 6 6 6 5 2 + + # : 2 5 5 5 5 5 5 5 6 6 3 Y / ( ( 9 ",
"_ ] ] [ e r r w w r 5 5 2 2 2 2 + + + : 5 6 6 r r r r r r 6 6 6 5 5 5 6 6 r 6 6 6 5 5 2 + + + * r r r r r r 6 5 5 5 3 2 + + + + + + + : 2 2 5 5 6 r r r r r 6 2 # @ @ 2 3 2 3 3 r r r 5 5 5 2 5 5 r r r r r r r r r 6 5 + + + : 2 3 5 5 5 6 6 5 9 9 w [ q.9.w.t ",
"_ o.o.o.e r r w r r 6 6 5 2 5 2 + + + 3 r r r r r r r r r r r 6 6 6 3 6 9 r r r 6 5 5 2 + + + * t r r r r r r 6 6 5 5 2 + + + + + + + : 2 2 5 5 r r r r r r r 2 # @ @ 2 2 2 2 3 r r r 6 6 5 3 5 5 r r r r r r r r r r 5 + + + 2 2 5 5 6 r r r r r r t [ l.9.i.t ",
"g.i.w.] e w w w r r 6 8 5 5 5 2 + + + 2 r r t t 9 r r r r r r 6 6 5 6 6 9 r r r 6 5 2 2 # # # : r r r r r r r r 6 6 5 2 + + + + + + + 2 5 2 5 6 r r r r r r r 2 # + + 3 3 5 5 5 r r r 6 5 5 3 5 5 r r r r r r r r r r 5 + + + 2 5 5 5 r r r r e e e e [ q.9.w.e ",
"g.i.r.o.e w t t r r r r 5 3 3 2 + + + 2 r r r r 9 w 9 r r t r 6 3 3 5 9 r r 9 9 6 3 2 2 # @ + : r r r r r r t r 6 3 3 2 + + + + + + # 2 5 5 5 r r t t t t t r : + o + 2 3 3 3 3 r r r 5 5 6 6 6 r r r r r w w w r r r 5 * + + 2 5 5 6 9 w w e w w w e ] i.9.q.r ",
"g.i.r.q.x t t t r r r r 6 6 6 3 + + + 2 r r t t t t t t t r r 6 6 6 6 9 9 9 9 9 6 6 5 5 # # # : r r r r r r t r 6 6 5 3 + + + + + + # 2 5 5 6 r r t w w w w r 2 : : : 6 6 6 6 6 r r r 9 9 9 6 r r r r r t t t t r r r 5 * + + 2 5 6 r r w w e e t t t ] i.9.y.r ",
"g.a.r.q.K K K C t r r r r r r 5 + + * 2 r r t C U K K D t r r r r r w w 9 9 9 9 9 r r 6 3 2 2 3 r r r r r r r r r r r 5 + + + + + + # 2 5 5 6 r r t w w t t t 6 5 5 5 r r r r r r r r r 9 9 9 r r t r t C C C t t r r 5 * + + 2 5 6 r r w e t t K K K ] q.9.l.r ",
"3.9.9.o.L K U K t r r r r r r 6 + + + 2 r r 9 t K K K C r r r r w w w w t t t t t r r r 5 5 5 6 r r r r r r r r r r 6 5 + + + + + + # 2 5 6 6 r t w w w w w t 9 6 5 6 r r r r r r r r r r r r r r t w t K K C C t r r 6 * + + 2 5 r r r e e t t K K K ] i.a.i.9 ",
"_ 7.7.o.L K K K t r w e e e e 9 + + + 2 r r w t K K K C r r r r t w w w t t r t t r r r 5 5 5 6 r e r r t t r r r r 6 5 + : : : : : # 2 5 6 6 r t e w e e e e w 6 6 6 r r r 8 r t t t r r r w w r t w t K K K C t r r 6 * + + 2 6 r r r t t t C K U K ] q.7.o.6 ",
"! ( ( ] L K K K C t t t t t t r * : : 3 t t t C K K K C t t t t t t w w t t t t 9 r r r r w w e t c t t t t t r 6 5 5 5 # : : : : : # 2 2 5 5 r C t t C C K x t r r w 9 6 6 6 6 t t t t t r r w t t t C K K K K t t t 9 : + : 5 r t t t t t K K K U K / / I / 3 ",
"Y Y Y U K K K K K K K K K K K C 3 3 5 r U K K K K K K K K K K C w t t w K K U C - 2 2 3 Y E / / / Q Q Q K C t r * * : : 2 2 2 2 2 2 : 2 2 2 * r K K K E E / / Q Q Q U 6 - 2 2 * C C C U t t r t U K K K K K K K K K U t 5 2 2 t U U K K K K K K K K L L E L E 3 ",
"n U U U R K K K K K K K K K K C 3 3 5 r U K K K K K K K K K K C e t t e K K U C - + * * Y / / / / / Q Y U K C t * * + : 5 2 2 2 2 2 2 : : * * 9 K K L P E / / / Q Q Q 3 o o + * C C C U t r r t K K K K K K K K K K K t 5 2 2 t K U K K K K K K K U K L Y Y Y 3 ",
"v G D U U K K U K K K K K K K C 3 5 5 r U K K K K K K K K K K C e t t e K K U C * + + * Y / / / / / Q Q U U U t * * + : 5 5 2 2 2 2 2 2 + * * 9 D K R Y E / / / / / Q 3 O o + 2 D K K U e w t t K K K K K K K K K K K t 5 2 2 t K U K K K K K K K U U K U R R 2 ",
"z J W R R K K K U K K K K K K C 5 5 5 r U K K K K K K K K K K K C C C C K K C D * + + * Y / / / E Q Q R K t t t * * o + 5 5 5 2 2 5 5 : + * * 9 C C K K Y E / / / / Q 3 O + + * U U U K C t C C K K K K K K K K K K K C 6 2 2 r K U K K K K K K K U U G J J W 5 ",
"@.%.=.Q U U K U U K K K K K K C 5 5 5 r U K K K K K K K K K K U U U D U K K U D * o o * Y / / E Y Y U C w w w 9 . o o # 5 2 2 2 2 5 5 : + + o 6 t w t C K K P / / Q Q 3 O + o * U U U K K U K K K K K K K K K K K K K C 6 2 2 r K U K K K K K K K Y U W $.&.:.8 ",
"@.%.=.W Y Y L Y U K K K K K K C 5 5 5 r U K K K K K K K K K K K K U U U U U U U * o o * Y / / E Y U U C t w r r o o + : 2 2 2 2 2 5 5 : + o . 3 t t t C K K K P Q Q Q 3 + o o * U U K K K R U K K K K K K K K K K K K C 6 2 2 t K K K K K K K K K U R J %.%.$.8 ",
"N $.$.W Q Y Y Y Y Y L L L K K C 3 2 3 r K K K K K Y Y U K K K K K K K U K K U U = * + * R E Q Y Y Y R K e w r 3 * * + : 2 2 2 2 2 2 2 : + + o * w e e K K K K L Y Y R 3 o * * = R Y Y K K K K K K K K K K K K K K K K t 6 2 3 t U K K L K K K Y Y Y R G J J J 5 ",
"z F F G R Y Y Y Y Y U U U U U t 3 2 3 r K K K K K Y Y Y K K K K K K K K K L Y K 9 9 5 2 C t r t t t t 9 3 3 3 3 * : : 2 2 2 2 2 2 2 2 2 : * * * 3 3 3 9 t t t w t t t 2 5 r 3 ; R P P K K K K K K K K K U R U U K K K t 6 2 3 t K U K L L L L Y Y U R G F Z A 5 ",
"< y p j U Y Y Y Y Y Y Y Y Y Y c 3 2 3 r K K K K K Y Y Y K K K K K K K K K Y Y Y t w r 6 * + O X X X       . . * 5 3 2 2 2 5 5 2 2 2 2 5 5 5 3 : + + + + X X X . + o o 6 6 9 t C U Y P K K K K K K K K K R Y Y R K K K t 6 2 3 t K Y Y Y L L Y Y Y U R S p & p 4 ",
"i y y F U Y Y Y Y Y Y Y Y Y Y c 3 2 3 t U K K K Y K K Y K K K K K K K K K Y Y Y t e r r # O O + O X   X   o . 3 9 6 5 5 5 5 5 5 2 2 2 5 5 6 6 3 + O O O X X X X O O + 5 r t w e U Y P K U U U U U K K K R Y Y R U U U t 6 2 5 t Y Y Y Y E E Y Y Y Y U S p 7 7 4 ",
"d y 7 G R Y E Y Y Y Y Y Y Y Y c 3 2 3 t U K K K Y Y Y K K K K K K K K L K Y Y Y t e w 9 + + + O + X   X + o o 3 6 3 5 2 5 5 5 5 2 2 2 3 3 9 6 3 o + + + + + + O O O + 6 r 9 w w R Y P K U U U U U K K U R R R U U U U t 6 2 5 t Y Y Y Y E E E Y Y Y U t 8 8 8 5 ",
"v k D R U Y E Y Y Y Y Y Y Y Y U 3 2 3 t U K Y Y Q E Y Y U K K K K K K L K L Y Y K t t t o + * o 5 3 3 3 6 9 3 9 r r 6 5 5 5 5 2 2 2 5 5 r r 9 r 6 3 3 3 3 3 3 2 + + : r C C C C U L P K U U U U U K U Y Y Q Q Y U U U t 6 2 5 t Y Y Y Y E / E Y Y Y K K C D t 6 ",
"m Q Q Q Y Y Y E E / / E Y Y R D 3 5 3 t U E Y E / / / Y U U U U Y Y Y Y Y Y Y Y K K U U + + + * C K K K K U D D D D C t 5 5 3 2 2 3 5 r D D C D K K K K K K C 3 + + * t D U K K R Y Y U R Y Y U K U K Y / / / E Y U U t 5 5 5 t U Y Y E E / E E Y Y Y Y E E Y r ",
"! / / / / E Y E / / / E Y R R D 3 3 3 e Y E E E / / / Y K U U U Y E Y Y Y Y E Y K K K U + + + * C K K K K K K K U U K t 5 3 5 5 2 2 2 r D K K K K K K K K K C 3 + + * t U K K K Y Y Y Y Y Y Y Y K K L E / / / / Y Y U C 3 5 5 t U Y Y Y / / / E Y Y E E / / I w ",
"! / / / / E Y E / / / / Y Y R C 3 3 3 e Y E E / / / / Y K U K Y Y E E Y Y Y E Y K K K U + + + * C U K L K K K K U U K C 3 2 5 5 2 5 5 r U U K K K K K K K K C 3 + + * t U K K K Y Y Y Y Y E E L K K L P / / / / L Y U C 3 5 6 t Y Y Y E / / / E Y Y E / / / / w ",
"! / / / / E Y E / / / / E E E U 3 5 6 t Q / E / / / / E Y Y Y E E / E E E Y E Y K K K U + + + * C U L L K K K U R U Y K 5 5 5 5 5 5 5 t R U Y K K K K K K K K 3 + + * t U K K K Y Y Y Y Q / / E Y Y L E / / / / E E E C 3 3 5 t E E E / / / / E Y Y E / / / / 9 ",
"Y / / / / E Y E / / / / / / / R 3 5 6 t Q / / / / / / E Y E E / / / / Q E Y E Y K K K U + + + * D U K L K K K U Q Q E U 3 5 5 5 5 5 5 t U Y Q Y K K K K K K U 5 + + * t U K K K Y Y Y Y / / / / E Y L E / / / / / / Q K 3 3 6 K / / / / / / / E Y Y E E / / / 3 ",
"Y / / / / E Y E / / / / / / / R 3 5 6 t Q / / / / / / E Y Y E / / / / Q E Y E Y K K U U + # + - U R L L K U K U Q Q Q U 3 2 2 2 2 2 5 C Q Q / Y K K K K K K U 5 + + * t U K K K Y Y Y Y / / / / E Y L E / / / / / / / K 3 3 6 K / / / / / / / E E Q E E / / / 3 ",
"M / / / / E E / / / / / / / / Y 3 3 5 t Q / / / / / / E E E E / / / / / E E E Y L K U U + # + * U Y L L K U K Y E E Q U 3 2 2 2 2 2 5 t Q Q / Y K K K K K K U 5 + + + C U K K K Y E E E / / / / / E E / / / / / / / / K 3 3 6 K / / / / / / / E E E E / / / / ; ",
"M / / / / / / / / / / / / / / Y 3 2 3 r Q / / / / / / / / I I I / / / / / E / E P L U U + + + * U Y E E E E / / / / / U : : : : : : 2 t Q / / Q E E E E E E Y 3 # + + t U R L L Q / / / / / / / / / / / / / / / / / / K 3 3 5 K / / / / / / / / E / / / / / E ; ",
"M / ( / / / / / / / / / / / / R 3 3 3 e Q / / / / / ' / / / / / / / / / / / / / E Y U R + + + * U Q / ( / / / / / / E U o + + + + + * r Y / / / ( ] ] ] ] ] Q 6 # @ # D U Y E E / ' ' ' / / / / / / / / / / / / / / Q D 3 2 4 C / / / / / / / / / / I / / / Y 2 ",
"M / / / / / / / / / / / / / / R 3 3 3 e Q / / / / / / / / / / / / / / / / / / / E Y U R * + + * R Q / / / / / / / Q E U + + # # # # * r Y / / / ( ( ( ( / / E 6 + + + k U P P P / / / / / / / / / / / / / / / / / / Q C 3 4 5 D Q / / / / / / / / / / / / / Y 2 ",
"! / / / / / / ' ' ' ' ' / Q Q U 3 3 3 r Q / / / / / / / / / / / / / / / / / / / E U U D * : : : D Q E / / / / / Q E Q D + # # # # # # r Y E / / / / / / / Q U 5 + + : t U L L L E / / / / / / / / / / / / / / / E E Y t 5 2 5 t Q Q Q / / / / / / / / / E Y R 3 ",
"> t t 9 t t C C C C C C t t t r 3 5 2 5 r t t t t t t t t t t t t t t t t t C t w w 9 9 2 2 2 3 r e t t t t t t t t r 5 # # # # # # + 3 t t t t C C C t t t t 5 2 2 : 6 t t e e t t t t t t t t t t t t t t t t w r r r 2 2 5 9 e t t t t t t t t t e w 9 6 9 * ",
", * + + 2 2 2 2 2 2 2 5 5 6 6 5 5 5 2 2 5 3 5 2 2 2 2 2 5 5 5 5 5 5 5 3 3 3 6 6 3 3 3 3 5 5 5 5 3 ; 3 6 6 5 5 5 5 2 2 2 # # # @ # @ o : 6 6 6 5 5 2 2 2 2 2 2 2 5 5 2 5 5 5 3 3 5 3 5 3 2 2 5 5 5 5 3 3 2 2 2 3 5 6 6 5 4 2 5 6 3 2 2 3 3 3 3 5 3 3 2 - + + * + ",
"> . o + 5 2 2 2 2 2 2 2 2 5 5 5 3 3 5 2 2 3 5 5 5 2 5 5 2 3 3 3 3 3 5 5 3 3 3 3 3 3 3 3 5 5 5 5 3 6 5 3 3 5 5 5 5 5 5 2 + + + + + + + : 2 5 5 5 5 5 2 2 2 2 5 2 3 3 5 5 5 3 3 3 3 3 3 3 3 3 3 3 3 5 2 2 2 2 2 5 3 3 3 5 2 2 5 5 6 3 2 2 2 2 2 2 2 2 5 * + * o - ",
"> * * * 3 6 6 6 5 5 3 3 6 6 6 6 3 3 3 6 6 6 3 3 3 3 9 9 6 6 6 6 6 6 6 6 3 3 3 3 3 3 3 3 6 6 6 6 9 9 3 3 3 3 6 6 3 3 3 3 * + + + + + * * 3 9 9 9 9 3 6 3 6 6 6 3 3 3 3 9 9 9 3 3 9 9 3 3 3 3 3 3 3 3 3 3 3 3 3 3 3 3 3 3 3 3 6 6 3 3 3 3 3 3 3 3 3 3 3 * * * * - ",
"m Y Q ` Q Y R R U U U U U Y Y U K K U U U U Y Y Y Y Y Y U U U U U U U R R U U R R U U U R R R U U U U U U U R R U K K C t t t t t t t C U Y Y Y Y Y R R R R R U U U U Y Y U R R Y Y Y U U U U U U U U U U U U U U U U K U D U U K U U U U U R U U U R R U K Q 9 ",
"^ 2.k.[ ' / / / / / / / / / / / Y Y Y Q / / / / / / / / / / / / / / / / / / / / / / / / / / / / / / / / / / / / / / / E K K K K K K K Y E / / / / / / Q / / / / / / / / / / / / / / / / / / / / / / / / / / / / / / / / L Y E E / / / / / / / / / / / ' 7.i. .e ",
"_ y.l.] / / / / / / / / / / / / L E E E / / / / / / / / / / / / / / / / / / / / / / / / / / / / / / / / / / / / / / / E K K K K K K K L E / / / / / / / / / / / / / / / / / / / / / / / / / / / / / / / / / / / / / / / L E P / / / / / / / / / / / / ] t.i.o.e ",
"_ y.l.] / / / / / / / / / / / / E E E E E / / / / / / / / / / / / / / / / / / / / / / / / / / / / / / / / / / / / / / E K K K K K K K L E / / / / / / / / / / / / / / / / / / / / / / / / / / / / / / / / / / / / / / Q L Y E / / / / / / / / / / / / ] t.a.o.t ",
"_ y.i.o./ E / E E E E / / / / E K K K K U U L Y E E E E E E E E E E E E E E E Y L L Y L E E E E E E E E E E E E E E E U t t t t t t C K Y E E Q E E E E E E E E E E Y Y U L L L E L E E E E E E E E E E E E E Y Y U U U K K K L E E E E E E E E E E / ] a.a.i.e ",
"3.y.i.o./ L E Y Q Y Y E E E E Y K U U U U K K Y Y Y Y Y Y Y Y Y Y Y Y Y Y Y Y U K K K K Y Y L E Y Y Y Y Y Y Y Y Y Y Y K t t t t t r t C Y Y Y Y Y Y Y Y Y Y E E Y Y Y U U U K K Y Y L Y Y Y Y Y Y Y Y Y Y Y Y Y U U U K K K K K Y Y Y Y Y Y Y Y Y Y E ] a.e.i.e ",
"3.y.i.o.I L E Y Q Y Q E E E E Y K U U U U K K Y Y Y Y Y Y Y Y Y Y Y Y Y Y Y Y U K U U K Y Y Y Y Y Y Y Y Y Y Y Y Y Y Y K t t t t t r t C Y Y Y Y Y Y Y Y Y Y E E Y Y Y U U U U K Y Y Y Y Y Y Y Y Y Y Y Y Y Y Y Y U U U U U K K U Y Y Y Y Y Y Y Y Y Y E ] i.w.y.w ",
"_ o.o.o.I L Y Y Y Q Q Q Y Y Y Y K U U U U K K Y Y Y Y Y Y Y Y Y Y Y Y Y Y Y Y Y c K K K Y Y Y Y Y Y Y Y Y Y Y Y Y Y Y K t t t t t r t C Y Y Y Y Y Y Y Y Y Y E E Y Y Y U U U U U Y Y Y Y Y Y Y Y Y Y Y Y Y Y Y Y U U U K K K K K Y Y Y Y Y Y Y Y Y Y E ( q.q.q.9 ",
"! ( ( ( / Y Y Y Y Y Y Y Y Y Y Y K U U U U K K Y Y Y Y Y Y Y Y Y Y Y Y Y Y Y Y Y t t t t Y Y Y Y Y Y Y Y Y Y Y Y Y Y Y K w w r w t r t C Y Y Y Y Y Y Y Y Y Y E E Y Y U t t t t t U Y Y Y Y Y Y Y Y Y Y Y Y Y Y Y U U U K K K K K Y Y Y Y Y Y Y Y Y Y E / ] o.] 9 ",
"! / / / E E Y Y Y Y Y Y Y Y Y Y U U U U U K K Y Y Y Y Y Y Y Y Y Y Y Y Y Y Y Y Y e w w e U U Y Y Y Y Y Y Y Y Y Y Y Y Y K t r r w t t t K Y Y Y Y Y Y Y Y Y Y E E Y Y U e w r r e U Y Y Y Y Y Y Y Y Y Y Y Y Y Y Y U U U K K K K U Y Y Y Y Y Y Y Y Y Y E / / / ) 9 ",
"! / / E E Y Y Y Y Y Y Y Y Y Y U U U U U U U K U Y Y Y Y Y Y Y Y Y Y Y Y Y Y Y U t e e t U U Y Y Y Y Y Y Y Y Y Y Y Y Y U t t w w t w t K Y Y Y Y Y Y Y Y Y E Y Y E Y Q t r r r t U Y Y Y Y Y Y Y Y Y Y Y Y Y Y U U U U K U U U R Y Y Y Y Y Y Y Y Y Y Y Q / ! / 9 ",
"Y E Q Y Y Y Y Y Y Y Y Y Y Y U U U U U U U U K K Y Y Y Y Y Y Y Y Y Y Y Y Y Y U U t r e e U U Y Y Y Y Y Y K U U U U U U U t t w w w w e C U Y Y Y Y Y Y Y Y Y Y Y Y Q R t w t t t U U Y Y Y Y Y Y Y Y Y Y Y Y R K K K K K K C U R Y Y Y Y Y Y Y P P Y Y Y E ! E 9 ",
"m Y Y Y U Y Y Y Y U U U U U U K 9 9 9 w w e t K K K K U U U U U U U Y Y U Y U U e r r e U U U U U U U K t e r r r r r t t t t t t t t t t t e t t C C K K U U U U U U t 9 r t t U U U Y Y Y Y Y Y Y U U R U K C t t t e r r t C U K K U U K K Y Y Y Y Y Y Y Y 9 ",
"m L U U U Y Y Y Y U K U K K K t w 9 9 9 w w e c K K K K K U U U U U U U U U U U r r r t U U U U U U U c e w r r r r r r t t w t t w w t w w w e w t t C C K K K K K U r 6 9 9 w U U U U U Y Y Y Y U U U U U C C t e w 9 6 6 6 t K K K K K K K K K K Y Y U Y Y 9 ",
"m Y U Y Y Y Y Y Y U U U U U U t 3 9 9 9 9 9 r t U U U U U U R R R R U U U U U R t r t t C D U U U U U C e r r r r r r r t t t t t t 9 9 9 9 9 9 r w t C U U K K K K U t 9 r 9 w U U K U U Y Y Y Y R R U U U D C t t r 9 3 5 6 t K K K K K K Y Y Y Y Y Y Y Y Y 0 ",
"m U U U U U U U K K K K C C t r 9 9 6 9 r 9 9 t D U U U U R R R U U U D D D C D r r r t t C D D D D D t r r r r r r r r r r r r r r 6 6 r r r r r r r C D D D C K C D t r r r t t t K K K K K K U U U U D D D C t t r 6 5 5 6 t C K U K K K U K U U K K K K K 9 ",
"q e e e 9 e e e e t e e t r r 9 9 3 3 6 6 6 6 r t r r r r t t r r 9 9 6 6 6 3 6 2 5 5 5 5 6 6 6 6 6 6 6 6 6 5 5 5 5 6 6 6 9 6 6 6 6 5 5 5 5 5 5 5 5 6 6 6 9 9 9 9 3 6 3 6 6 6 6 9 9 9 9 9 9 w w r r r r t t r r 6 6 5 5 5 2 5 r C t t t t t t t t t t e 9 9 e * ",
"q 9 9 9 r r r r r r r r r r r 9 6 6 3 6 6 6 5 9 r r r r r r r 9 6 6 6 3 3 3 3 3 2 2 2 3 3 5 3 5 5 5 5 5 5 5 5 5 5 5 5 5 3 3 5 3 5 5 5 5 5 5 5 5 5 5 5 5 5 5 6 6 6 5 5 5 5 5 5 5 3 6 6 6 3 3 3 9 r r r r r r 6 6 5 5 5 5 5 2 3 6 r r r r r r r r r r r 9 6 6 5 : ",
"0 9 9 w r r r r r r r r r r r 6 6 3 3 6 6 5 5 5 r r r r r r r 6 6 6 3 3 2 2 2 2 2 2 2 2 2 2 2 5 5 5 2 2 2 5 5 5 5 5 5 5 3 3 3 3 5 5 5 2 3 2 2 2 2 2 2 3 2 2 5 5 3 2 3 3 3 3 2 2 3 3 3 5 3 3 3 6 r r r r r r 6 6 5 5 5 5 5 5 5 5 6 r r r r r r r r r r 6 5 5 2 : ",
"0 5 5 5 6 5 6 r 6 8 r r r 6 6 5 3 2 2 5 5 3 3 5 6 r r r r r 6 6 5 5 2 2 : : : 2 2 2 2 2 2 2 2 2 5 5 2 2 2 2 5 5 5 5 5 5 2 2 2 3 2 2 2 2 2 2 2 2 2 2 2 2 2 2 2 2 2 2 2 2 2 2 2 2 2 2 2 2 3 2 : 5 6 r 6 6 r 6 6 6 5 5 2 5 5 2 2 5 6 6 6 6 r r r r r 6 6 5 5 4 5 2 ",
"T J j S : 2 : + + + + + + + + + : : : + + : * + + + * * * * * * + * : : : : : : : : : : : : : + + + : : : + + + + + + + + + + + + + : : # : : : : : : # # : # : : : : : : : # # : : : : * : : + + + * * + + + + + + 2 + + 2 : + + + + + + + + # # : 2 S S a J 4 ",
"@.$.@.G : + + + + + + + + + + + # # # + + + + + + + + + + + + + + + + + + + + + + + + + + + + + + + + + + + + + + + + + + + + + + + # # # # # # + + # # # # + + # # # # # # # # # # # + + # # + + + + + + + + + + + + + + + + + + + + + + + + + + + # S $.%.J # ",
"@.#.#.F # @ + + + + + + + + + + # # + + + + + + + + + + + + + + + + + + + + + + + + + + + + + + + + + + + + + + + + + + + + + + + + + + + @ + + + + + + + + + + + + + + + + + + + + + + + + + + + + + + + + + + + + + + + # # + + + + + + + + @ @ # # F $.%.$.$ ",
"*.%.%.F : # + + + + + + + + + + @ @ + + + + + + + + + + + + + + + + + + + + + + + + + + + + + + + + + + + + + + + + + + + + + + + + + + + + + # + + + + + + + + + + + + + + + + + + + + + + + + + + + + + + + + + + + + # # # + + + + + + + # # # # # F %.#.H 4 ",
"l s s S 4 4 2 2 2 2 2 2 2 : : # # # + + 2 : : : : : : : # : # : : : : : : : : : : : : : + + + + * : : : : 2 2 2 2 2 2 2 : : : : : : : : 2 2 2 2 2 2 2 2 : : # + + + + : : # # # : : : : : : : : : : : : : * : 2 - 2 2 + + + + # $ 2 2 2 : : 2 2 2 2 2 Z s p A $ ",
"u y y a r r r r 8 8 8 8 6 6 5 4 # # + : 6 6 5 5 5 5 5 5 5 6 6 6 r r r 6 6 6 5 5 5 5 5 2 * + + : 2 2 3 5 5 6 6 r r r r 6 5 5 5 5 5 5 5 5 5 6 6 6 6 6 5 5 5 5 2 * + + * 2 5 5 5 5 5 6 8 8 r 8 8 r r r r 5 6 5 6 6 6 6 6 4 + + + 2 5 6 6 6 r r r r 9 9 5 a p p p % ",
"l y y 8 r r r r r r r r r r 6 5 + + * 2 r r r 6 6 6 r r r r r r t r r r r r r r 5 5 5 2 * + + * 3 5 5 6 6 6 r r t r r r 5 5 5 5 5 5 6 6 6 r r r r 6 6 5 5 5 2 : + + * 2 5 5 5 6 6 r r r r r r r r r r r 6 6 6 9 r r r 6 + + + 4 6 r t t r w e r e r r a 4 p % $ ",
"f 8 8 r r r r r r r t t r r 6 5 o + + : r 9 9 6 3 3 9 9 r r r r w w w r r r r r 3 3 3 : * * + * 3 6 6 9 r r r r r r r 5 5 5 5 3 5 5 6 r r r r r r r r 6 5 5 5 : + o + : 3 3 5 6 6 r r r r r r 9 9 9 9 9 6 3 9 9 9 r r 6 + + + 2 6 t t t w e w w w w 5 8 7 7 7 2 ",
"n t c C D D t t r r r r r r 6 6 : 2 : 6 t t t r 9 9 9 r r r r t t t t t t t t t 9 6 6 3 : * * 2 5 r 9 r r r r t t t t t 6 3 5 3 5 5 3 r r t t t t r r r r r 5 2 * * : 3 6 6 5 r r t t t t t t r r r r r 9 9 w w t t t r * * * 5 r t w w w r r t t t t G S r S 2 ",
"_ _ 1.) Y U U C t t t t t 9 9 6 5 5 6 r D D D C r 9 9 r r r t C C K K K U K U U r r r 6 5 3 3 6 r r r r r r e t C C D t 3 3 5 5 5 5 6 r t U U C t r r r r r r 6 2 2 5 6 r r r t t C C C C C C C t t t t t t t t t C D t 3 2 2 5 t t w t w r t t C U U [ ,.[ [ r ",
"_ q.j._ L L K C t t t t t 9 9 6 6 5 6 t U U C t r 9 9 r r r t C K K K K K K U K e w r w 6 5 3 6 r r r r e e e t U U U t 3 3 2 2 2 3 5 r C K K t t r r r r r r w 3 2 5 6 r r e t t K K K K K U C t t t t t r t t K K U t 3 5 2 5 r e e t r e t t C U K / i.a.7.e ",
"_ q.j._ L L Y K t t t t t w 9 9 6 6 6 t U U K C t w t t t t C K K K K K K K K K e e e r 6 5 3 6 r e r r e e e t U U U t 3 3 2 2 2 3 5 r U U K t r r r r t t t 9 5 2 5 r e t t t K K U K K K K C t t t t t t t C K U U t 5 5 5 6 r t t t t t t C K U L / a.a.9.w ",
"3.q.j.o.L L Y K C C C C C t t t 6 6 6 r U U U K t t t C K K K K K K K K K K K K t t t r 6 6 6 6 t t t t C C t K U U U t 3 3 3 3 2 3 5 t U K K K C C t t t t t r 5 2 5 r t t C K K K K K K K K K K K K C C C C K K K U t 3 5 3 9 t C C t t t K K K U L ( 9.a.9.9 ",
"3.q.w.o.L L Y U K U U U U K U C 3 3 3 r U U U K K K K Q Q Q E Y U U U U K K Y U U K t D 6 6 6 6 C U U U U U U U U U U D 3 3 3 3 2 5 5 t U U Y U U U U U K K K r 5 2 5 r C K K K K K U U U K K L E Q ' E K K K L L K U t 3 3 3 t K K K K K K K U U U Y ( 9.a.9.9 ",
"f.w.q.o.L E Q R U K U U K K U C 3 3 3 r U R Q U K K K E / / / E Y R R R Y Y Y U U U C C 6 6 6 9 U U Y Y Y Y Y Q Y R R D 3 3 3 3 2 5 5 t U Y Y Q Y Y Y K K K U w 6 3 6 t K K L L L Y Y U U Y L P / / / Q K K K L L K U t 3 3 3 e K L L U U U U U U U Y / 9.e.9.9 ",
";.w.q._ E Y Q Y U U U U K U U C 3 3 3 e U R Q U K L L E / / / E P Y R R Y Y Y U U U D D 6 6 6 9 U U Y Y Y Y Y Q Y Q U D 3 5 3 3 2 5 5 t U Y Y Q Y Y U K K K K w 6 3 6 t U K L Y Y Y Y Y Y Y L P / Q Q E U K K L L Y U t 3 3 3 t U U L Y K K K U U U Y / o.7.o.9 ",
"M ! ! Q Y Q Q Y Y Y Y Y Y U U C 3 3 3 e U Q Y Y Y E Q Q Q Q Q E E Y Y Y Q Q Y Y Y U U D 6 6 6 9 U Y E Y U Q Q Y Y Y Q U 3 5 5 3 5 5 5 t U Q Q Y Y Y Y Y U U U 9 3 3 6 t Y K Y Y Y Q Q Q Q Y P Y Q Q Q Q Y Y P E E Y R t 3 3 3 t U U U L Y Y Y Y Y Y Y Y U Y E 3 ",
"b m Y Y Y E E E E E E E Y Y Y K 3 3 9 e Y Y E E E E / / / / / / E / E E Q Q E E E Y U U 9 9 6 9 Y E E E Y Y E E E E E U 3 5 5 3 5 5 6 t Y E Q Q E E E / / / Q e 9 3 9 K Q L Y E E E E E E E P P / / / / / / / / E E Y t 3 3 3 e U Y E / / / / E L E Y Y U Y Q 3 ",
"b Y Y Y E E E E E E E E E Y L K 3 3 9 e Y Y E E E / / / / / / / E / / E / / E E E Y Y U 9 9 9 9 Y E / E Y Y Y E E E Q U 3 5 5 5 3 3 6 t Y / / Q E L E E E E Y w 3 3 6 t Y Y E E E / / E E E P E / / / / / / / E E Y R t 3 3 3 t U Y E E / / / E L L E Y U Y Q 3 ",
"n U Y Y Y Y Y Q Q Q Q Q Y Y Y U 6 6 9 e U K K Y Q [ [ [ [ [ ' E Y Y Y Y Q Q Q Y Y Y U U 9 6 6 9 Y / ) Q Q U R Q Q Q Q R 6 6 6 5 5 5 6 C Q Q Q Q Y Y Y E Q Q Q w 6 3 6 t U Y Y Y / / Q Q Q Q Q Q / / / / / / E Y Y R U t 5 5 5 r C K Y Q Q Q Q E E E Y K U Y Y 3 ",
"n U U c t t C C C C t t t t t r 2 2 2 6 t t e t U U U U U U U K K K C C C C C t t t t t : : : 3 t K K t r r r t t V S r 2 2 2 2 2 2 2 6 t t t t t e t t t C C 6 2 : 2 r t t t C C C D D D D U U U U U U U K K C C C V 6 2 2 2 6 t t t D U U U C C C K K U U K 3 ",
"n U U r r 9 9 6 6 6 6 6 3 3 3 2 + + + : 5 5 3 6 w t t r r r r t t r r 9 6 3 6 6 6 3 2 2 + O O + 5 3 3 * + + + : 2 2 2 2 + + + + + + # # 2 2 2 : : * * 2 3 3 6 : + o + 2 5 5 5 5 3 6 6 6 5 6 r r 9 r t r r r 9 6 6 6 5 2 + # + 2 5 2 5 r r r r 6 6 6 9 e t K C 6 ",
"n c c 9 3 9 6 9 r r r 6 6 5 5 2 : + : 2 2 5 3 6 r t t t r r r r t t t 9 9 6 9 9 6 4 4 2 # # # # 5 2 5 2 2 + * 2 5 5 5 2 + + + + + + # 2 2 2 2 2 : : : 2 5 5 5 + + + + : 2 2 2 2 5 5 6 6 6 r r t t t t t t t t r 6 5 5 2 # + + : 2 5 5 5 6 r r 6 3 3 3 9 k R t 5 ",
"k k k 5 5 5 5 5 5 7 7 5 4 4 4 2 # # # # 2 4 4 5 8 8 8 8 8 8 8 8 8 8 8 8 5 5 5 5 4 4 4 % @ @ @ @ 4 $ 4 $ # + # $ 2 4 $ $ @ @ @ @ @ @ @ # # # # # # @ @ $ 4 4 4 # # # # $ 4 4 4 4 4 4 4 4 5 8 8 8 8 8 8 8 8 6 6 5 7 4 4 $ # @ # $ 4 7 4 8 8 8 5 4 4 4 2 5 a j 8 5 "
};
