/* XPM */
static char *_fba4103ec3f4791bb567dfb1047c1cbM7QyeQLfP44ozayR[] = {
/* columns rows colors chars-per-pixel */
"16 16 10 1 ",
"  c #7D4123",
". c #884728",
"X c #8B4928",
"o c #8F4C2A",
"O c #99502B",
"+ c #975331",
"@ c #A05630",
"# c #AD5D32",
"$ c #BA6337",
"% c #C26D3F",
/* pixels */
"$#X%%%%%$%%%%%$O",
"$$X#O@#$$$##$$@@",
"#$ $#$#@@@@##$$O",
"+  ++X  XX.X..X.",
"$%@%%%%X%%%$##@$",
"#$$#@#@X@##$$$$#",
"@@#$### $$$##@@@",
"  XX+X    XXX+  ",
"$%%$##%%%$%%%X$@",
"$#$$$$#@@@#@#X@O",
"%$##@@@@####@ $@",
"  X+XX   X+XX   ",
"%$$%%$$X%%%#%$%%",
"##$$@@#X@$$$$###",
"#@@#$#@ $$#@@@@@",
" XX .X  XX o    "
};
