/* XPM */
static char *c268f60d67a149b9ee236aeecd926735Sn70aaqrOnCnI7Tl[] = {
/* columns rows colors chars-per-pixel */
"64 64 140 2 ",
"   c None",
".  c #020003",
"X  c #0A0004",
"o  c #03010B",
"O  c #0C0009",
"+  c #120103",
"@  c #1C0102",
"#  c #1A0009",
"$  c #030211",
"%  c #0A0011",
"&  c #000918",
"*  c #1D001B",
"=  c #240301",
"-  c #2C0300",
";  c #250F00",
":  c #2F0C00",
">  c #330400",
",  c #310900",
"<  c #390A00",
"1  c #3B1300",
"2  c #520E00",
"3  c #5A0D00",
"4  c #471400",
"5  c #4B1300",
"6  c #4D1B00",
"7  c #541B00",
"8  c #581900",
"9  c #621C00",
"0  c #6C1C00",
"q  c #642400",
"w  c #712400",
"e  c #7A2400",
"r  c #742E00",
"t  c #842700",
"y  c #8E2600",
"u  c #842B00",
"i  c #8C2D00",
"p  c #922700",
"a  c #922C00",
"s  c #9B2D00",
"d  c #843400",
"f  c #8C3300",
"g  c #953100",
"h  c #9D3200",
"j  c #A02800",
"k  c #AA2D00",
"l  c #B62400",
"z  c #B22C00",
"x  c #A43500",
"c  c #AC3600",
"v  c #A13900",
"b  c #A93F00",
"n  c #B33500",
"m  c #BA3600",
"M  c #B33D00",
"N  c #BF3D00",
"B  c #C13D00",
"V  c #CD3800",
"C  c #D63C00",
"Z  c #AC4000",
"A  c #B44200",
"S  c #BE4300",
"D  c #BB4A00",
"F  c #C34300",
"G  c #CE4500",
"H  c #D14300",
"J  c #DA4000",
"K  c #D44800",
"L  c #DA4800",
"P  c #DB5000",
"I  c #E54D00",
"U  c #EC4C00",
"Y  c #F54D00",
"T  c #FC4E00",
"R  c #E45100",
"E  c #EB5400",
"W  c #EF5800",
"Q  c #F45400",
"!  c #FC5500",
"~  c #F55B00",
"^  c #FE5900",
"/  c #E26100",
"(  c #ED6700",
")  c #E76B00",
"_  c #F66300",
"`  c #F76100",
"'  c #F76400",
"]  c #F56600",
"[  c #F56700",
"{  c #F46300",
"}  c #F96200",
"|  c #F96300",
" . c #FA6200",
".. c #F96400",
"X. c #F16B00",
"o. c #F36D00",
"O. c #FA6E00",
"+. c #EA7000",
"@. c #EF7500",
"#. c #EC7200",
"$. c #ED7800",
"%. c #EE7D00",
"&. c #F67600",
"*. c #F27100",
"=. c #F37F00",
"-. c #F47C00",
";. c #E78100",
":. c #EF8500",
">. c #EB8500",
",. c #EF8F00",
"<. c #F78400",
"1. c #F38900",
"2. c #F38B00",
"3. c #F59400",
"4. c #F39C00",
"5. c #F8A400",
"6. c #FCA200",
"7. c #FBAC00",
"8. c #FCB700",
"9. c #FBB500",
"0. c #F3B800",
"q. c #F9BB00",
"w. c #F9BD00",
"e. c #FCBD00",
"r. c #FEBF00",
"t. c #FEBD00",
"y. c #F9C100",
"u. c #FCC200",
"i. c #FEC200",
"p. c #FBC500",
"a. c #FCC400",
"s. c #F4CF00",
"d. c #F7CE00",
"f. c #F8C800",
"g. c #FBCA00",
"h. c #FBCB00",
"j. c #FBCE00",
"k. c #FDCB00",
"l. c #F4D100",
"z. c #F8D100",
/* pixels */
"                                                                                                                                ",
"                                                                                                                                ",
"                                                                                                                                ",
"                                                                                                                                ",
"                                                                                                                                ",
"                                                                                                                                ",
"                                                                                                                                ",
"                                                                                                                                ",
"                                                                                                                                ",
"                                                                                                                                ",
"                                                                                                                                ",
"                                                                                                                                ",
"                                                                                                                                ",
"                                                                                                                                ",
"                                                                                                                                ",
"                                                                                                                                ",
"                                                                                                                                ",
"                                                                                                                                ",
"                                                                                                                                ",
"                                                                                                                                ",
"                                                                                                                                ",
"                                                  1 f x e                                                                       ",
"                                                  < M Q P w 7                                                                   ",
"                                                    # z Q Q R 0                                                                 ",
"                                                      q ~ ! ^ L .                                                               ",
"                                                      q Q ! ! R .                                                               ",
"                                                      w Q ^ ! R o                                                               ",
"                                                  # w I Y ^ ^ I O ;                                                             ",
"                                                  r Y ! ^ ! ! K X D 1                                                           ",
"                                                9 I ~ ! ^ ^ C + . l I 6                                                         ",
"                                              y Y ^ T ^ ! B +     . H 4                                                         ",
"                                              s W ^ ^ ~ ^ G X       @ X                                                         ",
"                                            0 I ! ^ ! Q ~ V +                                                                   ",
"                                            i ! ! ! ! &.5./ n O         $                                                       ",
"                                          o i ^ ! ! ! ~ [ Y R @     . k J                                                       ",
"                                          $ f ^ ! ^ ! ^ ^ ! ~ h . o h R d                                                       ",
"                                          . f ^ ^ ^ ^ ^ ^ ^ ^ U X j Q ^ 6                                                       ",
"                                            e Q ^ ~ ^ ^ ^ ^ Q ~ c W ! ^ 6                                                       ",
"                                            O v ^ ~ ! ^ ^ ^ ! ` T } ! ^ 6                                                       ",
"                                              i ! ^ ! ^ ^ ^ ^ ^ ! ^ ^ ! h =                                                     ",
"                                  %           p Q ^ ^ ^ ^ ^ ^ ^ ^ ^ ^ ^ E 7                                                     ",
"                                o 3 =         2 M ^ ^ ^ ^ ^ ^ ^ ^ ^ ^ ^ ! a                                                     ",
"                                o N n =         q T ! ^ ^ ^ ! ^ ^ ^ ^ ~ ! Q x >                                                 ",
"                                o G ! w         8 T ^ ^ ^ ^ ! %.! ! ! ! ^ ^ ~ h *                                               ",
"                                o H ^ h         s { ^ ^ ^ ^ [ 8.~ } ^ ^ ^ ^ ! Q g                                               ",
"                                  H ^ Q a 4 5 a Q ^ ! ^ ^ ^ ` r.#.^ ! ^ ^ ^ ~ ^ Q i                                             ",
"                                  K ^ ! Q Q ! ~ } ! ^ ^ ^ ^ ^ 0.i.1.! ! ^ ^ ! ! ~ b =                                           ",
"                                  c U Q ^ ^ ^ ^ ^ ^ ^ ^ ^ ^ ! X.p.f.$.^ ^ ^ ^ ^ ^ ^ u                                           ",
"                                  % Z ! ^ ^ ^ ^ ^ ^ ^ ^ ^ ^ ^ [ 7.f.u.:.^ ^ ^ ^ ^ ^ a                                           ",
"                                    h Q ^ ^ ^ ^ ^ ^ ^ ^ ^ ^ ^ ! ) q.s.i.;.~ ^ ^ ^ ! Q x                                         ",
"                                    % c Q ^ ^ ^ ^ ^ ^ ^ ^ ` ! T +.w.f.j.r.=.^ ^ ^ ! ! S                                         ",
"                                      o a Q ! ^ ^ ^ ^ ! o.6.( +.9.j.k.j.f.t.O.! ! ^ ! S                                         ",
"                                        t Y ^ ^ ^ ^ ^ ! #.u.9.9.k.j.k.j.s.k.>.~ ! ^ ! S                                         ",
"                                          s Y ! ^ ^ ^ ! o.f.j.k.k.k.k.k.k.k.u.<.! ^ ! S                                         ",
"                                            s Q Q ^ ^ ! o.p.k.k.k.k.k.k.k.k.j.1.^ ^ ^ A                                         ",
"                                            @ c Q ^ ~ ! *.f.j.k.k.k.k.k.k.k.s.2.! ! ! D &                                       ",
"                                              i ~ ^ ! ! [ r.j.k.k.k.k.k.k.k.s.1.^ ^ ~ A .                                       ",
"                                              g ~ ! ^ ^ ! ,.p.k.k.k.k.k.k.k.4...! ~ v #                                         ",
"                                              u ~ ^ ~ ^ ! X.3.i.k.k.k.p.f.k.-.Q Q ~ u                                           ",
"                                              F ! ! ^ ^ ! T ! 2.p.j.k.z.l.4...! ~ z ,                                           ",
"                                              g M ~ ~ ! ~ ^ ! ` 3.4.4.4.4.O.Q Y D 5                                             ",
"                                                - i u v Q ^ ! ! ! Q ~ T T T v u :                                               ",
"                                                  o o - m B B F F F F F F N - .                                                 ",
"                                                        o o O . . . . . . .                                                     "
};
