/* XPM */
static char *_db62e8e3ae44d4899de4b6147a80a39Tv3cbbDxT1C6693N[] = {
/* columns rows colors chars-per-pixel */
"64 64 170 2 ",
"   c None",
".  c #030104",
"X  c #0B0102",
"o  c #03010A",
"O  c #0B000C",
"+  c #130101",
"@  c #1D0300",
"#  c #14000B",
"$  c #040115",
"%  c #090014",
"&  c #230300",
"*  c #2A0600",
"=  c #230B00",
"-  c #2E0A00",
";  c #330500",
":  c #380300",
">  c #340C00",
",  c #3A0D00",
"<  c #3D1100",
"1  c #430E00",
"2  c #4E0F00",
"3  c #431300",
"4  c #4C1100",
"5  c #401800",
"6  c #4B1900",
"7  c #561600",
"8  c #531D00",
"9  c #5D1C00",
"0  c #621A00",
"q  c #6A1E00",
"w  c #731600",
"e  c #781E00",
"r  c #4A2000",
"t  c #502100",
"y  c #6C2200",
"u  c #742300",
"i  c #7B2400",
"p  c #7D2A00",
"a  c #871800",
"s  c #832600",
"d  c #8D2200",
"f  c #852E00",
"g  c #8D2C00",
"h  c #9E2700",
"j  c #942F00",
"k  c #9A2B00",
"l  c #893100",
"z  c #923200",
"x  c #9A3100",
"c  c #963800",
"v  c #A12500",
"b  c #AC2E00",
"n  c #B12D00",
"m  c #A53300",
"M  c #AD3500",
"N  c #A73A00",
"B  c #AB3A00",
"V  c #B23400",
"C  c #BF3600",
"Z  c #B43A00",
"A  c #BA3C00",
"S  c #C93000",
"D  c #C43A00",
"F  c #CC3E00",
"G  c #D03300",
"H  c #D03E00",
"J  c #DF3D00",
"K  c #B44300",
"L  c #BD4300",
"P  c #C04600",
"I  c #CC4200",
"U  c #CB4A00",
"Y  c #D34400",
"T  c #DC4400",
"R  c #D44800",
"E  c #DB4C00",
"W  c #D35400",
"Q  c #E44500",
"!  c #EF4600",
"~  c #E54D00",
"^  c #EE4C00",
"/  c #F94700",
"(  c #F44D00",
")  c #FA4E00",
"_  c #E35200",
"`  c #ED5300",
"'  c #F45500",
"]  c #F95300",
"[  c #FB5300",
"{  c #F95000",
"}  c #FC5100",
"|  c #FC5300",
" . c #FE5200",
".. c #FF5200",
"X. c #F85400",
"o. c #F85700",
"O. c #FB5600",
"+. c #FB5700",
"@. c #FA5600",
"#. c #FC5400",
"$. c #FC5500",
"%. c #FE5500",
"&. c #FF5500",
"*. c #FC5600",
"=. c #FC5700",
"-. c #FF5600",
";. c #FE5700",
":. c #FF5700",
">. c #FD5500",
",. c #F35900",
"<. c #F75900",
"1. c #F65A00",
"2. c #F65F00",
"3. c #F55D00",
"4. c #F85800",
"5. c #FB5800",
"6. c #FB5900",
"7. c #FA5900",
"8. c #F85A00",
"9. c #FA5B00",
"0. c #FB5A00",
"q. c #FC5900",
"w. c #FE5800",
"e. c #FF5800",
"r. c #FE5900",
"t. c #FF5900",
"y. c #FC5A00",
"u. c #FC5B00",
"i. c #FF5A00",
"p. c #FF5B00",
"a. c #F85D00",
"s. c #FB5D00",
"d. c #FB5F00",
"f. c #FC5D00",
"g. c #FE5C00",
"h. c #FE5D00",
"j. c #FC5F00",
"k. c #FF5E00",
"l. c #FE5F00",
"z. c #FE5900",
"x. c #ED6700",
"c. c #E96800",
"v. c #F66000",
"b. c #F76200",
"n. c #F56500",
"m. c #F26300",
"M. c #FB6000",
"N. c #F96200",
"B. c #F46C00",
"V. c #F96C00",
"C. c #F67700",
"Z. c #F37C00",
"A. c #EB8E00",
"S. c #F58400",
"D. c #F38E00",
"F. c #F88E00",
"G. c #E79600",
"H. c #F29100",
"J. c #EFA300",
"K. c #F4A400",
"L. c #F9A100",
"P. c #FCAD00",
"I. c #FCB500",
"U. c #FDBD00",
"Y. c #F7C700",
"T. c #FCC300",
"R. c #F7CC00",
"E. c #FDCB00",
"W. c #F6D100",
"Q. c #F8D100",
/* pixels */
"                                                                                                                                ",
"                                                                                                                                ",
"                                                                                                                                ",
"                                                                                                                                ",
"                                                                                                                                ",
"                                                                                                                                ",
"                                                                                                                                ",
"                                                                                                                                ",
"                                                                                                                                ",
"                                                                                                                                ",
"                                                                                                                                ",
"                                                                                                                                ",
"                                                                                                                                ",
"                                                            e c x z z 4                                                         ",
"                                                          1 ~ h.n.+.8.d                                                         ",
"                                                        . D ` { K b _ g                                                         ",
"                                                        , E / 8.5 o s w                                                         ",
"                                                      o Y U S P                                                                 ",
"                                                      . m > . .                                                                 ",
"                                                      . +                                                                       ",
"                                                        . + +                                                                   ",
"                                                    + * E _ U 1                                                                 ",
"                                                  & _ ^ / ' 4                                                                   ",
"                                                X I ' d.N.Q ;                                                                   ",
"                                                & ` +.t.{ 0   $ .                                                               ",
"                                              @ Z +.t.t.<.t o p 1           o                                                   ",
"                                              3 o.t.t.t.;.H W _ 4       s Y Y g                                                 ",
"                                              , ^ ;.t.t.h.d.+./ 8     9 R ^ b :                                                 ",
"                                              3 o.t.t.t.;.) 2.^ r O a T d.A =                                                   ",
"                                              3 ' t.t.t.t.8.t.^ 8 o C b.' m                                                     ",
"                                              3 ' t.t.t.t.;.t.<.C M Q 8.+.M                                                     ",
"                                              3 ' t.t.t.t.;.t.N.+.b.8.;.Z 2                                                     ",
"                                              # f +.{ d. .;.<.;.;.;.t.t.u $                                                     ",
"                                  3 i u 1       @ ' ;.h.{ h.h.;.t.t.t.;.u %                                                     ",
"                                  4 L ' I 7     o N ~ ' N E t.+.;.t.t.;.u                                                       ",
"                                    9 ' 8.A       O B T = s ` <.t.t.t.;.j @                                                     ",
"                                    8 ' 8.I 4       + s 7 @ E { h.t.t.t.' m 6                                                   ",
"                                    y ' t.( Y o       o J q _ +.h.t.t.t.+.+.` V                                                 ",
"                                  g 8.h.;.' _ ;       O _ ) <. .t.t.t.t.o.t.t. .n                                               ",
"                                  x ;.8.;.8.o.F .     + Q b.;.;.d.t.t.t.t.8.8.t.,.L O                                           ",
"                                y ` ;.t.t.8.t.I , - , L o.t.t.t.t.t.t.t.;.o.t.^ Q o.M                                           ",
"                                f +.;.;.t.h.t.( ` ^ ` ' h.t.t.t.t.t.t.t.8. .{ N y ! K X                                         ",
"                                f ;.t.t.t.t.t.t.h.d.t.;.8.t.t.t.t.t.t.t.t.;.+.M + y ( V                                         ",
"                                p ;.t.t.t.t.t.t.8.d.t.t.t.t.t.t.t.3. .;.;.t.8.( k 8 +.Y                                         ",
"                                i  .t.t.t.t.t.t.t.t.t.t.t.t.t.t.t.S.Z.2.t.t.t.t.E I t.E                                         ",
"                                i { t.t.t.t.t.t.t.t.t.t.t.t.t.t.;.K.Y.S.;.t.t.;.{ t.' E                                         ",
"                                # B t.t.t.t.t.t.t.;.t.;.t.t.t.t.t.K.W.H.t.t.t.t.t.+.+.R $                                       ",
"                                  l 8.;.;.;.t.t.t. .;.8.t.h.;.,.L.T.Y.H.8.t.t.t.t.t.t.E $                                       ",
"                                    g ' t.t.t.t.t.;.;. . .h.d.S.T.E.J.V.;.t.t.t.t.t.t.E $                                       ",
"                                      g ` t.t.t.t.h.8.+.+.t.2.K.R.E.S. .t.t.;.t.t.t.t.E $                                       ",
"                                        j +.t.t.t.t.b.C.m.t.2.K.R.Q.S.8.h.t.;.;.t.t.t.R                                         ",
"                                        6 ;.t.t.t.;.2.P.3.o.D.T.Y.Q.S.8.h.t.t.t.d.8.U 0                                         ",
"                                        6 ;.t.t.t.;.m.I.G.A.U.R.E.E.S. .t.t.t.;.t.2.n o                                         ",
"                                        6 ;.t.t.t.;.d.H.T.T.E.R.E.E.K.V.;.t.t.;.;._ w                                           ",
"                                        * R ;.;.;.t.;.m.U.E.E.E.E.R.Y.D.8.t.;.t._ v                                             ",
"                                          * M ' d.t.;.b.T.E.E.E.E.R.Y.K.B.8.+.d.m $                                             ",
"                                            & D I t.;.m.T.E.E.E.E.E.W.E.S.+.+.~ u                                               ",
"                                            X 3 + o.;.m.T.E.E.E.E.E.E.R.D.) 8.Z X                                               ",
"                                            @ h > ' ;.m.I.T.E.E.E.T.T.E.F. .o.m $                                               ",
"                                              < T <. .+.m.L.Y.R.E.E.W.U.Z.' ) Z -                                               ",
"                                              , E 2.+. .+.m.P.T.T.T.Y.F.2.{ { ~                                                 ",
"                                                @ R E ' d.+.b.x.c.m.m.8.{ ^ E k                                                 ",
"                                                  X * G '  .{  .{  .)  .( g &                                                   ",
"                                                      * 5 6 6 6 6 6 6 6 5 +                                                     "
};
