/* XPM */
static char *_6f7ee5594d2454aa9b8f90c04de03c1YotVL98wu0ntqpZQ[] = {
/* columns rows colors chars-per-pixel */
"64 64 175 2 ",
"   c None",
".  c #020103",
"X  c #0C0102",
"o  c #00000B",
"O  c #09000A",
"+  c #150100",
"@  c #1C0300",
"#  c #1E000B",
"$  c #010213",
"%  c #130010",
"&  c #260600",
"*  c #290400",
"=  c #240B00",
"-  c #2B0C00",
";  c #24000D",
":  c #310600",
">  c #340C00",
",  c #3A0B00",
"<  c #361300",
"1  c #3B1100",
"2  c #391800",
"3  c #001423",
"4  c #420D00",
"5  c #451500",
"6  c #4B1400",
"7  c #431A00",
"8  c #4E1A00",
"9  c #521600",
"0  c #591300",
"q  c #541A00",
"w  c #5C1A00",
"e  c #621700",
"r  c #6E1600",
"t  c #651E00",
"y  c #6C1D00",
"u  c #721E00",
"i  c #632200",
"p  c #6A2400",
"a  c #6C2B00",
"s  c #772400",
"d  c #7D2600",
"f  c #732800",
"g  c #7E2900",
"h  c #852300",
"j  c #882700",
"k  c #852B00",
"l  c #8C2C00",
"z  c #9A2200",
"x  c #952C00",
"c  c #9B2D00",
"v  c #853100",
"b  c #8F3300",
"n  c #933100",
"m  c #9B3200",
"M  c #AE2000",
"N  c #B22E00",
"B  c #A33300",
"V  c #AB3500",
"C  c #A73800",
"Z  c #A93900",
"A  c #B53300",
"S  c #B43E00",
"D  c #BF3F00",
"F  c #C63300",
"G  c #C43E00",
"H  c #D63D00",
"J  c #ED3800",
"K  c #B44000",
"L  c #C34300",
"P  c #C94000",
"I  c #CE4A00",
"U  c #D24400",
"Y  c #DA4400",
"T  c #D64C00",
"R  c #DC4B00",
"E  c #DC5200",
"W  c #E24500",
"Q  c #E24C00",
"!  c #EC4E00",
"~  c #F44600",
"^  c #F24D00",
"/  c #FD4C00",
"(  c #E55300",
")  c #EC5300",
"_  c #EF5A00",
"`  c #F75500",
"'  c #F75700",
"]  c #F55400",
"[  c #F45300",
"{  c #F95000",
"}  c #FA5100",
"|  c #F85300",
" . c #F95300",
".. c #FB5300",
"X. c #FB5200",
"o. c #FE5000",
"O. c #FF5300",
"+. c #F85500",
"@. c #FA5500",
"#. c #F85600",
"$. c #F85700",
"%. c #FA5600",
"&. c #FA5700",
"*. c #FB5700",
"=. c #FC5500",
"-. c #FE5400",
";. c #FF5400",
":. c #FE5500",
">. c #FF5500",
",. c #FC5700",
"<. c #FC5600",
"1. c #FE5600",
"2. c #FF5600",
"3. c #FE5700",
"4. c #FF5700",
"5. c #FD5500",
"6. c #F25A00",
"7. c #F45900",
"8. c #F75900",
"9. c #F65A00",
"0. c #F75A00",
"q. c #F05E00",
"w. c #F45D00",
"e. c #F65C00",
"r. c #F55B00",
"t. c #F85800",
"y. c #FB5800",
"u. c #FA5900",
"i. c #F85A00",
"p. c #FC5800",
"a. c #FE5800",
"s. c #FF5800",
"d. c #FE5900",
"f. c #FF5900",
"g. c #FC5A00",
"h. c #FC5B00",
"j. c #FF5A00",
"k. c #FF5B00",
"l. c #FE5A00",
"z. c #FB5D00",
"x. c #F85F00",
"c. c #FB5E00",
"v. c #FE5C00",
"b. c #FC5E00",
"n. c #FE5900",
"m. c #EC6300",
"M. c #F36000",
"N. c #F76000",
"B. c #F56200",
"V. c #FB6100",
"C. c #FA6300",
"Z. c #F16C00",
"A. c #EB7300",
"S. c #EF7C00",
"D. c #F27300",
"F. c #F07F00",
"G. c #EC8400",
"H. c #E98B00",
"J. c #F48200",
"K. c #F58900",
"L. c #E99900",
"P. c #F59400",
"I. c #F89200",
"U. c #F49D00",
"Y. c #F99C00",
"T. c #F6A200",
"R. c #F7AD00",
"E. c #F5B100",
"W. c #F6B900",
"Q. c #FDBA00",
"!. c #FDC300",
"~. c #F6CF00",
"^. c #FDCB00",
"/. c #F6D200",
"(. c #F8D000",
/* pixels */
"                                                                                                                                ",
"                                                                                                                                ",
"                                              + ,                                                                               ",
"                                              q Q .                                                                             ",
"                                              q Y .                                                                             ",
"                                                & .                                                                             ",
"                                                                                                                                ",
"                                                                                                                                ",
"                                                                                                                                ",
"                                                                                                                                ",
"                                                                                                                                ",
"                                                                      = X                                                       ",
"                                                                  ! ( H 6                                                       ",
"                                                              , G ) W q                                                         ",
"                                                              L { ) 6                                                           ",
"                                                            x z.u.Q =                                                           ",
"                                                            x g.` ) g                                                           ",
"                                                          - V ,.,.&.[                                                           ",
"                            ;                             c ` { { 9.A                                                           ",
"                          u B .                         X x [ ,.,.! -                                                           ",
"                          t l .                         n Q &.[ Q ` =                                                           ",
"                            + .                     . l _ &.^ L w Q &                                                           ",
"                                                  X m R ^ ,.u.L @ 9                                                             ",
"                                                o V ^ ,./ z.,.G . .                                                             ",
"                                                a z.9.&.g.b.,.L - e                                                             ",
"                                              9 ) u.g.g.{ ,.&.T k E -         u p w X                                           ",
"                                              t ` g.g.g.g.g.g.g.,.! ,   + Z 9.[ ) V .                                           ",
"                                            8 W [ g.g.g.g.g.g.g.,.^ ! 1 K ) B.E N                                               ",
"                                            i &.u.g.g.g.g.g.,.g.g.g.{ [ 9.&./ z .                                               ",
"                                            w &.e.g.g.g.g.,.,.g.g.g.,.,.g.u.V #                                                 ",
"                                          . i &.,.g.g.g.,.,.,.,.g.g.g.g.g.[ m                                                   ",
"                                      O   . p &.,.,.g.g.g.,.,.,.g.g.g.g.g.m ,                                                   ",
"                                  $ w =   . p &.,.g.g.g.g.g.,.,.,.,.,.,.,.t $                                                   ",
"                                  6 L 5   . i &.g.g.g.g.g.g.,.,.,.,.g.,.g.p o                                                   ",
"                                < ) q.7     4 D &.,.g.g.g.g.g.,.g.g.g.g.g.p                                                     ",
"                                7 z.&.7       0 ~ ,.g.g.g.g.g.g.g.g.g.g.,.t                                                     ",
"                              - R e.~ 7       9 W ,.g.,.,.g.g.g.g.g.,.,.,.) x                                                   ",
"                              > ~ b.{ W r       > &.g.g.g.g.g.,.g.g.,.,.g.u.V                                                   ",
"                              > ! b.g.[ L 4 3   = &.,.g.g.g.g.,.g.,.,.,.g.u.U e                                                 ",
"                              B / ,.,.{ [ I r . @ &.,.g.,.,.,.,.g.,.,.,.,./ &.T d                                               ",
"                            y ` o.,.o.,.g.[ F d h ,.,.,.g.g.g.g.g.g.g.,.,.{ V.B.T 0                                             ",
"                            y z.9.b.,.,.g.9.7.o.&.,.,.,.g.g.g.g.,.g.g.g.g.b.,.{ ` Y r                                           ",
"                            p &.7.g.g.,.g.,.,.,.g.g.,.,.g.,./ B.B.g.,.,.g.g.,.,.g.&.` 2                                         ",
"                            q U ` g.g.g.g.g.g.g.g.g.,.g.g.,.B.H.Y.g.g.g.g.g.g.g.g.g.9.9                                         ",
"                              1 ^ ,.,.g.g.g.g.g.g.g.g.g.g.&.K.!.E.b.g.g.g.g.g.u.[ ) u.J >                                       ",
"                              - ^ ,.g.g.g.g.g.g.g.g.g.g.,.&.P.~.R.b.g.,.g.g.g.[ P i ~ u.1                                       ",
"                              - [ ,.g.g.g.g.,.,.,.,.g.,.g.u.I.(.!.W.B.o.g.g.g.,.[ R ,.g.R w                                     ",
"                              > ~ ,.,.g.g.g.,.,.,.,.,.,.g.u.I.(.^.!.B.o.g.g.g.g.g.g.g.g.,.f                                     ",
"                              X k g.g.g.g.g.g.g.g.g.g.g.g.u.I.(.^.!.Z.,.o.,.g.g.,.,.,.,.,.s                                     ",
"                                < &.g.g.g.g.g.g.g.g.g.g.g.u.I.(.^.^.F.C.,.g.g.g.g.g.,.,.,.s                                     ",
"                                  A ^ e.{ ,.g.g.,.,.u.A.g.o.P.^.^.^.!.G.b.g.g.u.,.,.g.g.,.f                                     ",
"                                  . M &.` ,.g.,.,.,.e.T.G.m.L.^.^.^.^.Q.J.B.g.u.,.g.g.g.,.f                                     ",
"                                    % S ^ ,.,.g.g.,.B.E.!.Q.!.^.^.^.(.^.!.D.,.,.g.g.g.g.,.f                                     ",
"                                      O Z ,.g.g.g.,.u.E.~.^.^.^.^.^.^.^.^.S.&.o.g.g.g.g.,.f                                     ",
"                                      o C g.g.g.g.,.z.R.^.^.^.^.^.^.^.^.^.W.K.,.g.u.g.g.o.p                                     ",
"                                      . Z g.g.g.g.,.z.R.^.^.^.^.^.^.^.^.^.^.U.g.u.g.u.e.B.a                                     ",
"                                      . Z g.g.g.g.,.z.R.^.^.^.^.^.^.^.^.^.^.U.g.u.b.g.&.{ p                                     ",
"                                      . Z g.g.g.g.,.z.R.^.^.^.^.^.^.^.^.^.^.U.g.u.u.b.^ z :                                     ",
"                                      O s ) u.g.g.g.u.Y.^.^.^.^.^.^.!.^.^.!.I.g.,./ ,.( <                                       ",
"                                          t U g.g.,./ m.Y.!./.^.^.^.^./.Q.S.9.o.&.z.&.U *                                       ",
"                                            i ) g.b.,.g.B.P.!.!.!.!.^.!.J.9.,.o.,.` [ ,                                         ",
"                                              p Q ( 7.g.g.C.D.D.A.A.D.Z.z.u.u.[ Q G ,                                           ",
"                                                  q W ,./ / o./ { o./ / o.o./ B 5 -                                             ",
"                                                      l j b b n b b b b b v d ,                                                 "
};
