/* XPM */
static char *_0f60ce4e9804b248703122a8b8093adTGAdPYzExr9j4qCL[] = {
/* columns rows colors chars-per-pixel */
"64 64 174 2 ",
"   c None",
".  c #020204",
"X  c #0B0104",
"o  c #04000A",
"O  c #0B000C",
"+  c #140200",
"@  c #1D0301",
"#  c #1F0900",
"$  c #130009",
"%  c #030017",
"&  c #090013",
"*  c #000811",
"=  c #230500",
"-  c #2C0303",
";  c #230900",
":  c #2C0C00",
">  c #310300",
",  c #380600",
"<  c #340C00",
"1  c #3C0C00",
"2  c #321000",
"3  c #3E1400",
"4  c #3D1800",
"5  c #420600",
"6  c #400E00",
"7  c #4D0B00",
"8  c #540F00",
"9  c #580F00",
"0  c #441400",
"q  c #4A1400",
"w  c #4E1A00",
"e  c #541700",
"r  c #5B1400",
"t  c #541A00",
"y  c #5B1B00",
"u  c #631400",
"i  c #681600",
"p  c #661E00",
"a  c #7E1D00",
"s  c #642400",
"d  c #6C2100",
"f  c #742400",
"g  c #7E2500",
"h  c #7D2A00",
"j  c #861600",
"k  c #852500",
"l  c #8B2700",
"z  c #832B00",
"x  c #8C2C00",
"c  c #942700",
"v  c #9C2400",
"b  c #952C00",
"n  c #9E2E00",
"m  c #923300",
"M  c #9C3300",
"N  c #A52F00",
"B  c #BB2300",
"V  c #B42F00",
"C  c #BB2E00",
"Z  c #A33200",
"A  c #AB3400",
"S  c #A73C00",
"D  c #AB3A00",
"F  c #B33500",
"G  c #B63D00",
"H  c #BD3D00",
"J  c #C22F00",
"K  c #C13600",
"L  c #CE3700",
"P  c #C53F00",
"I  c #CC3A00",
"U  c #AB4100",
"Y  c #BC4200",
"T  c #C14300",
"R  c #CB4300",
"E  c #C14A00",
"W  c #D44400",
"Q  c #DA4500",
"!  c #D24B00",
"~  c #DC4C00",
"^  c #D65100",
"/  c #DD5100",
"(  c #E24500",
")  c #EC4300",
"_  c #E54B00",
"`  c #EB4C00",
"'  c #FF4400",
"]  c #F44D00",
"[  c #FD4E00",
"{  c #E75300",
"}  c #EC5300",
"|  c #ED5C00",
" . c #F45400",
".. c #FC5500",
"X. c #FE5400",
"o. c #FE5500",
"O. c #FF5500",
"+. c #FC5700",
"@. c #FE5600",
"#. c #FF5600",
"$. c #FE5700",
"%. c #FF5700",
"&. c #FC5500",
"*. c #F75900",
"=. c #F65A00",
"-. c #F65D00",
";. c #F45F00",
":. c #F65E00",
">. c #F65B00",
",. c #F85800",
"<. c #F85900",
"1. c #FB5800",
"2. c #FB5900",
"3. c #FA5900",
"4. c #F85B00",
"5. c #FA5A00",
"6. c #FB5B00",
"7. c #FC5800",
"8. c #FC5900",
"9. c #FE5800",
"0. c #FF5800",
"q. c #FE5900",
"w. c #FF5900",
"e. c #FC5A00",
"r. c #FC5B00",
"t. c #FE5A00",
"y. c #FF5A00",
"u. c #FE5B00",
"i. c #FF5B00",
"p. c #F85D00",
"a. c #FB5D00",
"s. c #FA5F00",
"d. c #FC5C00",
"f. c #FC5D00",
"g. c #FF5C00",
"h. c #FE5D00",
"j. c #FF5D00",
"k. c #FC5F00",
"l. c #FE5E00",
"z. c #FD5900",
"x. c #EB6200",
"c. c #F46300",
"v. c #F46700",
"b. c #F36100",
"n. c #F86100",
"m. c #FB6300",
"M. c #FF6100",
"N. c #FA6400",
"B. c #F76A00",
"V. c #F86C00",
"C. c #ED7C00",
"Z. c #F37000",
"A. c #F37600",
"S. c #F27A00",
"D. c #EC8400",
"F. c #EE8C00",
"G. c #F28400",
"H. c #F88D00",
"J. c #EE9100",
"K. c #F29200",
"L. c #F59C00",
"P. c #FD9C00",
"I. c #EFA200",
"U. c #F4A200",
"Y. c #F8A000",
"T. c #F5AF00",
"R. c #F8AB00",
"E. c #FBB400",
"W. c #FBBC00",
"Q. c #FCC400",
"!. c #F5CE00",
"~. c #FDCB00",
"^. c #F3D200",
"/. c #FAD100",
/* pixels */
"                                                                                                                                ",
"                                                                                                                                ",
"                                                                                                                                ",
"                                                                                                                                ",
"                                                                                                                                ",
"                                                                                                                                ",
"                                                                                                                                ",
"                                                                                                                                ",
"                                                                                                                                ",
"                                                  < Z a O                                                                       ",
"                                                M x U E *                                                                       ",
"                                              M Y u 5 p O                                                                       ",
"                                              y <                       9 M t                                                   ",
"                                                                        b P r                                                   ",
"                                                        : e             y ,                                                     ",
"                                                        < c                                                                     ",
"                                                          o                                                                     ",
"                                                                                                                                ",
"                                                                                                                                ",
"                                                                                                                                ",
"                                                                  o o o .                                                       ",
"                                                                  C ~ / _ u                                                     ",
"                                                                  y H  .2.T p                                                   ",
"                                                                    , ! q.=.N                                                   ",
"                            + b k                                   O T q.[ D                                                   ",
"                            3 } | x                             $ a c ~ 2. .U                                                   ",
"                              v G ~                           e p / p.f.f. .S                                                   ",
"                                + x       5                 f }  . .p. .,.Y d                                                   ",
"                                        O B i             q { f. .+.q. .Q               2                                       ",
"                                        O j 1           f _ p.,.,.M. .,.h             p ^ :                                     ",
"                                          X           0 ` f.q.+.+.q. .}             : ) W =                                     ",
"                                                      y } +.+.f.v.=.2.s             ; V +                                       ",
"                                                    r (  .2.+.-.P.Z.q.s                                                         ",
"                                                  e ~ ,.q.=.+.q.V.m. .s                                                         ",
"                                                  z q.q.q.q.q.q.q.q.=.W                                                         ",
"                                                  z q.,.2.q.q.q.+.X.p.,.h         X O                                           ",
"                                                  h q.q.q.q.q.q.q.+.-.+.L 8     - F Z                                           ",
"                                                . z q.q.q.q.q.q.q.f.,.q.f.g . 4 A ~ g                                           ",
"                                          r b q . z q.q.q.q.q.q.q.q.X.m.-.f 6 Y 2.S o                                           ",
"                                        q K G 7 & 0 R +.2.2.q.q.q.2.+.q.X.Z Z  .2.G o                                           ",
"                                      t W  .p       z ,.X.+.+.q.q.+.q.q.q. . .q.f.H .                                           ",
"                                    w R 2.I >       k ,.2.,.+.q.q.+.+.q.q.q.,.,.,.F .                                           ",
"                                  @ `  . .y         M  .+.q.q.q.q.q.q.q.q.q.q.2.2.T 1                                           ",
"                                  #  . . .y       f  .,.2.q.q.X.2.c.+.2.,.+.q.q.q.2.^                                           ",
"                                  #  .=.,.f     + k q.q.q.+.p.X.-.E.G.q.q.q.q.q.q.2.=.P                                         ",
"                                  #  .p.+.( t o x  .q.q.q.+.f.X.| E.F.[ ,.q.q.q.q.q.q.Q                                         ",
"                                  ;  .q.2.+.~ ! {  .q.q.q.+.p.,.x.W.W.S.2.q.q.q.+.+.m.` P                                       ",
"                                  ;  .2.2.q.+.q.+.+.q.q.q.q.q.+.;.W.~.Q.G.2.q.p.q.+.q.+.] :                                     ",
"                                  #  .f.q.,.q.q.q.q.q.+.q.q.q.+.-.S.E./.K.b.q.2.q.q.q.q. .:                                     ",
"                                    w R q.q.q.q.q.q.q.q.q.q.q.q.q.X.R./.E.S.,.,.+.q.q.q.2.A X                                   ",
"                                    X P q.2.q.q.q.q.q.+.q.p.q.+.q.-.T.~./.F.2.X.q.q.q.q.q.` ;                                   ",
"                                      y ~ ,.q.q.q.+.p.,.N.K.b.[ =.K.W.~.~.T.G.X.p.q.q.q.+. .=                                   ",
"                                      O Q  .q.q.q.q.2.X.S.E.J.G.F.E.~./.~.~.U.2.p.q.q.q.+. .=                                   ",
"                                        g ~ q.q.q.q.+.p.I.!.~.~.~.~.~.~.~.~.Y.+.+.+.q.q.+. .=                                   ",
"                                        % n  .q.q.f.+.A.Q.~.~.~.~.~.~.~.~.~.L.2.2.q.q.+.+.} ;                                   ",
"                                          o Y ,.p.2.+.S.~.~.~.~.~.~.~.~.~.~.L.2.+.2.q.p.=.D X                                   ",
"                                          o Y  .p.q.+.S.~.~.~.~.~.~.~.~.~.^.L.2.+.q.2.-.| :                                     ",
"                                          o Y ,.p.q.+.B.E.~.~.~.~.~.~.~.~.Q.H.2.-.p.q.] J @                                     ",
"                                          o Y ,.f.2.+.2.D.Q.~.~.~.~.~.~.Q.K.-.,.p.,.2.! +                                       ",
"                                          X D  .q.2.,.+.-.S.E.~.~.~.~.Q.K.b.' +.X.q.,.R o                                       ",
"                                          z } ,.,.,.q.2.X.X.C.W.~.~.Q.F.p.-.,.m.b.=.~ @                                         ",
"                                          < e D }  . .=.p.+.-.A.C.D.S.c.X.] ` ] R y 0                                           ",
"                                              = w w x ] +.X.+.X.[ [ [ X.,.x w t                                                 ",
"                                                    - l x x m m m m m m m                                                       "
};
