/* XPM */
static char *bd383cf3fd5b45ddf3f2e2202e14103abDTeQftzdEeZzd6m[] = {
/* columns rows colors chars-per-pixel */
"64 64 169 2 ",
"   c None",
".  c #020005",
"X  c #0C0102",
"o  c #03010B",
"O  c #0C000C",
"+  c #140300",
"@  c #1B0202",
"#  c #170008",
"$  c #030212",
"%  c #000810",
"&  c #02021B",
"*  c #130012",
"=  c #1B0019",
"-  c #250201",
";  c #2C0500",
":  c #230A00",
">  c #2F0D00",
",  c #2D0009",
"<  c #320700",
"1  c #340C00",
"2  c #3C0C00",
"3  c #271500",
"4  c #2F1300",
"5  c #3E1200",
"6  c #470300",
"7  c #4A0E00",
"8  c #520D00",
"9  c #471300",
"0  c #4D1100",
"q  c #511400",
"w  c #5A1500",
"e  c #5C1B00",
"r  c #631700",
"t  c #651C00",
"y  c #6C1C00",
"u  c #5C2100",
"i  c #662000",
"p  c #6D2300",
"a  c #732400",
"s  c #7C2300",
"d  c #7C2900",
"f  c #811300",
"g  c #842600",
"h  c #8B2500",
"j  c #842A00",
"k  c #8B2A00",
"l  c #982200",
"z  c #932D00",
"x  c #9B2E00",
"c  c #883200",
"v  c #943400",
"b  c #9B3400",
"n  c #9F3900",
"m  c #A12D00",
"M  c #AA2E00",
"N  c #B82700",
"B  c #A33500",
"V  c #AA3400",
"C  c #A53A00",
"Z  c #AC3B00",
"A  c #B33600",
"S  c #BB3300",
"D  c #B43C00",
"F  c #BB3A00",
"G  c #C23600",
"H  c #C33A00",
"J  c #CB3D00",
"K  c #D13E00",
"L  c #EB3900",
"P  c #B94200",
"I  c #C44300",
"U  c #CA4400",
"Y  c #CB4B00",
"T  c #D44200",
"R  c #DA4400",
"E  c #D74900",
"W  c #DB4C00",
"Q  c #E24400",
"!  c #E44A00",
"~  c #EB4C00",
"^  c #F24C00",
"/  c #FB4D00",
"(  c #E55300",
")  c #ED5300",
"_  c #F45500",
"`  c #F75500",
"'  c #F55600",
"]  c #F75700",
"[  c #F55400",
"{  c #FA5200",
"}  c #FC5300",
"|  c #FA5400",
" . c #FB5500",
".. c #F85700",
"X. c #FB5600",
"o. c #FB5700",
"O. c #FC5500",
"+. c #FE5400",
"@. c #FE5500",
"#. c #FF5500",
"$. c #FC5600",
"%. c #FC5700",
"&. c #FE5600",
"*. c #FF5600",
"=. c #FE5700",
"-. c #FF5700",
";. c #FD5400",
":. c #F45900",
">. c #F65900",
",. c #F75B00",
"<. c #F75F00",
"1. c #F65B00",
"2. c #F85800",
"3. c #F85900",
"4. c #FA5800",
"5. c #FB5900",
"6. c #F85A00",
"7. c #F85B00",
"8. c #FA5B00",
"9. c #FB5A00",
"0. c #FC5800",
"q. c #FC5900",
"w. c #FE5800",
"e. c #FF5800",
"r. c #FE5900",
"t. c #FF5900",
"y. c #FC5A00",
"u. c #FC5B00",
"i. c #FE5A00",
"p. c #FF5A00",
"a. c #F85D00",
"s. c #FB5D00",
"d. c #FC5C00",
"f. c #FE5C00",
"g. c #FE5900",
"h. c #ED6400",
"j. c #EE6900",
"k. c #F36100",
"l. c #F36700",
"z. c #F66500",
"x. c #F66300",
"c. c #FA6200",
"v. c #F36A00",
"b. c #F46C00",
"n. c #FB6F00",
"m. c #ED7300",
"M. c #F67500",
"N. c #F97400",
"B. c #F57B00",
"V. c #FC7C00",
"C. c #F28400",
"Z. c #FA8500",
"A. c #F48A00",
"S. c #EF9300",
"D. c #EB9D00",
"F. c #F39200",
"G. c #F49C00",
"H. c #F89900",
"J. c #F3A100",
"K. c #F9A300",
"L. c #F3A800",
"P. c #FCB100",
"I. c #FCB300",
"U. c #FDB400",
"Y. c #FCBE00",
"T. c #FCC300",
"R. c #F7CD00",
"E. c #FCCB00",
"W. c #F6D100",
/* pixels */
"                                                                                                                                ",
"                                                                                                                                ",
"                                                                                                                                ",
"                                                            1                                                                   ",
"                                                          e J @                                                                 ",
"                                                          5 Y b .                                                               ",
"                                                            @ X                                                                 ",
"                                                                                                                                ",
"                                                                                                                                ",
"                                                                                                                                ",
"                                                                                                                                ",
"                                                o o                                                                             ",
"                                              g S P y                                                                           ",
"                                            6 T X.X.U                                                                           ",
"                                            b B k A 6.n               w k <                                                     ",
"                                            p ; o v E r             8 U ^ y                                                     ",
"                                            o     e t             O f ! ^ v 4                                                   ",
"                                                                    . g Y H                                                     ",
"                                                      , 1             O o o                                                     ",
"                                                      a A                                                                       ",
"                                                      h ~ M                                                                     ",
"                                                      ~ U $                                                                     ",
"                                                      d Z *     . . .                                                           ",
"                                                              1 Q ! ! R < .                                                     ",
"                                                            + V ( [ 6.6.K A 2                                                   ",
"                                o o                           Y 9 ! d.6.>.X.R p                                                 ",
"                            o O v c X                         5 . ~ e.6.d.X.` k                                                 ",
"                          > C A 6.) @                           X ! e.6.e.6.e.T q                                               ",
"                          ; V ` ( j =   $                   % @ d ! e.e.e.e.e.@.g                                               ",
"                            e s.W .     r @               v C Z ` 6.6.d.e.e.e.@.g                                               ",
"                            - B h     . K g -         3 j _ e.` @.e.e.@.e.e.e.e.g                                               ",
"                                $     . J _ u       # B [ @.@.e.e.e.e.@.e.X.d.U       e o                                       ",
"                                      . k ( t     + k ^ @.e.e.e.e.e.e.@.@.@.X.z     k S o                                       ",
"                                        o v     - m [ s.6.e.e.e.e.X.e.e.@.e.F     p / U                                         ",
"                                          O   X z [ d.e.@.e.e.e.>.<.s.6.@.e.i     d ~ V                                         ",
"                                    S 5       + Z e.e.@.@.e.e.e.<.P.z.@.6.R 9     e h O                                         ",
"                                  X W L 5     b ` e.e.e.e.e.e.e.k.P.l.6._ d       . X                                           ",
"                                    @ -     o A e.e.e.e.e.e.e.e.e.v.e.@.X.s                                                     ",
"                                            b ^ X.e.e.e.e.e.e.e.e.+.e.6.{ d                                                     ",
"                                          . D @.e.e.e.e.e.e.e.e.e.e.e.e.>.d                                                     ",
"                                          . D @.e.e.e.e.e.e.e.e.e.e.e.e._ a                                                     ",
"                                    & .   . D @.e.e.e.e.e.e.e.e.e.e.e.e.` F -       =                                           ",
"                                    X z ; . A 6.e.e.e.e.e.e.e.e.e.@.@.e.X.>.a %   7 N l                                         ",
"                                    + Q v : F <.@.e.e.e.e.e.e.e.6.s.+.d.@.` B 2 2 D I y                                         ",
"                                    X ! ) n W 6.e.e.e.e.e.e.e.e.s.F.s.X.X.e.[ J J s.C .                                         ",
"                                    X ( e./ d.+.d.e.e.e.e.e.e.e.x.Y.S.z.6.d.d.d.e.:.H q                                         ",
"                                    + ! >.+.s.6.d.e.e.e.e.e.e.e.k.Y.R.n.+.+.@.s.@.e.>.G                                         ",
"                                    X x ~ @.@.@.e.e.e.e.e.e.e.e.>.K.R.A.<.X.@.d.e.e.e.J                                         ",
"                                      . h ~ @.e.@.e.e.e.e.e.e.e.e.j.T.R.S.v.e.e.e.e.e.U                                         ",
"                                        o x ) x.@.e.e.e.e.e.e.e.@.z.Y.W.R.C.6.e.e.e.e.T +                                       ",
"                                            k ~ @.e.e.e.e.c.m.+./ x.T.R.R.D.x.@.e.e.e.{ A X                                     ",
"                                              z _ e.e.e.6.N.P.m.h.j.Y.T.E.T.V.X.e.e.e.@.U .                                     ",
"                                              @ C e.e.e.X.B.R.Y.Y.Y.R.R.R.R.Z.6.e.e.e.@.U .                                     ",
"                                              o B e.e.e.X.B.R.E.E.R.E.R.E.R.Z.+.e.e.e.@.U .                                     ",
"                                              o C e.e.e.+.C.R.E.E.E.E.E.E.E.Y.F.e.e.e.e.F .                                     ",
"                                              X C e.e.e.b.U.R.E.E.E.E.E.E.E.T.F.e.e.e.e.S X                                     ",
"                                              o B e.e.e.B.R.R.E.E.E.E.E.E.R.D.b.e.e.e.W 2                                       ",
"                                            & s ! e.e.e.M.R.R.E.E.E.E.E.R.R.C.+.e.@.e.J .                                       ",
"                                            o V e.e.e.e.z.J.R.E.R.R.R.R.R.L.b.@.6.` 6.H .                                       ",
"                                            w T @.e.e.e.X.z.F.R.E.E.E.E.G.b.e.6.` 6.I 0                                         ",
"                                            B 6.X.e.e.e.+./ x.H.G.G.G.G.z.+.@.d.6.` b                                           ",
"                                            w W X.@.@.@.X.@.@.@.{ { { { +.{ @.e.d.E w                                           ",
"                                              a I U U U U U U U U U U U U U U I H s                                             ",
"                                                $ . . . . . . . . . . . . . . o o                                               "
};
